; generated by PrusaSlicer 2.7.1+linux-x64-GTK3 on 2024-02-20 at 15:21:23 UTC

; 

; external perimeters extrusion width = 0.45mm
; perimeters extrusion width = 0.45mm
; infill extrusion width = 0.45mm
; solid infill extrusion width = 0.45mm
; top infill extrusion width = 0.40mm
; first layer extrusion width = 0.42mm

M73 P0 R8
M201 X9000 Y9000 Z500 E10000 ; sets maximum accelerations, mm/sec^2
M203 X500 Y500 Z12 E120 ; sets maximum feedrates, mm / sec
M204 S2000 T1500 ; sets acceleration (S) and retract acceleration (R), mm/sec^2
M205 X10.00 Y10.00 Z0.20 E2.50 ; sets the jerk limits, mm/sec
M205 S0 T0 ; sets the minimum extruding and travel feed rate, mm/sec

; printing object Bittle_magToe.stl id:0 copy 0
; stop printing object Bittle_magToe.stl id:0 copy 0

;TYPE:Custom
M862.3 P "MK2S" ; printer model check
M862.1 P0.4 ; nozzle diameter check
M115 U3.2.3 ; tell printer latest fw version
G90 ; use absolute coordinates
M83 ; extruder relative mode
M204 S2000 T1500 ; MK2 firmware only supports the old M204 format
M104 S215 ; set extruder temp
M140 S60 ; set bed temp
M190 S60 ; wait for bed temp
M109 S215 ; wait for extruder temp
G28 W ; home all without mesh bed level
G80 ; mesh bed leveling
G1 Z0.2 F720
G1 Y-2 F1000 ; go outside print area
G92 E0
G1 X60 E9 F1000 ; intro line
G1 X100 E12.5 F1000 ; intro line
G92 E0
G21 ; set units to millimeters
G90 ; use absolute coordinates
M83 ; use relative distances for extrusion

M900 K0.05 ; Filament gcode LA 1.5
M900 K30 ; Filament gcode LA 1.0




M107
;LAYER_CHANGE
;Z:0.2
;HEIGHT:0.2
;BEFORE_LAYER_CHANGE
G92 E0.0
;0.2


G1 E-.8 F2100
M73 P1 R8
G1 Z.2 F720
;AFTER_LAYER_CHANGE
;0.2
G1 X112.166 Y99.575 F10800
G1 Z.2 F720
G1 E.8 F2100
M204 S800
;TYPE:Skirt/Brim
;WIDTH:0.42
G1 F1200
G1 X112.745 Y99.111 E.02326
G1 X121.908 Y93.501 E.33687
G1 X124.91 Y91.92 E.10638
G1 X126.098 Y91.607 E.03852
G1 X131.674 Y91.476 E.17488
G1 X133.504 Y91.577 E.05747
G1 X134.832 Y91.759 E.04203
G1 X136.626 Y92.152 E.05758
G1 X137.982 Y92.565 E.04444
G1 X139.583 Y93.191 E.0539
G1 X140.862 Y93.809 E.04454
G1 X143.018 Y95.021 E.07755
G1 X144.253 Y95.929 E.04806
G1 X145.27 Y96.982 E.0459
G1 X145.984 Y97.994 E.03883
G1 X146.515 Y99.011 E.03597
G1 X146.935 Y100.176 E.03883
G1 X147.193 Y101.421 E.03987
G1 X147.272 Y102.658 E.03886
G1 X147.189 Y103.804 E.03603
G1 X146.936 Y105.017 E.03885
G1 X146.42 Y106.391 E.04602
G1 X145.797 Y107.497 E.0398
G1 X145.044 Y108.479 E.0388
G1 X143.987 Y109.492 E.0459
G1 X132.287 Y117.132 E.43813
G1 X131.268 Y117.658 E.03596
G1 X129.409 Y118.297 E.06163
G1 X128.256 Y118.516 E.0368
G1 X127.157 Y118.606 E.03457
G1 X125.075 Y118.47 E.06542
G1 X123.907 Y118.21 E.03752
M73 P2 R8
G1 X122.564 Y117.715 E.04488
G1 X121.362 Y117.086 E.04254
G1 X119.674 Y115.914 E.06443
G1 X119.047 Y115.287 E.0278
G1 X111.433 Y104.684 E.40929
G1 X111.122 Y104.012 E.02322
G1 X110.915 Y103.17 E.02719
G1 X110.879 Y102.431 E.0232
G1 X111.033 Y101.46 E.03083
G1 X111.297 Y100.768 E.02322
G1 X111.678 Y100.133 E.02322
G1 X112.127 Y99.62 E.02138
M204 S1000
G1 X112.409 Y99.866 F10800
M204 S800
G1 F1200
G1 X112.423 Y99.851 E.00064
G1 X112.949 Y99.428 E.02116
G1 X122.104 Y93.822 E.33659
G1 X125.085 Y92.254 E.10561
G1 X126.111 Y91.984 E.03326
G1 X131.67 Y91.853 E.17435
G1 X133.47 Y91.953 E.05652
G1 X134.767 Y92.131 E.04105
G1 X136.533 Y92.517 E.05668
G1 X137.856 Y92.92 E.04336
G1 X139.435 Y93.537 E.05315
G1 X140.682 Y94.14 E.04343
G1 X142.818 Y95.341 E.07683
G1 X143.999 Y96.208 E.04594
G1 X144.981 Y97.225 E.04433
G1 X145.665 Y98.195 E.03721
G1 X146.172 Y99.167 E.03437
G1 X146.574 Y100.286 E.03728
G1 X146.819 Y101.464 E.03773
G1 X146.895 Y102.651 E.03729
G1 X146.817 Y103.746 E.03442
G1 X146.574 Y104.91 E.03728
G1 X146.076 Y106.236 E.04441
G1 X145.486 Y107.284 E.03771
G1 X144.765 Y108.226 E.03719
G1 X143.744 Y109.203 E.04431
G1 X132.101 Y116.805 E.43598
G1 X131.111 Y117.315 E.03492
G1 X130.18 Y117.68 E.03135
G1 X128.203 Y118.142 E.06366
G1 X127.148 Y118.229 E.03319
G1 X126.015 Y118.203 E.03553
G1 X124.016 Y117.85 E.06365
G1 X122.759 Y117.388 E.04199
G1 X121.66 Y116.825 E.03872
G1 X119.894 Y115.607 E.06726
G1 X119.353 Y115.067 E.02397
M73 P3 R8
G1 X111.762 Y104.501 E.40792
G1 X111.478 Y103.89 E.02113
G1 X111.288 Y103.113 E.02508
G1 X111.256 Y102.44 E.02113
G1 X111.395 Y101.568 E.02769
G1 X111.633 Y100.938 E.02112
G1 X111.98 Y100.359 E.02116
G1 X112.37 Y99.911 E.01862
M204 S1000
;WIPE_START
G1 F8640
G1 X112.409 Y99.866 E-.01375
G1 X112.423 Y99.851 E-.00474
G1 X112.949 Y99.428 E-.15586
G1 X115.26 Y98.013 E-.62565
;WIPE_END
G1 Z.6 F720
G1 X120.645 Y100.511 F10800
G1 Z.2 F720
G1 E.8 F2100
M204 S800
G1 F1200
G1 X121.005 Y99.095 E.04581
G1 X121.691 Y97.941 E.04209
G1 X122.644 Y97.027 E.0414
G1 X123.579 Y96.505 E.03358
G1 X124.443 Y96.228 E.02845
G1 X124.834 Y96.192 E.01231
G1 X125.527 Y95.525 E.03016
G1 X126.668 Y94.893 E.0409
G1 X128.002 Y94.583 E.04294
G1 X131.76 Y94.518 E.11785
G1 X132.775 Y94.565 E.03186
G1 X134.339 Y94.76 E.04942
G1 X135.401 Y94.978 E.03399
G1 X137.511 Y95.627 E.06922
G1 X139.833 Y96.71 E.08033
G1 X141.54 Y97.686 E.06165
G1 X142.543 Y98.493 E.04036
G1 X143.374 Y99.557 E.04233
G1 X143.862 Y100.56 E.03497
G1 X144.155 Y101.667 E.0359
G1 X144.217 Y102.982 E.04128
G1 X144.063 Y103.981 E.03169
G1 X143.74 Y104.949 E.032
G1 X142.884 Y106.325 E.05081
G1 X141.659 Y107.439 E.05192
G1 X132.924 Y112.934 E.32357
G1 X131.745 Y113.891 E.04761
G1 X130.435 Y114.683 E.048
G1 X129.467 Y115.108 E.03315
G1 X128.594 Y115.366 E.02854
G1 X127.704 Y115.52 E.02832
G1 X126.803 Y115.57 E.02829
G1 X125.909 Y115.517 E.02808
G1 X125.051 Y115.367 E.02731
G1 X124.238 Y115.116 E.02668
G1 X123.195 Y114.627 E.03612
G1 X121.672 Y113.488 E.05963
G1 X121.126 Y112.732 E.02924
G1 X120.725 Y111.894 E.02913
G1 X120.472 Y110.801 E.03518
G1 X120.491 Y109.275 E.04785
G1 X120.751 Y108.14 E.03651
G1 X120.968 Y107.701 E.01535
G1 X120.437 Y105.515 E.07053
G1 X120.491 Y104.467 E.0329
G1 X120.636 Y103.668 E.02546
G1 X120.645 Y100.571 E.0971
M204 S1000
G1 X121.022 Y100.572 F10800
M204 S800
G1 F1200
G1 X121.022 Y100.536 E.00113
G1 X121.363 Y99.216 E.04275
G1 X121.972 Y98.195 E.03727
G1 X122.851 Y97.343 E.03838
G1 X123.712 Y96.858 E.03098
G1 X124.536 Y96.595 E.02712
M73 P4 R8
G1 X124.999 Y96.559 E.01456
G1 X125.732 Y95.842 E.03215
G1 X126.827 Y95.236 E.03924
G1 X128.028 Y94.96 E.03864
G1 X131.749 Y94.895 E.11669
G1 X134.268 Y95.13 E.07932
G1 X136.354 Y95.629 E.06725
G1 X137.381 Y95.981 E.03404
G1 X139.649 Y97.039 E.07847
G1 X141.34 Y98.006 E.06108
G1 X142.289 Y98.773 E.03826
G1 X143.044 Y99.739 E.03844
G1 X143.515 Y100.708 E.03378
G1 X143.786 Y101.743 E.03355
G1 X143.841 Y102.943 E.03766
G1 X143.693 Y103.907 E.03058
G1 X143.39 Y104.807 E.02978
G1 X142.578 Y106.103 E.04795
G1 X141.444 Y107.128 E.04793
G1 X132.704 Y112.628 E.32378
G1 X131.538 Y113.576 E.04712
G1 X130.272 Y114.343 E.04641
G1 X129.348 Y114.75 E.03166
G1 X127.672 Y115.144 E.05398
G1 X125.963 Y115.144 E.05358
G1 X125.15 Y115.003 E.02587
G1 X124.362 Y114.76 E.02586
G1 X123.403 Y114.312 E.03319
G1 X121.96 Y113.242 E.05633
G1 X121.459 Y112.554 E.02669
G1 X121.075 Y111.751 E.02791
G1 X120.844 Y110.74 E.03252
G1 X120.863 Y109.34 E.0439
G1 X121.113 Y108.248 E.03512
G1 X121.389 Y107.708 E.01901
G1 X121.233 Y107.368 E.01173
G1 X120.815 Y105.509 E.05974
G1 X120.867 Y104.499 E.03171
G1 X121.013 Y103.703 E.02537
G1 X121.022 Y100.632 E.09629
M204 S1000
G1 X121.399 Y100.633 F10800
M204 S800
G1 F1200
G1 X121.399 Y100.562 E.00223
G1 X121.721 Y99.338 E.03968
G1 X122.281 Y98.411 E.03396
G1 X123.058 Y97.659 E.0339
G1 X123.846 Y97.211 E.02842
G1 X124.627 Y96.961 E.02571
G1 X125.164 Y96.927 E.01687
G1 X125.938 Y96.159 E.03419
G1 X126.986 Y95.579 E.03756
G1 X128.053 Y95.336 E.03431
G1 X132.711 Y95.316 E.14605
G1 X135.226 Y95.712 E.07983
G1 X137.252 Y96.335 E.06646
G1 X139.465 Y97.368 E.07657
G1 X141.139 Y98.325 E.06046
G1 X142.035 Y99.052 E.03618
G1 X142.714 Y99.923 E.03463
G1 X143.155 Y100.822 E.0314
G1 X143.416 Y101.819 E.03231
G1 X143.466 Y102.905 E.03409
G1 X143.33 Y103.803 E.02848
G1 X143.04 Y104.666 E.02855
G1 X142.306 Y105.841 E.04344
G1 X141.229 Y106.818 E.04559
G1 X132.499 Y112.311 E.3234
G1 X131.33 Y113.261 E.04723
M73 P5 R8
G1 X130.108 Y114.003 E.04483
G1 X129.228 Y114.392 E.03017
G1 X127.638 Y114.768 E.05123
G1 X126.016 Y114.77 E.05086
G1 X125.25 Y114.639 E.02437
G1 X124.485 Y114.403 E.0251
G1 X123.611 Y113.997 E.03022
G1 X122.247 Y112.997 E.05303
G1 X121.774 Y112.346 E.02523
G1 X121.425 Y111.609 E.02557
G1 X121.217 Y110.68 E.02985
G1 X121.235 Y109.404 E.04001
G1 X121.475 Y108.357 E.03368
G1 X121.812 Y107.716 E.02271
G1 X121.595 Y107.262 E.01578
G1 X121.193 Y105.502 E.0566
G1 X121.243 Y104.531 E.03049
G1 X121.39 Y103.738 E.02529
G1 X121.399 Y100.693 E.09547
M204 S1000
G1 X121.776 Y100.694 F10800
M204 S800
G1 F1200
G1 X121.776 Y100.588 E.00332
G1 X122.078 Y99.462 E.03655
G1 X122.562 Y98.664 E.02926
G1 X123.268 Y97.973 E.03097
G1 X123.98 Y97.564 E.02575
G1 X124.718 Y97.328 E.02429
G1 X125.386 Y97.294 E.02097
G1 X126.145 Y96.476 E.03499
G1 X127.145 Y95.922 E.03584
G1 X128.079 Y95.713 E.03001
G1 X131.727 Y95.649 E.1144
G1 X134.128 Y95.871 E.0756
G1 X136.144 Y96.353 E.06499
G1 X138.429 Y97.252 E.07699
G1 X140.939 Y98.645 E.09001
G1 X141.78 Y99.33 E.03401
G1 X142.384 Y100.106 E.03083
G1 X142.808 Y100.971 E.0302
G1 X143.046 Y101.894 E.02989
G1 X143.09 Y102.867 E.03054
G1 X142.96 Y103.73 E.02736
G1 X142.69 Y104.524 E.0263
G1 X142.001 Y105.618 E.04054
G1 X141.015 Y106.507 E.04163
G1 X132.29 Y111.997 E.32322
G1 X131.122 Y112.947 E.04721
G1 X129.944 Y113.663 E.04322
G1 X129.108 Y114.034 E.02868
G1 X127.604 Y114.392 E.04847
G1 X126.069 Y114.397 E.04813
G1 X124.609 Y114.047 E.04707
G1 X123.817 Y113.681 E.02736
G1 X122.534 Y112.75 E.0497
G1 X122.09 Y112.139 E.02368
G1 X121.775 Y111.469 E.02321
G1 X121.59 Y110.621 E.02721
G1 X121.607 Y109.469 E.03612
G1 X121.837 Y108.467 E.03223
G1 X122.237 Y107.723 E.02649
G1 X121.957 Y107.154 E.01988
G1 X121.571 Y105.495 E.05341
G1 X121.619 Y104.563 E.02926
G1 X121.767 Y103.774 E.02517
G1 X121.776 Y100.754 E.09469
M204 S1000
G1 X122.153 Y100.756 F10800
M204 S800
G1 F1200
G1 X122.153 Y100.614 E.00445
G1 X122.434 Y99.588 E.03335
G1 X122.844 Y98.915 E.02471
G1 X123.479 Y98.287 E.028
G1 X124.115 Y97.917 E.02307
G1 X124.807 Y97.696 E.02278
G1 X125.61 Y97.664 E.0252
G1 X125.781 Y97.377 E.01047
G1 X126.393 Y96.761 E.02723
G1 X127.301 Y96.266 E.03243
G1 X128.104 Y96.09 E.02578
G1 X132.648 Y96.068 E.14248
G1 X135.051 Y96.445 E.07627
M73 P6 R8
G1 X136.993 Y97.044 E.06372
G1 X139.097 Y98.026 E.0728
G1 X140.738 Y98.964 E.05926
G1 X141.525 Y99.609 E.0319
G1 X142.054 Y100.29 E.02704
G1 X142.46 Y101.119 E.02894
G1 X142.676 Y101.968 E.02747
G1 X142.714 Y102.829 E.02702
G1 X142.589 Y103.656 E.02622
G1 X142.341 Y104.379 E.02397
G1 X141.697 Y105.393 E.03766
G1 X140.801 Y106.197 E.03775
G1 X132.08 Y111.683 E.32304
G1 X130.914 Y112.632 E.04714
G1 X129.758 Y113.335 E.04242
G1 X128.288 Y113.888 E.04924
G1 X126.842 Y114.062 E.04567
G1 X125.402 Y113.9 E.04544
G1 X124.021 Y113.363 E.04646
G1 X122.82 Y112.502 E.04633
G1 X122.423 Y111.962 E.02101
G1 X122.126 Y111.329 E.02192
G1 X121.963 Y110.564 E.02452
G1 X121.979 Y109.534 E.0323
G1 X122.199 Y108.578 E.03076
G1 X122.696 Y107.672 E.0324
G1 X122.318 Y107.044 E.02298
G1 X121.949 Y105.487 E.05017
G1 X121.995 Y104.596 E.02797
G1 X122.144 Y103.81 E.02508
G1 X122.153 Y100.816 E.09388
M204 S1000
G1 X122.53 Y100.817 F10800
M204 S800
G1 F1200
G1 X122.53 Y100.641 E.00552
G1 X122.79 Y99.716 E.03013
G1 X123.127 Y99.166 E.02022
G1 X123.692 Y98.599 E.0251
G1 X124.25 Y98.269 E.02033
G1 X124.896 Y98.063 E.02126
G1 X125.837 Y98.036 E.02952
G1 X126.068 Y97.623 E.01484
G1 X126.64 Y97.047 E.02545
G1 X127.455 Y96.611 E.02898
G1 X128.128 Y96.467 E.02158
G1 X131.705 Y96.403 E.11217
G1 X133.998 Y96.614 E.0722
G1 X135.922 Y97.074 E.06203
G1 X138.105 Y97.933 E.07355
G1 X140.512 Y99.267 E.08629
G1 X141.242 Y99.858 E.02945
G1 X141.725 Y100.475 E.02457
G1 X142.1 Y101.233 E.02652
G1 X142.3 Y102.005 E.025
G1 X142.337 Y102.827 E.0258
G1 X142.22 Y103.581 E.02392
G1 X141.992 Y104.235 E.02172
G1 X141.425 Y105.131 E.03325
G1 X140.586 Y105.886 E.03539
G1 X131.87 Y111.37 E.32288
G1 X130.705 Y112.317 E.04707
G1 X129.573 Y113.007 E.04157
G1 X128.867 Y113.32 E.02421
G1 X127.535 Y113.641 E.04296
G1 X126.173 Y113.65 E.04271
G1 X124.878 Y113.342 E.04174
G1 X124.223 Y113.045 E.02255
G1 X123.105 Y112.254 E.04294
G1 X122.739 Y111.755 E.0194
G1 X122.478 Y111.191 E.01949
M73 P7 R8
G1 X122.337 Y110.509 E.02184
G1 X122.356 Y109.562 E.0297
G1 X122.559 Y108.69 E.02807
G1 X122.973 Y107.952 E.02653
G1 X123.2 Y107.695 E.01075
G1 X122.679 Y106.932 E.02897
G1 X122.327 Y105.479 E.04688
G1 X122.371 Y104.628 E.02672
G1 X122.521 Y103.847 E.02494
G1 X122.529 Y100.877 E.09312
M204 S1000
G1 X122.907 Y100.878 F10800
M204 S800
G1 F1200
G1 X122.907 Y100.669 E.00655
G1 X123.144 Y99.846 E.02685
G1 X123.41 Y99.414 E.01591
G1 X123.907 Y98.909 E.02222
G1 X124.387 Y98.622 E.01754
G1 X124.984 Y98.431 E.01965
G1 X126.068 Y98.409 E.034
G1 X126.357 Y97.867 E.01926
G1 X126.886 Y97.334 E.02355
G1 X127.605 Y96.958 E.02544
G1 X128.152 Y96.843 E.01753
G1 X132.586 Y96.82 E.13903
G1 X134.876 Y97.179 E.07268
G1 X136.708 Y97.742 E.06009
G1 X137.936 Y98.271 E.04192
G1 X140.289 Y99.571 E.08429
G1 X140.96 Y100.11 E.02699
G1 X141.397 Y100.662 E.02207
G1 X141.74 Y101.347 E.02402
G1 X141.93 Y102.079 E.02371
G1 X141.959 Y102.822 E.02331
G1 X141.85 Y103.503 E.02162
G1 X141.644 Y104.088 E.01945
G1 X141.122 Y104.905 E.0304
G1 X140.372 Y105.575 E.03153
G1 X131.661 Y111.056 E.32269
G1 X130.497 Y112.003 E.04705
G1 X129.387 Y112.678 E.04073
G1 X128.131 Y113.15 E.04207
G1 X126.858 Y113.307 E.04022
G1 X125.6 Y113.172 E.03967
G1 X124.423 Y112.725 E.03948
G1 X123.391 Y112.005 E.03945
G1 X123.054 Y111.547 E.01783
G1 X122.83 Y111.056 E.01692
G1 X122.711 Y110.457 E.01915
G1 X122.732 Y109.592 E.02713
G1 X122.92 Y108.805 E.02537
G1 X123.288 Y108.16 E.02328
G1 X123.699 Y107.717 E.01895
G1 X123.026 Y106.782 E.03612
G1 X122.705 Y105.471 E.04232
G1 X122.747 Y104.665 E.02531
G1 X122.898 Y103.858 E.02574
G1 X122.906 Y100.938 E.09155
M204 S1000
G1 X123.283 Y100.939 F10800
M204 S800
G1 F1200
G1 X123.284 Y100.698 E.00756
G1 X123.498 Y99.978 E.02355
G1 X124.126 Y99.217 E.03094
G1 X124.524 Y98.974 E.01462
G1 X125.071 Y98.799 E.01801
G1 X126.301 Y98.784 E.03857
G1 X126.646 Y98.111 E.02371
G1 X127.132 Y97.622 E.02162
G1 X127.752 Y97.306 E.02182
G1 X128.176 Y97.22 E.01356
G1 X131.684 Y97.157 E.11001
G1 X133.88 Y97.359 E.06914
G1 X135.689 Y97.791 E.05831
G1 X137.768 Y98.608 E.07004
G1 X140.066 Y99.876 E.08229
M73 P7 R7
G1 X140.679 Y100.363 E.02455
G1 X141.07 Y100.851 E.01961
G1 X141.381 Y101.464 E.02155
G1 X141.554 Y102.115 E.02112
G1 X141.582 Y102.817 E.02203
G1 X141.481 Y103.424 E.01929
G1 X141.297 Y103.94 E.01718
G1 X140.819 Y104.678 E.02757
G1 X140.159 Y105.264 E.02767
G1 X131.451 Y110.743 E.32258
G1 X130.288 Y111.688 E.04699
M73 P8 R7
G1 X129.201 Y112.35 E.03991
G1 X128.624 Y112.605 E.01978
G1 X127.463 Y112.89 E.03748
G1 X126.274 Y112.902 E.03728
G1 X125.163 Y112.644 E.03576
G1 X124.621 Y112.403 E.0186
G1 X123.673 Y111.754 E.03602
G1 X123.389 Y111.372 E.01492
G1 X123.183 Y110.921 E.01555
G1 X123.085 Y110.408 E.01638
G1 X123.108 Y109.624 E.02459
G1 X123.279 Y108.922 E.02265
G1 X123.828 Y108.131 E.03019
G1 X124.425 Y107.723 E.02267
G1 X123.834 Y107.289 E.02299
G1 X123.459 Y106.811 E.01905
G1 X123.083 Y105.462 E.04391
G1 X123.122 Y104.7 E.02392
G1 X123.275 Y103.878 E.02622
G1 X123.283 Y100.999 E.09027
M204 S1000
G1 X123.66 Y101 F10800
M204 S800
G1 F1200
G1 X123.661 Y100.728 E.00853
G1 X123.85 Y100.115 E.02011
G1 X124.38 Y99.497 E.02553
G1 X124.665 Y99.324 E.01045
G1 X125.106 Y99.176 E.01459
G1 X126.613 Y99.158 E.04725
G1 X126.936 Y98.354 E.02717
G1 X127.377 Y97.911 E.0196
G1 X127.894 Y97.656 E.01807
G1 X128.198 Y97.597 E.00971
G1 X132.524 Y97.571 E.13564
G1 X134.7 Y97.912 E.06906
G1 X136.424 Y98.441 E.05654
G1 X137.6 Y98.946 E.04013
G1 X139.845 Y100.181 E.08034
G1 X140.4 Y100.617 E.02213
G1 X140.744 Y101.042 E.01714
G1 X141.022 Y101.581 E.01902
G1 X141.183 Y102.191 E.01978
G1 X141.204 Y102.81 E.01942
G1 X140.95 Y103.791 E.03177
G1 X140.549 Y104.414 E.02323
