; generated by PrusaSlicer 2.7.1+linux-x64-GTK3 on 2024-02-20 at 15:14:08 UTC

; 

; external perimeters extrusion width = 0.45mm
; perimeters extrusion width = 0.45mm
; infill extrusion width = 0.45mm
; solid infill extrusion width = 0.45mm
; top infill extrusion width = 0.40mm
; first layer extrusion width = 0.42mm

M73 P0 R24
M201 X9000 Y9000 Z500 E10000 ; sets maximum accelerations, mm/sec^2
M203 X500 Y500 Z12 E120 ; sets maximum feedrates, mm / sec
M204 S2000 T1500 ; sets acceleration (S) and retract acceleration (R), mm/sec^2
M205 X10.00 Y10.00 Z0.20 E2.50 ; sets the jerk limits, mm/sec
M205 S0 T0 ; sets the minimum extruding and travel feed rate, mm/sec

; printing object Bittle_BatteryLid.stl id:0 copy 0
; stop printing object Bittle_BatteryLid.stl id:0 copy 0

;TYPE:Custom
M862.3 P "MK2S" ; printer model check
M862.1 P0.4 ; nozzle diameter check
M115 U3.2.3 ; tell printer latest fw version
G90 ; use absolute coordinates
M83 ; extruder relative mode
M204 S2000 T1500 ; MK2 firmware only supports the old M204 format
M104 S215 ; set extruder temp
M140 S60 ; set bed temp
M190 S60 ; wait for bed temp
M109 S215 ; wait for extruder temp
G28 W ; home all without mesh bed level
G80 ; mesh bed leveling
G1 Z0.2 F720
G1 Y-2 F1000 ; go outside print area
G92 E0
G1 X60 E9 F1000 ; intro line
G1 X100 E12.5 F1000 ; intro line
G92 E0
G21 ; set units to millimeters
G90 ; use absolute coordinates
M83 ; use relative distances for extrusion

M900 K0.05 ; Filament gcode LA 1.5
M900 K30 ; Filament gcode LA 1.0




M107
;LAYER_CHANGE
;Z:0.2
;HEIGHT:0.2
;BEFORE_LAYER_CHANGE
G92 E0.0
;0.2


G1 E-.8 F2100
G1 Z.2 F720
;AFTER_LAYER_CHANGE
;0.2
G1 X106.719 Y58.709 F10800
G1 Z.2 F720
G1 E.8 F2100
M204 S800
;TYPE:Skirt/Brim
;WIDTH:0.42
G1 F1200
G1 X109.707 Y55.722 E.13247
G1 X111.388 Y55.026 E.05705
G1 X138.612 Y55.026 E.85359
G1 X140.293 Y55.722 E.05705
G1 X143.281 Y58.709 E.13247
G1 X143.977 Y60.39 E.05705
G1 X143.977 Y151.207 E2.8475
G1 X143.281 Y152.888 E.05705
G1 X140.293 Y155.875 E.13247
G1 X138.612 Y156.572 E.05706
G1 X111.388 Y156.572 E.85359
G1 X109.707 Y155.875 E.05706
M73 P1 R24
G1 X106.719 Y152.888 E.13247
G1 X106.023 Y151.207 E.05705
G1 X106.023 Y60.39 E2.8475
G1 X106.696 Y58.765 E.05515
M204 S1000
;WIPE_START
G1 F8640
G1 X106.719 Y58.709 E-.01398
G1 X109.126 Y56.302 E-.78602
;WIPE_END
G1 Z.6 F720
G1 X109.181 Y60.349 F10800
G1 Z.2 F720
G1 E.8 F2100
M204 S800
G1 F1200
G1 X109.792 Y59.423 E.03478
G1 X110.591 Y58.655 E.03475
G1 X111.344 Y58.182 E.02788
G1 X112.593 Y57.761 E.04133
G1 X117.205 Y57.728 E.14461
G1 X118.103 Y57.95 E.029
G1 X118.946 Y58.337 E.02908
G1 X119.999 Y59.187 E.04243
G1 X120.75 Y60.216 E.03994
G1 X121.21 Y61.436 E.04088
G1 X121.316 Y63.53 E.06574
G1 X121.184 Y64.482 E.03013
G1 X120.681 Y65.705 E.04146
G1 X120.186 Y66.408 E.02696
G1 X119.412 Y67.144 E.03349
G1 X118.636 Y67.629 E.02869
G1 X116.981 Y68.105 E.05399
G1 X112.884 Y68.087 E.12846
G1 X111.391 Y67.637 E.04889
G1 X110.393 Y66.983 E.03741
G1 X109.675 Y66.237 E.03246
G1 X109.168 Y65.432 E.02983
G1 X108.684 Y63.686 E.05681
G1 X108.761 Y61.593 E.06567
G1 X109.162 Y60.406 E.03928
M204 S1000
G1 X109.509 Y60.537 F10800
M204 S800
G1 F1200
G1 X110.095 Y59.648 E.03338
G1 X110.809 Y58.962 E.03105
G1 X111.486 Y58.532 E.02515
G1 X112.685 Y58.128 E.03967
G1 X117.139 Y58.099 E.13966
G1 X117.965 Y58.301 E.02666
G1 X118.729 Y58.646 E.02628
G1 X119.743 Y59.465 E.04087
G1 X120.407 Y60.375 E.03532
G1 X120.835 Y61.486 E.03733
G1 X120.938 Y63.532 E.06423
G1 X120.825 Y64.363 E.0263
G1 X120.36 Y65.507 E.03872
G1 X119.912 Y66.149 E.02455
G1 X119.193 Y66.837 E.0312
G1 X118.505 Y67.275 E.02557
G1 X116.903 Y67.735 E.05226
G1 X112.914 Y67.71 E.12507
G1 X111.574 Y67.306 E.04388
G1 X110.649 Y66.706 E.03457
G1 X109.96 Y65.989 E.03118
G1 X109.523 Y65.302 E.02553
G1 X109.062 Y63.67 E.05317
G1 X109.137 Y61.635 E.06385
G1 X109.489 Y60.593 E.03448
M204 S1000
G1 X109.847 Y60.714 F10800
M204 S800
G1 F1200
G1 X109.858 Y60.682 E.00106
G1 X110.396 Y59.876 E.03038
G1 X111.055 Y59.249 E.02852
G1 X111.667 Y58.863 E.02269
G1 X112.775 Y58.495 E.03661
G1 X117.073 Y58.471 E.13476
G1 X117.827 Y58.652 E.02431
G1 X118.551 Y58.979 E.02491
G1 X119.485 Y59.741 E.03779
G1 X120.087 Y60.575 E.03225
G1 X120.472 Y61.591 E.03407
G1 X120.561 Y63.531 E.06089
G1 X120.455 Y64.286 E.0239
G1 X120.019 Y65.343 E.03585
G1 X119.615 Y65.916 E.02198
G1 X118.947 Y66.55 E.02888
G1 X118.327 Y66.941 E.02298
G1 X116.878 Y67.357 E.04727
G1 X112.997 Y67.341 E.12169
G1 X111.709 Y66.953 E.04218
G1 X110.876 Y66.404 E.03128
G1 X110.247 Y65.743 E.02861
G1 X109.857 Y65.124 E.02294
G1 X109.439 Y63.653 E.04795
G1 X109.503 Y61.729 E.06036
G1 X109.827 Y60.771 E.03171
M204 S1000
G1 X110.184 Y60.892 F10800
M204 S800
G1 F1200
G1 X110.206 Y60.827 E.00215
G1 X110.696 Y60.105 E.02736
G1 X111.299 Y59.537 E.02597
G1 X111.847 Y59.196 E.02024
G1 X112.864 Y58.863 E.03355
G1 X117.007 Y58.843 E.1299
G1 X117.72 Y59.015 E.023
G1 X118.371 Y59.311 E.02242
G1 X119.225 Y60.015 E.0347
G1 X119.765 Y60.773 E.02918
G1 X120.108 Y61.694 E.03081
G1 X120.183 Y63.529 E.05758
G1 X120.086 Y64.208 E.02151
G1 X119.68 Y65.177 E.03294
G1 X119.32 Y65.681 E.01942
G1 X118.703 Y66.262 E.02657
G1 X118.15 Y66.607 E.02044
G1 X116.852 Y66.98 E.04234
G1 X113.079 Y66.972 E.1183
G1 X111.846 Y66.6 E.04038
G1 X111.104 Y66.103 E.028
G1 X110.534 Y65.499 E.02604
G1 X110.191 Y64.948 E.02035
G1 X109.817 Y63.634 E.04284
G1 X109.869 Y61.823 E.05681
G1 X110.165 Y60.949 E.02893
M204 S1000
G1 X110.522 Y61.07 F10800
M204 S800
G1 F1200
G1 X110.555 Y60.974 E.00318
G1 X110.994 Y60.337 E.02426
G1 X111.542 Y59.826 E.02349
G1 X112.024 Y59.529 E.01775
G1 X112.951 Y59.231 E.03053
G1 X116.942 Y59.215 E.12514
G1 X117.581 Y59.366 E.02059
G1 X118.191 Y59.644 E.02102
G1 X118.964 Y60.288 E.03155
G1 X119.441 Y60.968 E.02604
G1 X119.743 Y61.794 E.02758
G1 X119.806 Y63.524 E.05428
G1 X119.716 Y64.128 E.01915
G1 X119.342 Y65.009 E.03001
G1 X119.026 Y65.444 E.01686
G1 X118.459 Y65.974 E.02434
G1 X117.974 Y66.273 E.01786
G1 X116.825 Y66.603 E.03748
G1 X113.161 Y66.603 E.11488
G1 X111.983 Y66.248 E.03858
G1 X111.335 Y65.804 E.02463
G1 X110.823 Y65.256 E.02351
G1 X110.525 Y64.772 E.01782
G1 X110.194 Y63.614 E.03776
G1 X110.235 Y61.917 E.05322
G1 X110.503 Y61.127 E.02616
M204 S1000
G1 X110.86 Y61.248 F10800
M204 S800
G1 F1200
G1 X110.903 Y61.121 E.0042
G1 X111.29 Y60.572 E.02106
G1 X111.783 Y60.116 E.02106
G1 X112.2 Y59.863 E.01529
G1 X113.037 Y59.599 E.02752
G1 X116.877 Y59.587 E.1204
G1 X117.476 Y59.728 E.01929
G1 X118.009 Y59.975 E.01842
G1 X118.701 Y60.559 E.02839
G1 X119.116 Y61.161 E.02293
G1 X119.378 Y61.892 E.02435
G1 X119.429 Y63.518 E.05101
G1 X119.348 Y64.046 E.01675
G1 X119.005 Y64.838 E.02706
G1 X118.734 Y65.204 E.01428
G1 X118.218 Y65.684 E.0221
G1 X117.8 Y65.937 E.01532
G1 X116.798 Y66.226 E.0327
G1 X113.19 Y66.226 E.11313
G1 X112.124 Y65.897 E.03498
M73 P2 R24
G1 X111.569 Y65.508 E.02125
G1 X111.114 Y65.015 E.02103
G1 X110.861 Y64.598 E.01529
G1 X110.572 Y63.593 E.03279
G1 X110.602 Y62.01 E.04964
G1 X110.841 Y61.305 E.02334
M204 S1000
G1 X111.198 Y61.426 F10800
M204 S800
G1 F1200
G1 X111.251 Y61.27 E.00517
G1 X111.583 Y60.809 E.01781
G1 X112.022 Y60.408 E.01864
G1 X112.373 Y60.199 E.01281
G1 X113.121 Y59.967 E.02456
G1 X116.815 Y59.96 E.11582
G1 X117.336 Y60.079 E.01676
G1 X117.826 Y60.306 E.01693
G1 X118.435 Y60.828 E.02515
G1 X118.79 Y61.351 E.01982
G1 X119.012 Y61.988 E.02115
G1 X119.051 Y63.509 E.04771
G1 X118.979 Y63.962 E.01438
G1 X118.67 Y64.664 E.02405
G1 X117.977 Y65.392 E.03151
G1 X117.628 Y65.601 E.01275
G1 X116.772 Y65.849 E.02794
G1 X113.22 Y65.849 E.11137
G1 X112.269 Y65.547 E.03129
G1 X111.807 Y65.215 E.01784
G1 X111.406 Y64.776 E.01864
G1 X111.197 Y64.426 E.01278
G1 X110.949 Y63.569 E.02797
G1 X110.969 Y62.102 E.046
G1 X111.179 Y61.483 E.02049
M204 S1000
G1 X111.536 Y61.604 F10800
M204 S800
G1 F1200
G1 X111.598 Y61.419 E.00612
G1 X112.261 Y60.701 E.03064
G1 X112.542 Y60.536 E.01022
G1 X113.203 Y60.336 E.02165
G1 X116.754 Y60.332 E.11134
G1 X117.197 Y60.43 E.01423
G1 X117.643 Y60.636 E.0154
G1 X118.167 Y61.094 E.02182
G1 X118.461 Y61.537 E.01667
G1 X118.646 Y62.08 E.01799
G1 X118.674 Y63.498 E.04447
G1 X118.612 Y63.875 E.01198
G1 X118.336 Y64.487 E.02105
G1 X117.739 Y65.1 E.02683
G1 X117.458 Y65.264 E.0102
G1 X116.745 Y65.472 E.02329
G1 X113.251 Y65.472 E.10955
G1 X112.416 Y65.199 E.02754
G1 X111.698 Y64.537 E.03062
G1 X111.534 Y64.257 E.01017
G1 X111.326 Y63.544 E.02329
G1 X111.336 Y62.194 E.04233
G1 X111.517 Y61.66 E.01768
M204 S1000
G1 X111.874 Y61.781 F10800
M204 S800
G1 F1200
G1 X111.945 Y61.57 E.00698
G1 X112.499 Y60.994 E.02506
G1 X113.283 Y60.706 E.02619
G1 X116.731 Y60.709 E.10811
G1 X117.456 Y60.965 E.02411
G1 X117.896 Y61.357 E.01848
G1 X118.131 Y61.72 E.01356
G1 X118.278 Y62.169 E.01481
G1 X118.245 Y63.785 E.05068
G1 X118.004 Y64.308 E.01806
G1 X117.501 Y64.806 E.02219
G1 X116.717 Y65.095 E.0262
G1 X113.283 Y65.095 E.10767
G1 X112.568 Y64.853 E.02367
G1 X111.992 Y64.299 E.02506
G1 X111.703 Y63.515 E.0262
G1 X111.703 Y62.285 E.03857
G1 X111.855 Y61.838 E.0148
M204 S1000
G1 X112.219 Y61.995 F10800
M204 S800
G1 F1200
G1 X112.385 Y61.609 E.01317
G1 X112.738 Y61.287 E.01498
G1 X113.313 Y61.083 E.01913
G1 X116.709 Y61.086 E.10648
G1 X117.268 Y61.293 E.01869
G1 X117.623 Y61.618 E.01509
G1 X117.911 Y62.258 E.022
G1 X117.92 Y63.472 E.03807
G1 X117.691 Y64.097 E.02087
G1 X117.262 Y64.513 E.01874
G1 X116.688 Y64.718 E.01911
G1 X113.314 Y64.718 E.10579
G1 X112.767 Y64.532 E.01812
G1 X112.227 Y63.958 E.02471
G1 X112.08 Y63.486 E.0155
G1 X112.08 Y62.316 E.03668
G1 X112.195 Y62.05 E.00909
M204 S1000
G1 X112.521 Y62.163 F10800
M204 S800
G1 F1200
G1 X112.589 Y61.966 E.00653
G1 X112.983 Y61.579 E.01732
G1 X113.344 Y61.46 E.01192
G1 X116.687 Y61.464 E.10482
G1 X117.078 Y61.621 E.01321
G1 X117.347 Y61.875 E.0116
G1 X117.543 Y62.347 E.01602
G1 X117.523 Y63.565 E.03819
G1 X117.354 Y63.92 E.01233
G1 X117.017 Y64.222 E.01419
G1 X116.656 Y64.341 E.01192
G1 X113.346 Y64.341 E.10378
G1 X112.963 Y64.209 E.0127
G1 X112.576 Y63.815 E.01732
G1 X112.457 Y63.454 E.01192
G1 X112.457 Y62.348 E.03468
G1 X112.502 Y62.22 E.00425
M204 S1000
G1 X112.846 Y62.353 F10800
M204 S800
G1 F1200
G1 X112.932 Y62.13 E.00749
G1 X113.166 Y61.913 E.01001
G1 X113.379 Y61.837 E.00709
G1 X116.635 Y61.837 E.10209
G1 X117.066 Y62.127 E.01629
G1 X117.166 Y62.382 E.00859
G1 X117.159 Y63.465 E.03396
G1 X117.058 Y63.68 E.00745
G1 X116.834 Y63.888 E.00958
G1 X116.621 Y63.964 E.00709
G1 X113.379 Y63.964 E.10165
G1 X113.128 Y63.866 E.00845
G1 X112.911 Y63.632 E.01001
G1 X112.834 Y63.419 E.0071
G1 X112.834 Y62.411 E.03161
M204 S1000
G1 X113.211 Y62.424 F10800
M204 S800
G1 F1200
G1 X113.421 Y62.214 E.00931
G1 X116.648 Y62.243 E.10118
G1 X116.789 Y62.424 E.00719
G1 X116.789 Y63.377 E.02988
G1 X116.579 Y63.587 E.00931
G1 X113.421 Y63.587 E.09902
G1 X113.211 Y63.377 E.00931
G1 X113.211 Y62.484 E.028
M204 S1000
;WIPE_START
G1 F8640
G1 X113.211 Y62.424 E-.01385
G1 X113.421 Y62.214 E-.06857
G1 X116.529 Y62.242 E-.71758
;WIPE_END
G1 Z.6 F720
G1 X128.707 Y63.055 F10800
G1 Z.2 F720
G1 E.8 F2100
M204 S800
G1 F1200
G1 X128.761 Y61.593 E.04587
G1 X129.181 Y60.349 E.04117
G1 X129.792 Y59.423 E.03478
G1 X130.591 Y58.655 E.03475
G1 X131.344 Y58.182 E.02788
G1 X132.593 Y57.761 E.04133
G1 X137.205 Y57.728 E.14461
G1 X138.103 Y57.95 E.029
G1 X138.946 Y58.337 E.02908
G1 X139.999 Y59.187 E.04243
G1 X140.75 Y60.216 E.03994
G1 X141.21 Y61.436 E.04088
G1 X141.316 Y63.53 E.06574
G1 X141.184 Y64.482 E.03013
G1 X140.681 Y65.705 E.04146
G1 X140.186 Y66.408 E.02696
G1 X139.412 Y67.144 E.03349
G1 X138.636 Y67.629 E.02869
G1 X136.981 Y68.105 E.05399
G1 X132.884 Y68.087 E.12846
G1 X131.391 Y67.637 E.04889
G1 X130.393 Y66.983 E.03741
G1 X129.675 Y66.237 E.03246
G1 X129.168 Y65.432 E.02983
G1 X128.684 Y63.686 E.05681
G1 X128.705 Y63.115 E.01792
M204 S1000
G1 X129.082 Y63.129 F10800
M204 S800
G1 F1200
G1 X129.137 Y61.635 E.04688
G1 X129.509 Y60.537 E.03635
G1 X130.095 Y59.648 E.03338
G1 X130.809 Y58.962 E.03105
G1 X131.486 Y58.532 E.02515
G1 X132.685 Y58.128 E.03967
G1 X137.139 Y58.099 E.13966
G1 X137.965 Y58.301 E.02666
G1 X138.729 Y58.646 E.02628
G1 X139.743 Y59.465 E.04087
G1 X140.407 Y60.375 E.03532
G1 X140.835 Y61.486 E.03733
G1 X140.938 Y63.532 E.06423
G1 X140.825 Y64.363 E.0263
G1 X140.36 Y65.507 E.03872
G1 X139.912 Y66.149 E.02455
G1 X139.193 Y66.837 E.0312
G1 X138.505 Y67.275 E.02557
G1 X136.903 Y67.735 E.05226
G1 X132.914 Y67.71 E.12507
G1 X131.574 Y67.306 E.04388
G1 X130.649 Y66.706 E.03457
G1 X129.96 Y65.989 E.03118
G1 X129.523 Y65.302 E.02553
G1 X129.062 Y63.67 E.05317
G1 X129.079 Y63.188 E.01512
M204 S1000
G1 X129.454 Y63.201 F10800
M204 S800
G1 F1200
G1 X129.503 Y61.729 E.04618
G1 X129.858 Y60.682 E.03466
G1 X130.396 Y59.876 E.03038
G1 X131.055 Y59.249 E.02852
G1 X131.667 Y58.863 E.02269
G1 X132.775 Y58.495 E.03661
G1 X137.073 Y58.471 E.13476
G1 X137.827 Y58.652 E.02431
G1 X138.551 Y58.979 E.02491
G1 X139.485 Y59.741 E.03779
G1 X140.087 Y60.575 E.03225
G1 X140.472 Y61.591 E.03407
G1 X140.561 Y63.531 E.06089
G1 X140.455 Y64.286 E.0239
G1 X140.019 Y65.343 E.03585
G1 X139.615 Y65.916 E.02198
G1 X138.947 Y66.55 E.02888
G1 X138.327 Y66.941 E.02298
G1 X136.878 Y67.357 E.04727
G1 X132.997 Y67.341 E.12169
G1 X131.709 Y66.953 E.04218
G1 X130.876 Y66.404 E.03128
G1 X130.247 Y65.743 E.02861
G1 X129.857 Y65.124 E.02294
G1 X129.439 Y63.653 E.04795
G1 X129.452 Y63.261 E.0123
M204 S1000
G1 X129.827 Y63.272 F10800
M204 S800
G1 F1200
G1 X129.869 Y61.823 E.04545
G1 X130.206 Y60.827 E.03297
G1 X130.696 Y60.105 E.02736
G1 X131.299 Y59.537 E.02597
G1 X131.847 Y59.196 E.02024
G1 X132.864 Y58.863 E.03355
G1 X137.007 Y58.843 E.1299
G1 X137.72 Y59.015 E.023
G1 X138.371 Y59.311 E.02242
G1 X139.225 Y60.015 E.0347
G1 X139.765 Y60.773 E.02918
G1 X140.108 Y61.694 E.03081
G1 X140.183 Y63.529 E.05758
G1 X140.086 Y64.208 E.02151
G1 X139.68 Y65.177 E.03294
G1 X139.32 Y65.681 E.01942
G1 X138.703 Y66.262 E.02657
G1 X138.15 Y66.607 E.02044
G1 X136.852 Y66.98 E.04234
G1 X133.079 Y66.972 E.1183
G1 X131.846 Y66.6 E.04038
G1 X131.104 Y66.103 E.028
G1 X130.534 Y65.499 E.02604
G1 X130.191 Y64.948 E.02035
G1 X129.817 Y63.634 E.04284
G1 X129.826 Y63.332 E.00947
M204 S1000
G1 X130.201 Y63.341 F10800
M204 S800
G1 F1200
G1 X130.235 Y61.917 E.04466
G1 X130.555 Y60.974 E.03122
G1 X130.994 Y60.337 E.02426
G1 X131.542 Y59.826 E.02349
G1 X132.024 Y59.529 E.01775
G1 X132.951 Y59.231 E.03053
G1 X136.942 Y59.215 E.12514
G1 X137.581 Y59.366 E.02059
G1 X138.191 Y59.644 E.02102
G1 X138.964 Y60.288 E.03155
G1 X139.441 Y60.968 E.02604
G1 X139.743 Y61.794 E.02758
G1 X139.806 Y63.524 E.05428
G1 X139.716 Y64.128 E.01915
G1 X139.342 Y65.009 E.03001
G1 X139.026 Y65.444 E.01686
G1 X138.459 Y65.974 E.02434
G1 X137.974 Y66.273 E.01786
M73 P2 R23
G1 X136.825 Y66.603 E.03748
G1 X133.161 Y66.603 E.11488
M73 P3 R23
G1 X131.983 Y66.248 E.03858
G1 X131.335 Y65.804 E.02463
G1 X130.823 Y65.256 E.02351
G1 X130.525 Y64.772 E.01782
G1 X130.194 Y63.614 E.03776
G1 X130.2 Y63.401 E.00668
M204 S1000
G1 X130.575 Y63.408 F10800
M204 S800
G1 F1200
G1 X130.602 Y62.01 E.04384
G1 X130.903 Y61.121 E.02943
G1 X131.29 Y60.572 E.02106
G1 X131.783 Y60.116 E.02106
G1 X132.2 Y59.863 E.01529
G1 X133.037 Y59.599 E.02752
G1 X136.877 Y59.587 E.1204
G1 X137.476 Y59.728 E.01929
G1 X138.009 Y59.975 E.01842
G1 X138.701 Y60.559 E.02839
G1 X139.116 Y61.161 E.02293
G1 X139.378 Y61.892 E.02435
G1 X139.429 Y63.518 E.05101
G1 X139.348 Y64.046 E.01675
G1 X139.005 Y64.838 E.02706
G1 X138.734 Y65.204 E.01428
G1 X138.218 Y65.684 E.0221
G1 X137.8 Y65.937 E.01532
G1 X136.798 Y66.226 E.0327
G1 X133.19 Y66.226 E.11313
G1 X132.124 Y65.897 E.03498
G1 X131.569 Y65.508 E.02125
G1 X131.114 Y65.015 E.02103
G1 X130.861 Y64.598 E.01529
G1 X130.572 Y63.593 E.03279
G1 X130.574 Y63.468 E.00392
M204 S1000
G1 X130.95 Y63.473 F10800
M204 S800
G1 F1200
G1 X130.969 Y62.102 E.04299
G1 X131.251 Y61.27 E.02754
G1 X131.583 Y60.809 E.01781
G1 X132.022 Y60.408 E.01864
G1 X132.373 Y60.199 E.01281
G1 X133.121 Y59.967 E.02456
G1 X136.815 Y59.96 E.11582
G1 X137.336 Y60.079 E.01676
G1 X137.826 Y60.306 E.01693
G1 X138.435 Y60.828 E.02515
G1 X138.79 Y61.351 E.01982
