; generated by PrusaSlicer 2.7.1+linux-x64-GTK3 on 2024-02-20 at 15:22:10 UTC

; 

; external perimeters extrusion width = 0.45mm
; perimeters extrusion width = 0.45mm
; infill extrusion width = 0.45mm
; solid infill extrusion width = 0.45mm
; top infill extrusion width = 0.40mm
; first layer extrusion width = 0.42mm

M73 P0 R12
M201 X9000 Y9000 Z500 E10000 ; sets maximum accelerations, mm/sec^2
M203 X500 Y500 Z12 E120 ; sets maximum feedrates, mm / sec
M204 S2000 T1500 ; sets acceleration (S) and retract acceleration (R), mm/sec^2
M205 X10.00 Y10.00 Z0.20 E2.50 ; sets the jerk limits, mm/sec
M205 S0 T0 ; sets the minimum extruding and travel feed rate, mm/sec

; printing object Bittle_neck.stl id:0 copy 0
; stop printing object Bittle_neck.stl id:0 copy 0

;TYPE:Custom
M862.3 P "MK2S" ; printer model check
M862.1 P0.4 ; nozzle diameter check
M115 U3.2.3 ; tell printer latest fw version
G90 ; use absolute coordinates
M83 ; extruder relative mode
M204 S2000 T1500 ; MK2 firmware only supports the old M204 format
M104 S215 ; set extruder temp
M140 S60 ; set bed temp
M190 S60 ; wait for bed temp
M109 S215 ; wait for extruder temp
G28 W ; home all without mesh bed level
G80 ; mesh bed leveling
G1 Z0.2 F720
G1 Y-2 F1000 ; go outside print area
G92 E0
G1 X60 E9 F1000 ; intro line
G1 X100 E12.5 F1000 ; intro line
G92 E0
G21 ; set units to millimeters
G90 ; use absolute coordinates
M83 ; use relative distances for extrusion

M900 K0.05 ; Filament gcode LA 1.5
M900 K30 ; Filament gcode LA 1.0




M107
;LAYER_CHANGE
;Z:0.2
;HEIGHT:0.2
;BEFORE_LAYER_CHANGE
G92 E0.0
;0.2


G1 E-.8 F2100
G1 Z.2 F720
;AFTER_LAYER_CHANGE
;0.2
G1 X120.354 Y102.708 F10800
G1 Z.2 F720
G1 E.8 F2100
M204 S800
;TYPE:Skirt/Brim
;WIDTH:0.42
G1 F1200
G1 X122.07 Y101.491 E.06596
G1 X124.256 Y100.875 E.07121
G1 X125.105 Y100.758 E.02687
G1 X132.717 Y100.758 E.23867
G1 X133.603 Y100.886 E.02807
G1 X135.689 Y101.501 E.06819
G1 X137.429 Y102.799 E.06806
M73 P1 R12
G1 X137.87 Y103.658 E.03028
G1 X138.712 Y106.158 E.08271
G1 X138.867 Y107.397 E.03915
G1 X138.542 Y111.146 E.11799
G1 X138.091 Y112.8 E.05375
G1 X137.298 Y114.358 E.05481
G1 X136.23 Y115.702 E.05383
G1 X134.971 Y116.774 E.05185
G1 X134.303 Y117.197 E.02479
G1 X133.213 Y117.723 E.03795
G1 X131.475 Y118.219 E.05667
G1 X129.842 Y118.349 E.05136
G1 X127.024 Y118.274 E.08839
G1 X125.973 Y118.155 E.03316
G1 X124.765 Y117.851 E.03906
G1 X124.083 Y117.595 E.02284
G1 X122.63 Y116.809 E.0518
G1 X121.277 Y115.685 E.05515
G1 X120.177 Y114.304 E.05536
G1 X119.707 Y113.474 E.02991
G1 X119.337 Y112.611 E.02944
G1 X118.968 Y111.277 E.0434
G1 X118.821 Y109.632 E.05178
G1 X119.049 Y106.367 E.10262
G1 X119.197 Y105.628 E.02363
G1 X119.837 Y103.68 E.06429
G1 X120.247 Y102.862 E.02869
G1 X120.32 Y102.757 E.00401
M204 S1000
G1 X120.656 Y102.938 F10800
M204 S800
G1 F1200
G1 X120.663 Y102.925 E.00046
G1 X122.173 Y101.854 E.05804
G1 X124.358 Y101.238 E.07118
G1 X125.105 Y101.135 E.02364
G1 X132.717 Y101.135 E.23867
G1 X133.497 Y101.248 E.02471
G1 X135.582 Y101.863 E.06816
G1 X137.112 Y103.004 E.05984
G1 X137.512 Y103.779 E.02735
G1 X138.355 Y106.278 E.08269
G1 X138.491 Y107.368 E.03444
G1 X138.253 Y110.475 E.0977
G1 X138.08 Y111.554 E.03426
G1 X137.503 Y113.212 E.05504
G1 X136.65 Y114.631 E.05191
G1 X135.533 Y115.848 E.05179
G1 X134.124 Y116.865 E.05448
G1 X132.411 Y117.607 E.05853
G1 X130.98 Y117.912 E.04588
G1 X129.972 Y117.973 E.03166
G1 X127.171 Y117.904 E.08785
G1 X126.048 Y117.786 E.0354
G1 X124.872 Y117.489 E.03803
G1 X124.221 Y117.244 E.02181
G1 X123.257 Y116.759 E.03384
G1 X122.609 Y116.334 E.0243
G1 X121.344 Y115.206 E.05314
G1 X120.341 Y113.85 E.05288
G1 X119.686 Y112.47 E.0479
G1 X119.408 Y111.53 E.03073
G1 X119.25 Y110.635 E.0285
G1 X119.204 Y109.346 E.04044
G1 X119.425 Y106.395 E.09279
G1 X119.555 Y105.746 E.02075
G1 X120.195 Y103.798 E.06429
G1 X120.628 Y102.99 E.02874
M204 S1000
G1 X120.957 Y103.168 F10800
M204 S800
G1 F1200
G1 X120.972 Y103.141 E.00097
G1 X122.275 Y102.216 E.0501
G1 X124.46 Y101.601 E.07117
G1 X125.105 Y101.512 E.02042
G1 X132.717 Y101.512 E.23867
G1 X133.39 Y101.609 E.02132
G1 X135.476 Y102.225 E.0682
G1 X136.796 Y103.21 E.05164
G1 X137.155 Y103.899 E.02436
G1 X137.997 Y106.399 E.08271
G1 X138.115 Y107.339 E.0297
G1 X137.877 Y110.446 E.0977
G1 X137.71 Y111.483 E.03293
G1 X137.157 Y113.063 E.05249
G1 X136.34 Y114.416 E.04956
G1 X135.273 Y115.576 E.04942
G1 X133.944 Y116.533 E.05135
G1 X132.291 Y117.25 E.05649
G1 X130.924 Y117.539 E.04381
G1 X129.965 Y117.595 E.03012
G1 X127.181 Y117.527 E.08732
G1 X126.123 Y117.416 E.03335
G1 X124.36 Y116.894 E.05765
G1 X122.84 Y116.036 E.05473
G1 X121.631 Y114.962 E.0507
G1 X120.672 Y113.67 E.05045
G1 X120.036 Y112.329 E.04654
G1 X119.771 Y111.43 E.02939
M73 P2 R12
G1 X119.623 Y110.577 E.02714
G1 X119.581 Y109.353 E.0384
G1 X119.801 Y106.424 E.0921
G1 X119.913 Y105.864 E.01791
G1 X120.553 Y103.916 E.06429
G1 X120.929 Y103.221 E.02478
M204 S1000
;WIPE_START
G1 F8640
G1 X120.957 Y103.168 E-.01384
G1 X120.972 Y103.141 E-.00713
G1 X122.275 Y102.216 E-.36897
G1 X123.985 Y101.735 E-.41006
;WIPE_END
G1 Z.6 F720
G1 X123.376 Y105.952 F10800
G1 Z.2 F720
G1 E.8 F2100
M204 S800
G1 F1200
G1 X124.587 Y104.867 E.05098
G1 X125.388 Y104.483 E.02785
G1 X126.282 Y104.232 E.02911
G1 X131.26 Y104.224 E.15608
G1 X132.386 Y104.55 E.03675
G1 X133.477 Y105.2 E.03982
G1 X134.469 Y106.254 E.04538
G1 X135.095 Y107.55 E.04513
G1 X135.315 Y108.926 E.04369
G1 X135.115 Y110.831 E.06006
G1 X134.802 Y111.801 E.03196
G1 X134.244 Y112.76 E.03479
G1 X133.361 Y113.703 E.04051
G1 X132.262 Y114.407 E.04092
G1 X130.333 Y114.922 E.0626
G1 X126.411 Y114.757 E.12308
G1 X125.173 Y114.333 E.04103
G1 X124.049 Y113.599 E.04209
G1 X122.855 Y112.119 E.05962
G1 X122.489 Y111.248 E.02962
G1 X122.279 Y110.352 E.02885
G1 X122.424 Y107.787 E.08055
G1 X122.745 Y106.926 E.02881
G1 X123.301 Y106.019 E.03336
G1 X123.331 Y105.992 E.00127
M204 S1000
G1 X123.608 Y106.24 F10800
M204 S800
G1 F1200
G1 X124.775 Y105.195 E.04912
G1 X125.506 Y104.841 E.02547
G1 X126.359 Y104.602 E.02778
G1 X131.183 Y104.594 E.15125
G1 X132.217 Y104.888 E.03371
G1 X133.223 Y105.48 E.0366
G1 X134.142 Y106.445 E.04178
G1 X134.744 Y107.689 E.04333
G1 X134.937 Y108.911 E.03879
G1 X134.742 Y110.772 E.05867
G1 X134.465 Y111.631 E.0283
G1 X133.954 Y112.519 E.03212
G1 X133.102 Y113.428 E.03906
G1 X132.085 Y114.073 E.03776
G1 X130.319 Y114.544 E.05731
G1 X126.507 Y114.392 E.11962
G1 X125.318 Y113.985 E.0394
G1 X124.281 Y113.301 E.03895
G1 X123.192 Y111.948 E.05446
G1 X122.852 Y111.146 E.02731
G1 X122.652 Y110.292 E.0275
G1 X122.787 Y107.891 E.0754
G1 X123.077 Y107.107 E.02621
G1 X123.577 Y106.291 E.03001
M204 S1000
G1 X123.898 Y106.488 F10800
M204 S800
G1 F1200
G1 X123.915 Y106.46 E.00103
G1 X124.964 Y105.522 E.04412
G1 X125.624 Y105.2 E.02303
G1 X126.436 Y104.972 E.02644
G1 X131.107 Y104.964 E.14646
G1 X132.049 Y105.227 E.03067
G1 X132.969 Y105.76 E.03334
G1 X133.848 Y106.683 E.03996
G1 X134.391 Y107.825 E.03965
G1 X134.56 Y108.896 E.034
G1 X134.369 Y110.713 E.05728
G1 X134.128 Y111.461 E.02464
G1 X133.662 Y112.279 E.02952
G1 X132.879 Y113.122 E.03607
G1 X131.907 Y113.739 E.0361
G1 X130.305 Y114.166 E.05198
G1 X126.601 Y114.026 E.11622
G1 X125.505 Y113.656 E.03627
G1 X124.513 Y113.002 E.03725
G1 X123.529 Y111.777 E.04927
G1 X123.206 Y111.014 E.02598
G1 X123.026 Y110.234 E.0251
G1 X123.151 Y107.994 E.07034
G1 X123.408 Y107.287 E.02359
G1 X123.867 Y106.539 E.02752
M204 S1000
G1 X124.188 Y106.736 F10800
M204 S800
G1 F1200
G1 X124.222 Y106.681 E.00203
G1 X125.154 Y105.849 E.03917
G1 X125.743 Y105.558 E.0206
G1 X126.513 Y105.342 E.02507
G1 X131.033 Y105.334 E.14172
G1 X131.884 Y105.566 E.02766
G1 X132.718 Y106.042 E.03011
G1 X133.521 Y106.873 E.03623
G1 X134.039 Y107.963 E.03784
G1 X134.182 Y108.881 E.02913
G1 X133.996 Y110.655 E.05593
G1 X133.79 Y111.293 E.02102
G1 X133.369 Y112.041 E.02691
G1 X132.656 Y112.818 E.03307
G1 X131.73 Y113.405 E.03438
G1 X130.29 Y113.788 E.04672
G1 X126.695 Y113.659 E.11279
G1 X125.649 Y113.307 E.0346
G1 X124.747 Y112.705 E.034
G1 X123.866 Y111.605 E.04419
G1 X123.57 Y110.913 E.0236
M73 P3 R12
G1 X123.399 Y110.175 E.02375
G1 X123.515 Y108.095 E.06532
G1 X123.74 Y107.467 E.02092
G1 X124.157 Y106.787 E.02501
M204 S1000
G1 X124.474 Y106.978 F10800
M204 S800
G1 F1200
G1 X124.496 Y106.941 E.00135
G1 X125.346 Y106.174 E.0359
G1 X125.863 Y105.916 E.01812
G1 X126.59 Y105.712 E.02367
G1 X130.96 Y105.705 E.13702
G1 X131.722 Y105.908 E.02473
G1 X132.466 Y106.324 E.02673
G1 X133.228 Y107.112 E.03437
G1 X133.686 Y108.097 E.03406
G1 X133.805 Y108.866 E.0244
G1 X133.623 Y110.596 E.05454
G1 X133.451 Y111.126 E.01747
G1 X133.075 Y111.804 E.02431
G1 X132.432 Y112.513 E.03001
G1 X131.552 Y113.071 E.03267
G1 X130.275 Y113.411 E.04143
G1 X126.787 Y113.293 E.10943
G1 X125.837 Y112.979 E.03137
G1 X124.981 Y112.408 E.03226
G1 X124.202 Y111.433 E.03913
G1 X123.923 Y110.78 E.02226
G1 X123.773 Y110.117 E.02131
G1 X123.88 Y108.194 E.06039
G1 X124.074 Y107.644 E.01829
G1 X124.443 Y107.029 E.02249
M204 S1000
G1 X124.762 Y107.217 F10800
M204 S800
G1 F1200
G1 X124.772 Y107.199 E.00065
G1 X125.541 Y106.498 E.03263
G1 X125.983 Y106.274 E.01554
G1 X126.667 Y106.082 E.02228
G1 X130.89 Y106.076 E.13241
G1 X131.563 Y106.25 E.0218
G1 X132.216 Y106.608 E.02335
G1 X132.933 Y107.35 E.03235
G1 X133.332 Y108.228 E.03024
G1 X133.427 Y108.851 E.01976
G1 X133.251 Y110.536 E.05312
G1 X133.112 Y110.961 E.01402
G1 X132.779 Y111.57 E.02176
G1 X132.207 Y112.209 E.02689
G1 X131.375 Y112.737 E.0309
G1 X130.26 Y113.033 E.03617
G1 X126.877 Y112.926 E.10612
G1 X126.024 Y112.65 E.02811
G1 X125.214 Y112.11 E.03052
G1 X124.539 Y111.262 E.03398
G1 X124.277 Y110.649 E.0209
G1 X124.146 Y110.061 E.01889
G1 X124.245 Y108.292 E.05555
G1 X124.409 Y107.818 E.01573
G1 X124.732 Y107.269 E.01997
M204 S1000
G1 X125.051 Y107.456 F10800
M204 S800
G1 F1200
G1 X125.737 Y106.821 E.02931
G1 X126.104 Y106.632 E.01294
G1 X126.744 Y106.452 E.02085
G1 X130.821 Y106.447 E.12783
G1 X131.407 Y106.594 E.01894
G1 X131.969 Y106.894 E.01997
G1 X132.606 Y107.539 E.02842
G1 X132.964 Y108.316 E.02682
G1 X133.05 Y108.838 E.01659
G1 X132.885 Y110.442 E.05056
G1 X132.772 Y110.797 E.01168
G1 X132.459 Y111.369 E.02044
G1 X131.945 Y111.937 E.02402
G1 X131.247 Y112.381 E.02594
G1 X130.242 Y112.655 E.03266
G1 X126.965 Y112.558 E.10279
G1 X126.207 Y112.32 E.02491
G1 X125.488 Y111.85 E.02693
G1 X124.875 Y111.088 E.03066
G1 X124.524 Y110.053 E.03427
G1 X124.61 Y108.388 E.05227
G1 X125.025 Y107.51 E.03045
M204 S1000
G1 X125.331 Y107.709 F10800
M204 S800
G1 F1200
G1 X125.937 Y107.142 E.02602
G1 X126.821 Y106.822 E.02948
G1 X130.755 Y106.819 E.12335
G1 X131.256 Y106.94 E.01616
G1 X131.726 Y107.183 E.01659
G1 X132.279 Y107.732 E.02443
G1 X132.598 Y108.407 E.02341
G1 X132.672 Y108.828 E.0134
G1 X132.519 Y110.35 E.04796
G1 X132.139 Y111.167 E.02825
G1 X131.684 Y111.664 E.02113
G1 X131.118 Y112.026 E.02107
G1 X130.223 Y112.278 E.02915
G1 X127.05 Y112.19 E.09953
G1 X126.387 Y111.988 E.02173
G1 X125.76 Y111.587 E.02334
G1 X125.21 Y110.914 E.02725
G1 X124.898 Y109.995 E.03043
G1 X124.976 Y108.481 E.04753
G1 X125.306 Y107.764 E.02475
M204 S1000
G1 X125.615 Y107.96 F10800
M204 S800
G1 F1200
G1 X126.14 Y107.46 E.02273
G1 X126.898 Y107.192 E.02521
G1 X130.732 Y107.196 E.12021
G1 X131.487 Y107.477 E.02526
G1 X131.955 Y107.927 E.02036
G1 X132.233 Y108.505 E.02011
G1 X132.294 Y108.82 E.01006
G1 X132.091 Y110.471 E.05216
G1 X131.82 Y110.965 E.01767
G1 X131.425 Y111.39 E.01819
G1 X130.985 Y111.672 E.01639
G1 X130.202 Y111.9 E.02557
G1 X127.132 Y111.822 E.09629
G1 X126.563 Y111.653 E.01861
G1 X126.029 Y111.321 E.01972
G1 X125.545 Y110.739 E.02373
G1 X125.271 Y109.939 E.02651
G1 X125.343 Y108.573 E.04289
G1 X125.59 Y108.014 E.01916
M204 S1000
G1 X125.931 Y108.167 F10800
M204 S800
G1 F1200
G1 X125.932 Y108.166 E.00004
G1 X126.377 Y107.754 E.01901
G1 X126.926 Y107.569 E.01816
G1 X130.709 Y107.573 E.11861
G1 X131.291 Y107.8 E.01959
G1 X131.664 Y108.169 E.01645
G1 X131.918 Y108.857 E.02299
G1 X131.779 Y110.203 E.04243
G1 X131.502 Y110.761 E.01953
G1 X131.197 Y111.089 E.01404
G1 X130.848 Y111.32 E.01312
G1 X130.181 Y111.522 E.02185
G1 X127.168 Y111.445 E.0945
G1 X126.7 Y111.301 E.01535
G1 X126.259 Y111.021 E.01638
G1 X125.856 Y110.524 E.02006
G1 X125.702 Y110.152 E.01262
G1 X125.645 Y109.886 E.00853
G1 X125.71 Y108.661 E.03846
G1 X125.907 Y108.222 E.01509
M204 S1000
G1 X126.247 Y108.378 F10800
M204 S800
G1 F1200
G1 X126.249 Y108.373 E.00017
G1 X126.61 Y108.054 E.0151
G1 X126.956 Y107.946 E.01136
G1 X130.686 Y107.95 E.11695
G1 X131.093 Y108.123 E.01387
G1 X131.368 Y108.405 E.01235
M73 P4 R12
G1 X131.541 Y108.887 E.01606
G1 X131.396 Y110.177 E.0407
G1 X131.207 Y110.526 E.01244
G1 X130.662 Y110.991 E.02246
G1 X130.159 Y111.145 E.01649
G1 X127.249 Y111.076 E.09127
G1 X126.879 Y110.968 E.01209
G1 X126.49 Y110.72 E.01446
G1 X126.171 Y110.315 E.01616
G1 X126.02 Y109.835 E.01578
G1 X126.078 Y108.745 E.03422
G1 X126.221 Y108.433 E.01076
M204 S1000
G1 X126.556 Y108.599 F10800
M204 S800
G1 F1200
G1 X126.564 Y108.583 E.00056
G1 X126.785 Y108.393 E.00914
G1 X126.989 Y108.323 E.00676
G1 X130.631 Y108.323 E.11419
G1 X130.891 Y108.444 E.00899
G1 X131.065 Y108.631 E.00801
G1 X131.165 Y108.905 E.00915
G1 X131.037 Y110.05 E.03612
G1 X130.707 Y110.514 E.01785
G1 X130.48 Y110.66 E.00846
G1 X130.137 Y110.767 E.01127
G1 X127.286 Y110.7 E.08942
G1 X126.724 Y110.424 E.01963
G1 X126.512 Y110.152 E.01081
G1 X126.394 Y109.79 E.01194
G1 X126.448 Y108.817 E.03055
G1 X126.53 Y108.653 E.00575
M204 S1000
G1 X126.821 Y108.895 F10800
M204 S800
G1 F1200
G1 X127.029 Y108.701 E.00892
G1 X130.645 Y108.732 E.11338
G1 X130.784 Y108.929 E.00756
G1 X130.684 Y109.916 E.03111
G1 X130.448 Y110.239 E.01254
G1 X130.112 Y110.389 E.01154
G1 X127.326 Y110.324 E.08738
G1 X126.962 Y110.13 E.01293
G1 X126.776 Y109.794 E.01204
G1 X126.818 Y108.955 E.02634
M204 S1000
; printing object Bittle_neck.stl id:0 copy 0
;WIPE_START
G1 F8640
G1 X126.821 Y108.895 E-.01387
G1 X127.029 Y108.701 E-.06568
G1 X130.149 Y108.728 E-.72045
;WIPE_END
G1 Z.6 F720
G1 X130.051 Y109.876 F10800
G1 Z.2 F720
G1 E.8 F2100
M204 S800
;TYPE:External perimeter
;WIDTH:0.419999
G1 F1200
G1 X129.539 Y109.89 E.01606
;WIDTH:0.457911
G1 X129.439 Y109.868 E.00353
;WIDTH:0.495822
G1 X129.34 Y109.847 E.00381
;WIDTH:0.533734
G1 X129.24 Y109.825 E.00418
;WIDTH:0.571645
G1 X129.141 Y109.804 E.00445
G1 X127.588 Y109.774 E.06829
;WIDTH:0.551692
G1 X127.5 Y109.771 E.00372
G1 X127.348 Y109.704 E.00703
G1 X127.359 Y109.265 E.01858
G1 X127.595 Y109.265 E.00998
;WIDTH:0.571645
G1 X129.148 Y109.275 E.06828
G1 X129.248 Y109.256 E.00448
;WIDTH:0.533734
G1 X129.348 Y109.237 E.00415
;WIDTH:0.495822
G1 X129.448 Y109.218 E.00383
;WIDTH:0.457911
G1 X129.548 Y109.199 E.00351
;WIDTH:0.419999
G1 X130.263 Y109.199 E.02242
G1 X130.234 Y109.575 E.01182
G1 X130.199 Y109.776 E.0064
G1 X130.1 Y109.843 E.00375
M204 S1000
G1 X129.548 Y109.544 F10800
M204 S800
;TYPE:Perimeter
;WIDTH:0.365174
G1 F1200
G1 X129.885 Y109.549 E.00903
M204 S1000
; stop printing object Bittle_neck.stl id:0 copy 0
M106 S84.15
;LAYER_CHANGE
;Z:0.4
;HEIGHT:0.2
;BEFORE_LAYER_CHANGE
G92 E0.0
;0.4


;WIPE_START
G1 F8640
G1 X129.548 Y109.544 E-.07782
;WIPE_END
G1 E-.72218 F2100
G1 Z.4 F720
;AFTER_LAYER_CHANGE
;0.4
M104 S210 ; set temperature
G1 Z.8
G1 X129.548 Y100.758 F10800
G1 Z.4 F720
G1 E.8 F2100
;TYPE:Skirt/Brim
;WIDTH:0.42
G1 F1249
G1 X132.717 Y100.758 E.09936
G1 X133.603 Y100.886 E.02807
G1 X135.689 Y101.501 E.06819
G1 X137.429 Y102.799 E.06806
G1 X137.87 Y103.658 E.03028
G1 X138.712 Y106.158 E.08271
G1 X138.867 Y107.397 E.03915
G1 X138.542 Y111.146 E.11799
G1 X138.091 Y112.8 E.05375
G1 X137.298 Y114.358 E.05481
G1 X136.23 Y115.702 E.05383
G1 X134.971 Y116.774 E.05185
G1 X134.303 Y117.197 E.02479
G1 X133.213 Y117.723 E.03795
G1 X131.475 Y118.219 E.05667
G1 X129.842 Y118.349 E.05136
G1 X127.024 Y118.274 E.08839
G1 X125.973 Y118.155 E.03316
G1 X124.765 Y117.851 E.03906
G1 X124.083 Y117.595 E.02284
G1 X122.63 Y116.809 E.0518
G1 X121.277 Y115.685 E.05515
G1 X120.177 Y114.304 E.05536
G1 X119.707 Y113.474 E.02991
G1 X119.337 Y112.611 E.02944
G1 X118.968 Y111.277 E.0434
