; generated by PrusaSlicer 2.7.1+linux-x64-GTK3 on 2024-02-20 at 15:25:39 UTC

; 

; external perimeters extrusion width = 0.45mm
; perimeters extrusion width = 0.45mm
; infill extrusion width = 0.45mm
; solid infill extrusion width = 0.45mm
; top infill extrusion width = 0.40mm
; first layer extrusion width = 0.42mm

M73 P0 R17
M201 X9000 Y9000 Z500 E10000 ; sets maximum accelerations, mm/sec^2
M203 X500 Y500 Z12 E120 ; sets maximum feedrates, mm / sec
M204 S2000 T1500 ; sets acceleration (S) and retract acceleration (R), mm/sec^2
M205 X10.00 Y10.00 Z0.20 E2.50 ; sets the jerk limits, mm/sec
M205 S0 T0 ; sets the minimum extruding and travel feed rate, mm/sec

; printing object Bittle_tail.stl id:0 copy 0
; stop printing object Bittle_tail.stl id:0 copy 0

;TYPE:Custom
M862.3 P "MK2S" ; printer model check
M862.1 P0.4 ; nozzle diameter check
M115 U3.2.3 ; tell printer latest fw version
G90 ; use absolute coordinates
M83 ; extruder relative mode
M204 S2000 T1500 ; MK2 firmware only supports the old M204 format
M104 S215 ; set extruder temp
M140 S60 ; set bed temp
M190 S60 ; wait for bed temp
M109 S215 ; wait for extruder temp
G28 W ; home all without mesh bed level
G80 ; mesh bed leveling
G1 Z0.2 F720
G1 Y-2 F1000 ; go outside print area
G92 E0
G1 X60 E9 F1000 ; intro line
G1 X100 E12.5 F1000 ; intro line
G92 E0
G21 ; set units to millimeters
G90 ; use absolute coordinates
M83 ; use relative distances for extrusion

M900 K0.05 ; Filament gcode LA 1.5
M900 K30 ; Filament gcode LA 1.0




M107
;LAYER_CHANGE
;Z:0.2
;HEIGHT:0.2
;BEFORE_LAYER_CHANGE
G92 E0.0
;0.2


G1 E-.8 F2100
G1 Z.2 F720
;AFTER_LAYER_CHANGE
;0.2
G1 X128.307 Y95.988 F10800
G1 Z.2 F720
G1 E.8 F2100
M204 S800
;TYPE:Skirt/Brim
;WIDTH:0.42
G1 F1200
G1 X129.674 Y94.354 E.0668
G1 X130.482 Y93.656 E.03348
G1 X131.378 Y93.029 E.03429
G1 X132.117 Y92.624 E.02642
G1 X133.336 Y92.126 E.04129
G1 X134.237 Y91.871 E.02936
G1 X135.571 Y91.664 E.04233
G1 X137.081 Y91.661 E.04735
G1 X138.979 Y92.005 E.06048
G1 X140.248 Y92.474 E.04242
G1 X141.003 Y92.846 E.02639
G1 X141.979 Y93.481 E.03651
G1 X142.817 Y94.165 E.03392
G1 X143.959 Y95.408 E.05292
G1 X144.855 Y96.764 E.05096
G1 X145.362 Y97.808 E.03639
G1 X145.717 Y98.775 E.0323
G1 X145.997 Y99.802 E.03338
G1 X146.197 Y100.977 E.03737
G1 X146.288 Y103.066 E.06556
G1 X146.091 Y104.819 E.05531
G1 X145.797 Y106.061 E.04002
G1 X145.454 Y107.049 E.03279
G1 X145.066 Y107.926 E.03007
G1 X144.481 Y108.95 E.03698
G1 X143.811 Y109.881 E.03596
G1 X143.216 Y110.551 E.0281
G1 X141.72 Y111.817 E.06145
G1 X140.893 Y112.327 E.03046
G1 X139.853 Y112.809 E.03594
G1 X138.721 Y113.186 E.03741
G1 X137.972 Y113.343 E.02399
G1 X136.853 Y113.472 E.03532
G1 X135.892 Y113.474 E.03013
G1 X134.022 Y113.196 E.05928
G1 X132.888 Y112.823 E.03743
G1 X131.846 Y112.346 E.03593
G1 X131.017 Y111.84 E.03045
G1 X129.992 Y111.026 E.04104
G1 X128.918 Y109.912 E.04852
G1 X128.244 Y108.984 E.03596
G1 X127.655 Y107.963 E.03696
G1 X126.916 Y106.101 E.06281
G1 X126.509 Y104.196 E.06108
G1 X126.412 Y103.107 E.03428
G1 X126.424 Y101.736 E.04299
G1 X126.689 Y99.846 E.05984
G1 X127.015 Y98.652 E.03881
G1 X127.357 Y97.75 E.03025
G1 X128.279 Y96.041 E.06089
M204 S1000
G1 X128.609 Y96.219 F10800
M204 S800
G1 F1200
G1 X128.623 Y96.194 E.0009
G1 X129.942 Y94.619 E.06441
G1 X130.71 Y93.956 E.03181
G1 X131.586 Y93.343 E.03352
G1 X132.547 Y92.84 E.03401
G1 X133.471 Y92.477 E.03113
G1 X134.332 Y92.236 E.02803
G1 X135.622 Y92.038 E.04092
M73 P1 R17
G1 X137.032 Y92.035 E.04421
G1 X138.885 Y92.371 E.05905
G1 X140.109 Y92.824 E.04092
G1 X140.829 Y93.181 E.0252
G1 X141.752 Y93.782 E.03453
G1 X142.571 Y94.451 E.03316
G1 X143.67 Y95.649 E.05097
G1 X144.518 Y96.935 E.0483
G1 X145.013 Y97.952 E.03546
G1 X145.354 Y98.877 E.03091
G1 X145.628 Y99.881 E.03263
G1 X145.824 Y101.029 E.03652
G1 X145.911 Y103.055 E.06358
G1 X145.722 Y104.738 E.0531
G1 X145.434 Y105.96 E.03936
G1 X145.105 Y106.905 E.03137
G1 X144.727 Y107.762 E.02937
G1 X144.161 Y108.75 E.0357
G1 X142.953 Y110.281 E.06115
G1 X141.515 Y111.501 E.05913
G1 X140.727 Y111.988 E.02904
G1 X139.72 Y112.456 E.03482
G1 X138.618 Y112.823 E.03642
G1 X137.9 Y112.973 E.023
G1 X136.82 Y113.097 E.03409
G1 X135.923 Y113.099 E.02812
G1 X134.124 Y112.833 E.05702
G1 X133.02 Y112.47 E.03644
G1 X132.011 Y112.006 E.03482
G1 X131.221 Y111.523 E.02903
G1 X130.231 Y110.734 E.03969
G1 X129.214 Y109.678 E.04597
G1 X128.563 Y108.783 E.0347
G1 X127.993 Y107.797 E.03571
G1 X127.279 Y105.998 E.06069
G1 X126.884 Y104.158 E.05901
G1 X126.789 Y103.095 E.03346
G1 X126.8 Y101.762 E.0418
G1 X127.058 Y99.923 E.05823
G1 X127.372 Y98.772 E.03741
G1 X127.701 Y97.905 E.02908
G1 X128.581 Y96.272 E.05816
M204 S1000
G1 X128.912 Y96.45 F10800
M204 S800
G1 F1200
G1 X128.939 Y96.4 E.00178
G1 X130.21 Y94.884 E.06203
G1 X130.938 Y94.256 E.03015
G1 X131.794 Y93.658 E.03274
G1 X132.687 Y93.191 E.0316
G1 X133.607 Y92.829 E.031
G1 X134.427 Y92.601 E.02669
G1 X135.673 Y92.412 E.03951
G1 X136.983 Y92.409 E.04107
G1 X138.792 Y92.736 E.05764
G1 X140.656 Y93.516 E.06336
G1 X141.525 Y94.083 E.03253
G1 X142.324 Y94.737 E.03237
G1 X143.38 Y95.89 E.04902
G1 X144.182 Y97.106 E.04567
G1 X144.665 Y98.097 E.03457
G1 X144.992 Y98.979 E.02949
G1 X145.26 Y99.96 E.03189
G1 X145.45 Y101.08 E.03562
G1 X145.535 Y103.044 E.06164
G1 X145.354 Y104.658 E.05092
G1 X145.07 Y105.858 E.03866
G1 X144.757 Y106.761 E.02997
G1 X144.387 Y107.597 E.02866
G1 X143.842 Y108.55 E.03442
G1 X142.691 Y110.01 E.05829
G1 X141.311 Y111.184 E.05681
G1 X140.561 Y111.649 E.02767
G1 X139.586 Y112.103 E.03372
G1 X138.514 Y112.461 E.03544
G1 X137.828 Y112.603 E.02197
G1 X136.787 Y112.721 E.03285
G1 X135.954 Y112.723 E.02612
G1 X134.225 Y112.47 E.05479
G1 X133.152 Y112.117 E.03542
G1 X132.176 Y111.667 E.0337
G1 X131.424 Y111.205 E.02767
G1 X130.471 Y110.443 E.03826
G1 X129.509 Y109.444 E.04348
G1 X128.882 Y108.581 E.03345
G1 X128.332 Y107.631 E.03442
G1 X127.642 Y105.895 E.05857
G1 X127.259 Y104.119 E.05697
G1 X127.166 Y103.082 E.03264
G1 X127.176 Y101.789 E.04054
G1 X127.427 Y100 E.05664
G1 X128.045 Y98.059 E.06387
G1 X128.883 Y96.503 E.05541
M204 S1000
;WIPE_START
G1 F8640
G1 X128.912 Y96.45 E-.01395
G1 X128.939 Y96.4 E-.01312
G1 X130.21 Y94.884 E-.4568
G1 X130.938 Y94.256 E-.222
G1 X131.272 Y94.022 E-.09413
;WIPE_END
G1 Z.6 F720
G1 X131.13 Y97.92 F10800
G1 Z.2 F720
G1 E.8 F2100
M204 S800
G1 F1200
G1 X132.036 Y96.828 E.04449
G1 X133.098 Y95.988 E.04246
G1 X134.329 Y95.401 E.04276
G1 X135.727 Y95.087 E.04493
G1 X136.862 Y95.084 E.03559
G1 X138.195 Y95.346 E.04259
G1 X139.45 Y95.903 E.04305
G1 X140.582 Y96.758 E.04448
G1 X141.491 Y97.811 E.04362
G1 X142.215 Y99.141 E.04748
G1 X142.633 Y100.429 E.04246
G1 X142.844 Y101.722 E.04108
G1 X142.867 Y103.038 E.04127
G1 X142.742 Y104.14 E.03477
G1 X142.467 Y105.255 E.03601
G1 X141.999 Y106.418 E.03931
G1 X141.511 Y107.242 E.03003
G1 X140.94 Y107.988 E.02946
G1 X139.019 Y109.45 E.07569
G1 X137.5 Y109.957 E.05021
G1 X135.909 Y110.051 E.04997
G1 X134.568 Y109.797 E.04279
G1 X133.289 Y109.231 E.04385
G1 X132.135 Y108.359 E.04535
G1 X131.209 Y107.264 E.04496
G1 X130.617 Y106.241 E.03706
G1 X130.119 Y104.864 E.04591
G1 X129.833 Y103.066 E.05708
G1 X129.832 Y101.991 E.03371
G1 X130.038 Y100.534 E.04614
G1 X130.465 Y99.174 E.04469
G1 X131.102 Y97.973 E.04263
M204 S1000
G1 X131.432 Y98.147 F10800
M204 S800
G1 F1200
G1 X131.433 Y98.145 E.00007
G1 X132.285 Y97.111 E.04201
G1 X133.315 Y96.297 E.04116
G1 X134.47 Y95.751 E.04006
G1 X135.788 Y95.46 E.04232
G1 X136.843 Y95.461 E.03308
G1 X138.1 Y95.711 E.04018
G1 X139.275 Y96.238 E.04038
G1 X140.338 Y97.045 E.04185
G1 X141.191 Y98.041 E.04112
G1 X141.874 Y99.305 E.04505
G1 X142.269 Y100.53 E.04036
G1 X142.47 Y101.769 E.03936
G1 X142.491 Y103.008 E.03885
G1 X142.372 Y104.062 E.03326
G1 X142.112 Y105.127 E.03437
G1 X141.666 Y106.239 E.03757
G1 X141.205 Y107.022 E.02849
G1 X140.656 Y107.739 E.02831
G1 X138.868 Y109.103 E.07051
G1 X137.451 Y109.582 E.0469
G1 X135.955 Y109.676 E.047
G1 X134.66 Y109.43 E.04133
G1 X133.463 Y108.896 E.0411
G1 X132.38 Y108.072 E.04267
G1 X131.509 Y107.035 E.04246
G1 X130.961 Y106.086 E.03436
G1 X130.486 Y104.776 E.04369
G1 X130.303 Y103.918 E.02751
G1 X130.209 Y103.036 E.02781
G1 X130.209 Y102.005 E.03233
G1 X130.403 Y100.632 E.04348
G1 X130.807 Y99.334 E.04262
G1 X131.404 Y98.2 E.04018
M73 P2 R17
M204 S1000
G1 X131.735 Y98.373 F10800
M204 S800
G1 F1200
G1 X131.738 Y98.368 E.00018
G1 X132.536 Y97.393 E.0395
G1 X133.496 Y96.629 E.03847
G1 X134.612 Y96.101 E.03871
G1 X135.847 Y95.833 E.03962
G1 X136.822 Y95.838 E.03057
G1 X138.004 Y96.077 E.03781
G1 X139.1 Y96.572 E.03771
G1 X140.092 Y97.332 E.03918
G1 X140.891 Y98.269 E.03861
G1 X141.534 Y99.467 E.04263
G1 X141.906 Y100.632 E.03834
G1 X142.093 Y101.789 E.03675
G1 X142.115 Y102.979 E.03732
G1 X142.003 Y103.985 E.03174
G1 X141.757 Y105 E.03275
G1 X141.334 Y106.061 E.03581
G1 X140.898 Y106.802 E.02696
G1 X140.372 Y107.49 E.02715
G1 X138.718 Y108.756 E.06531
G1 X137.354 Y109.217 E.04514
G1 X135.958 Y109.298 E.04384
G1 X134.754 Y109.065 E.03845
G1 X133.639 Y108.562 E.03835
G1 X132.627 Y107.786 E.03999
G1 X131.809 Y106.806 E.04002
G1 X131.305 Y105.931 E.03166
G1 X130.853 Y104.688 E.04147
G1 X130.585 Y103.006 E.0534
G1 X130.586 Y102.018 E.03098
G1 X130.768 Y100.728 E.04085
G1 X131.149 Y99.493 E.04052
G1 X131.707 Y98.426 E.03775
M204 S1000
G1 X132.039 Y98.598 F10800
M204 S800
G1 F1200
G1 X132.043 Y98.591 E.00025
G1 X132.787 Y97.675 E.037
G1 X133.714 Y96.938 E.03713
G1 X134.751 Y96.452 E.03591
G1 X135.904 Y96.206 E.03697
G1 X136.799 Y96.215 E.02806
G1 X137.907 Y96.442 E.03546
G1 X138.923 Y96.906 E.03502
G1 X139.845 Y97.618 E.03653
G1 X140.59 Y98.497 E.03613
G1 X141.193 Y99.629 E.04021
G1 X141.542 Y100.732 E.03627
G1 X141.719 Y101.836 E.03506
G1 X141.739 Y102.95 E.03493
G1 X141.634 Y103.909 E.03025
G1 X141.401 Y104.874 E.03113
G1 X141.001 Y105.883 E.03403
G1 X140.579 Y106.601 E.02611
G1 X140.088 Y107.241 E.02529
G1 X138.566 Y108.409 E.06015
G1 X137.305 Y108.842 E.0418
G1 X136.004 Y108.923 E.04087
G1 X134.888 Y108.712 E.03561
G1 X133.814 Y108.227 E.03695
G1 X132.874 Y107.501 E.03724
G1 X132.11 Y106.578 E.03757
G1 X131.649 Y105.775 E.02903
G1 X131.22 Y104.599 E.03925
G1 X130.961 Y102.977 E.0515
G1 X130.963 Y102.032 E.02963
G1 X131.132 Y100.824 E.03824
G1 X131.492 Y99.651 E.03847
G1 X132.011 Y98.651 E.03533
M204 S1000
G1 X132.343 Y98.822 F10800
M204 S800
G1 F1200
G1 X132.348 Y98.812 E.00035
G1 X133.04 Y97.956 E.03451
G1 X133.894 Y97.269 E.03437
G1 X134.891 Y96.803 E.03451
G1 X135.96 Y96.58 E.03424
G1 X136.776 Y96.592 E.02559
G1 X137.77 Y96.794 E.0318
G1 X138.746 Y97.239 E.03363
G1 X139.598 Y97.903 E.03387
G1 X140.288 Y98.724 E.03363
G1 X140.851 Y99.789 E.03777
G1 X141.178 Y100.831 E.03424
G1 X141.342 Y101.856 E.03255
G1 X141.363 Y102.921 E.0334
G1 X141.264 Y103.833 E.02876
G1 X141.046 Y104.748 E.02949
G1 X140.668 Y105.705 E.03226
G1 X139.803 Y106.991 E.04859
G1 X138.413 Y108.064 E.05506
G1 X137.254 Y108.468 E.03848
G1 X136.05 Y108.548 E.03783
G1 X134.981 Y108.345 E.03412
G1 X133.991 Y107.894 E.03411
G1 X133.123 Y107.217 E.03451
G1 X132.412 Y106.351 E.03513
G1 X131.993 Y105.62 E.02642
G1 X131.586 Y104.511 E.03704
G1 X131.337 Y102.948 E.04962
G1 X131.34 Y102.047 E.02825
G1 X131.504 Y100.892 E.03658
G1 X131.835 Y99.809 E.03551
G1 X132.316 Y98.876 E.03291
M204 S1000
G1 X132.648 Y99.046 F10800
M204 S800
G1 F1200
G1 X132.655 Y99.032 E.00049
G1 X133.292 Y98.237 E.03194
G1 X134.112 Y97.578 E.03298
G1 X135.029 Y97.154 E.03168
G1 X136.014 Y96.953 E.03152
G1 X136.75 Y96.968 E.02308
G1 X137.672 Y97.158 E.02952
G1 X138.567 Y97.572 E.03092
G1 X139.348 Y98.187 E.03117
G1 X139.985 Y98.95 E.03116
G1 X140.509 Y99.949 E.03537
G1 X140.814 Y100.93 E.03221
G1 X140.967 Y101.902 E.03085
G1 X140.987 Y102.893 E.03108
G1 X140.894 Y103.758 E.02728
G1 X140.689 Y104.623 E.02787
G1 X140.335 Y105.528 E.03047
G1 X139.519 Y106.743 E.04589
G1 X138.26 Y107.718 E.04993
G1 X137.154 Y108.103 E.03672
G1 X136.052 Y108.17 E.03462
G1 X135.077 Y107.98 E.03115
G1 X134.17 Y107.561 E.03133
G1 X133.373 Y106.934 E.0318
G1 X132.714 Y106.126 E.03269
G1 X132.128 Y104.964 E.0408
G1 X131.793 Y103.681 E.04158
G1 X131.713 Y102.919 E.02402
G1 X131.717 Y102.061 E.0269
G1 X131.869 Y100.987 E.03401
G1 X132.179 Y99.965 E.03349
G1 X132.621 Y99.099 E.03049
M204 S1000
G1 X132.954 Y99.268 F10800
M204 S800
G1 F1200
G1 X132.963 Y99.251 E.0006
G1 X133.547 Y98.516 E.02943
G1 X134.292 Y97.91 E.03011
G1 X135.166 Y97.506 E.03019
G1 X136.066 Y97.327 E.02877
G1 X136.723 Y97.345 E.02061
G1 X137.572 Y97.523 E.0272
G1 X138.386 Y97.904 E.02818
G1 X139.098 Y98.469 E.0285
G1 X139.682 Y99.174 E.0287
G1 X140.166 Y100.107 E.03296
G1 X140.449 Y101.027 E.03018
G1 X140.593 Y101.947 E.0292
G1 X140.61 Y102.866 E.02882
G1 X140.524 Y103.684 E.02579
G1 X140.333 Y104.499 E.02625
G1 X140.002 Y105.351 E.02866
G1 X139.235 Y106.493 E.04313
G1 X138.104 Y107.373 E.04493
G1 X137.103 Y107.729 E.03331
G1 X136.098 Y107.795 E.03158
G1 X135.212 Y107.627 E.02827
G1 X134.385 Y107.251 E.02848
G1 X133.623 Y106.651 E.03041
G1 X133.017 Y105.901 E.03023
G1 X132.68 Y105.308 E.02139
G1 X132.319 Y104.333 E.0326
G1 X132.089 Y102.891 E.04578
G1 X132.094 Y102.076 E.02555
G1 X132.234 Y101.082 E.03147
G1 X132.523 Y100.12 E.03149
G1 X132.927 Y99.321 E.02807
M204 S1000
G1 X133.261 Y99.489 F10800
M204 S800
G1 F1200
G1 X133.271 Y99.469 E.0007
G1 X133.801 Y98.795 E.02688
G1 X134.511 Y98.219 E.02867
G1 X135.301 Y97.859 E.02722
G1 X136.116 Y97.702 E.02602
G1 X136.694 Y97.721 E.01813
G1 X137.433 Y97.874 E.02366
G1 X138.205 Y98.235 E.02672
G1 X138.846 Y98.75 E.02578
G1 X139.377 Y99.397 E.02624
G1 X139.823 Y100.264 E.03057
G1 X140.085 Y101.124 E.02819
G1 X140.216 Y101.968 E.02678
G1 X140.234 Y102.839 E.02732
G1 X139.976 Y104.376 E.04887
G1 X139.668 Y105.175 E.02685
G1 X138.951 Y106.244 E.04036
G1 X137.947 Y107.029 E.03996
G1 X137.048 Y107.355 E.02998
G1 X136.144 Y107.42 E.02842
G1 X135.305 Y107.261 E.02677
G1 X134.565 Y106.918 E.02557
G1 X133.875 Y106.37 E.02763
G1 X133.321 Y105.678 E.02779
G1 X132.84 Y104.716 E.03372
G1 X132.537 Y103.562 E.03741
G1 X132.465 Y102.863 E.02203
G1 X132.471 Y102.092 E.02417
G1 X132.605 Y101.149 E.02986
G1 X132.868 Y100.274 E.02865
G1 X133.234 Y99.542 E.02566
M204 S1000
G1 X133.569 Y99.708 F10800
M204 S800
G1 F1200
G1 X133.581 Y99.685 E.00081
G1 X134.058 Y99.072 E.02435
G1 X134.69 Y98.551 E.02568
G1 X135.436 Y98.212 E.02569
G1 X136.163 Y98.077 E.02318
G1 X136.663 Y98.097 E.01569
G1 X137.294 Y98.225 E.02019
G1 X138.024 Y98.567 E.02528
M73 P3 R17
G1 X138.592 Y99.03 E.02298
G1 X139.072 Y99.619 E.02382
G1 X139.479 Y100.419 E.02814
G1 X139.72 Y101.219 E.0262
G1 X139.841 Y102.013 E.02518
G1 X139.858 Y102.812 E.02506
G1 X139.62 Y104.254 E.04582
G1 X139.334 Y105 E.02505
G1 X138.667 Y105.996 E.03758
G1 X137.788 Y106.686 E.03504
G1 X136.991 Y106.981 E.02665
G1 X136.186 Y107.045 E.02532
G1 X135.441 Y106.909 E.02374
G1 X134.745 Y106.586 E.02406
G1 X134.129 Y106.09 E.0248
G1 X133.627 Y105.456 E.02536
G1 X133.367 Y104.996 E.01657
G1 X133.052 Y104.152 E.02825
G1 X132.842 Y102.835 E.04182
G1 X132.848 Y102.108 E.0228
G1 X132.971 Y101.242 E.02743
G1 X133.213 Y100.426 E.02669
G1 X133.542 Y99.762 E.02323
M204 S1000
G1 X133.88 Y99.93 F10800
M204 S800
G1 F1200
G1 X133.91 Y99.87 E.0021
G1 X134.341 Y99.322 E.02186
G1 X134.908 Y98.86 E.02293
G1 X135.567 Y98.566 E.02263
G1 X136.206 Y98.452 E.02035
G1 X137.155 Y98.576 E.03001
G1 X137.842 Y98.898 E.02379
G1 X138.336 Y99.307 E.02011
G1 X138.765 Y99.839 E.02143
G1 X139.134 Y100.573 E.02576
G1 X139.354 Y101.314 E.02424
G1 X139.481 Y102.786 E.04632
G1 X139.262 Y104.133 E.04279
G1 X138.999 Y104.826 E.02324
G1 X138.382 Y105.747 E.03476
G1 X137.626 Y106.344 E.0302
G1 X136.931 Y106.608 E.02331
G1 X136.226 Y106.669 E.02219
G1 X135.574 Y106.555 E.02075
G1 X134.963 Y106.277 E.02105
G1 X134.383 Y105.81 E.02335
G1 X133.933 Y105.235 E.02289
G1 X133.418 Y104.061 E.0402
G1 X133.218 Y102.807 E.03982
G1 X133.337 Y101.335 E.0463
G1 X133.558 Y100.578 E.02473
G1 X133.853 Y99.984 E.02079
M204 S1000
G1 X134.191 Y100.151 F10800
M204 S800
G1 F1200
G1 X134.238 Y100.056 E.00332
G1 X134.622 Y99.574 E.01932
G1 X135.124 Y99.17 E.0202
G1 X135.695 Y98.921 E.01953
