; generated by PrusaSlicer 2.7.1+linux-x64-GTK3 on 2024-02-16 at 16:05:22 UTC

; 

; external perimeters extrusion width = 0.45mm
; perimeters extrusion width = 0.45mm
; infill extrusion width = 0.45mm
; solid infill extrusion width = 0.45mm
; top infill extrusion width = 0.40mm
; first layer extrusion width = 0.70mm

M73 P0 R49
M201 X9000 Y9000 Z500 E10000 ; sets maximum accelerations, mm/sec^2
M203 X500 Y500 Z12 E120 ; sets maximum feedrates, mm / sec
M204 S2000 T1500 ; sets acceleration (S) and retract acceleration (R), mm/sec^2
M205 X10.00 Y10.00 Z0.20 E2.50 ; sets the jerk limits, mm/sec
M205 S0 T0 ; sets the minimum extruding and travel feed rate, mm/sec
;TYPE:Custom
M862.3 P "MK2S" ; printer model check
M862.1 P0.4 ; nozzle diameter check
M115 U3.2.3 ; tell printer latest fw version
G90 ; use absolute coordinates
M83 ; extruder relative mode
M204 S2000 T1500 ; MK2 firmware only supports the old M204 format
M104 S215 ; set extruder temp
M140 S60 ; set bed temp
M190 S60 ; wait for bed temp
M109 S215 ; wait for extruder temp
G28 W ; home all without mesh bed level
G80 ; mesh bed leveling
G1 Z0.2 F720
G1 Y-2 F1000 ; go outside print area
G92 E0
G1 X60 E9 F1000 ; intro line
G1 X100 E12.5 F1000 ; intro line
G92 E0
G21 ; set units to millimeters
G90 ; use absolute coordinates
M83 ; use relative distances for extrusion

M900 K0.05 ; Filament gcode LA 1.5
M900 K30 ; Filament gcode LA 1.0




M107
;LAYER_CHANGE
;Z:0.35
;HEIGHT:0.35
;BEFORE_LAYER_CHANGE
G92 E0.0
;0.35


G1 E-.8 F2100
G1 Z.35 F7800
;AFTER_LAYER_CHANGE
;0.35
G1 X114.956 Y51.476
G1 Z.35
G1 E.8 F2100
;TYPE:Skirt/Brim
;WIDTH:0.7
G1 F900
G1 X116.099 Y49.488 E.20852
G1 X117.852 Y48.009 E.20855
G1 X120.004 Y47.216 E.20854
G1 X121.726 Y47.132 E.15677
G1 X128.743 Y47.709 E.64021
G1 X130.456 Y48.083 E.15943
G1 X131.412 Y48.508 E.09513
G1 X133.094 Y49.785 E.19203
G1 X134.651 Y52.298 E.26881
G1 X135.1 Y54.423 E.19749
G1 X134.995 Y56.381 E.1783
G1 X134.788 Y57.199 E.07673
G1 X133.258 Y59.923 E.28409
G1 X132.926 Y60.266 E.04341
G1 X131.157 Y61.502 E.19623
G1 X130.575 Y61.752 E.0576
G1 X128.7 Y62.173 E.17474
G1 X121.593 Y62.702 E.64802
G1 X119.314 Y62.446 E.20853
G1 X117.259 Y61.427 E.20857
G1 X115.674 Y59.77 E.2085
G1 X114.75 Y57.671 E.20854
G1 X114.559 Y56.09 E.1448
G1 X114.559 Y53.735 E.21414
G1 X114.945 Y51.535 E.2031
;WIPE_START
G1 F6240
G1 X114.956 Y51.476 E-.01919
G1 X116.099 Y49.488 E-.73315
G1 X116.213 Y49.392 E-.04766
;WIPE_END
G1 Z.75 F7800
G1 X123.032 Y55.046
G1 Z.35
G1 E.8 F2100
;TYPE:Perimeter
;WIDTH:0.508503
G1 F900
G1 X122.892 Y55.074 E.009
;WIDTH:0.47813
G1 X122.456 Y55.131 E.02579
;WIDTH:0.450993
G1 X122.02 Y55.187 E.02404
;WIDTH:0.423857
G1 X122.02 Y54.774 E.02096
G1 X122.235 Y54.825 E.01121
;WIDTH:0.46618
G1 X122.634 Y54.935 E.02355
;WIDTH:0.508503
G1 X122.974 Y55.03 E.02226
;WIPE_START
G1 F6240
G1 X123.032 Y55.046 E-.01924
G1 X122.892 Y55.074 E-.04565
;WIPE_END
G1 E-.73511 F2100
G1 Z.75 F7800
G1 X127.405 Y55.098
G1 Z.35
G1 E.8 F2100
;TYPE:External perimeter
;WIDTH:0.794433
G1 F900
G1 X124.487 Y55.429 E.30739
;WIDTH:0.833987
G1 X124.015 Y55.442 E.05214
G1 X123.884 Y55.473 E.01487
;WIDTH:0.789324
G1 X123.753 Y55.504 E.01399
;WIDTH:0.744662
G1 X123.622 Y55.536 E.01314
;WIDTH:0.7
G1 X121.533 Y55.718 E.19067
G1 X121.533 Y54.166 E.14112
G1 X123.054 Y54.516 E.14192
G1 X123.64 Y54.577 E.05357
;WIDTH:0.744662
G1 X123.77 Y54.614 E.01317
;WIDTH:0.789324
G1 X123.899 Y54.65 E.01392
;WIDTH:0.833987
G1 X124.029 Y54.686 E.0149
G1 X124.485 Y54.714 E.05045
;WIDTH:0.794433
G1 X126.417 Y54.917 E.20334
G1 X127.346 Y55.088 E.09887
G1 X128.283 Y54.808 F7800
;WIDTH:0.417699
G1 F900
G1 X128.221 Y54.605 E.01058
;WIDTH:0.463769
G1 X128.142 Y54.725 E.00813
;WIDTH:0.509839
G1 X128.064 Y54.845 E.00905
;WIDTH:0.555909
G1 X127.985 Y54.964 E.00999
;WIDTH:0.601979
G1 X127.906 Y55.084 E.01101
G1 X127.954 Y55.141 E.00571
;WIDTH:0.555909
G1 X128.002 Y55.199 E.00527
;WIDTH:0.509839
G1 X128.049 Y55.256 E.00467
;WIDTH:0.463769
G1 X128.097 Y55.313 E.00421
;WIDTH:0.417699
G1 X128.166 Y55.336 E.00363
G1 X128.24 Y55.236 E.0062
G1 X128.287 Y54.975 E.01322
G1 X128.283 Y54.808 E.00833
;WIPE_START
G1 F6240
G1 X128.287 Y54.975 E-.05341
G1 X128.24 Y55.236 E-.08479
G1 X128.166 Y55.336 E-.03977
G1 X128.097 Y55.313 E-.02325
;WIPE_END
G1 E-.59878 F2100
G1 Z.75 F7800
G1 X123.032 Y55.046
G1 Z.35
G1 E.8 F2100
;TYPE:Perimeter
;WIDTH:0.508503
G1 F900
G1 X123.311 Y55.051 E.0176
;WIDTH:0.460349
G1 X123.59 Y55.056 E.01564
M106 S84.15
;LAYER_CHANGE
;Z:0.65
;HEIGHT:0.3
;BEFORE_LAYER_CHANGE
G92 E0.0
;0.65


;WIPE_START
G1 F6240
G1 X123.311 Y55.051 E-.08921
;WIPE_END
G1 E-.71079 F2100
G1 Z.65 F7800
;AFTER_LAYER_CHANGE
;0.65
M104 S210 ; set temperature
G1 Z1.05
G1 X121.794 Y165.576
G1 Z.65
G1 E.8 F2100
;TYPE:Overhang perimeter
;WIDTH:0.4
;HEIGHT:0.4
G1 F900
G1 X122.277 Y165.612 E.0253
G1 X123.041 Y165.752 E.04058
G1 X125.465 Y165.82 E.12669
G1 X126.897 Y165.984 E.0753
G1 X125.47 Y166.13 E.07494
G1 X122.954 Y166.292 E.13172
G1 X122.328 Y166.478 E.03412
G1 X121.794 Y166.596 E.02857
G1 X121.794 Y165.636 E.05016
G1 X121.408 Y165.166 F7800
G1 F900
G1 X122.315 Y165.228 E.0475
G1 X123.076 Y165.304 E.03996
G1 X125.501 Y165.474 E.127
G1 X127.837 Y165.741 E.12284
G1 X127.854 Y165.77 E.00176
G1 X128.118 Y165.7 E.01427
G1 X128.205 Y165.722 E.00469
G1 X128.279 Y166.035 E.0168
G1 X128.275 Y166.157 E.00638
G1 X128.213 Y166.428 E.01452
G1 X128.113 Y166.302 E.0084
G1 X127.945 Y166.155 E.01166
G1 X126.995 Y166.324 E.05041
G1 X123.047 Y166.714 E.20727
G1 X121.408 Y167.076 E.08769
G1 X121.408 Y165.226 E.09665
;WIPE_START
G1 F6240
G1 X121.408 Y165.166 E-.01918
G1 X122.315 Y165.228 E-.29066
G1 X123.076 Y165.304 E-.24451
G1 X123.842 Y165.358 E-.24565
;WIPE_END
G1 Z1.05 F7800
G1 X122.264 Y165.996
G1 Z.65
G1 E.8 F2100
G1 F3600
G1 X122.202 Y165.996 E.00324
G1 X122.172 Y166.049 E.00318
G1 X122.202 Y166.102 E.00318
G1 X122.264 Y166.102 E.00324
G1 X122.295 Y166.049 E.00321
;WIPE_START
G1 F6240
G1 X122.264 Y166.102 E-.01963
G1 X122.202 Y166.102 E-.01982
G1 X122.172 Y166.049 E-.01947
G1 X122.202 Y165.996 E-.01947
G1 X122.264 Y165.996 E-.01982
;WIPE_END
G1 E-.70179 F2100
G1 Z1.05 F7800
G1 X127.952 Y55.259
G1 Z.65
G1 E.8 F2100
;TYPE:Perimeter
;WIDTH:0.45
;HEIGHT:0.3
G1 F900
G1 X127.88 Y55.55 E.01442
G1 X124.507 Y55.681 E.16235
G1 X122.18 Y55.794 E.11205
G1 X122.18 Y53.987 E.08691
G1 X122.961 Y54.096 E.03793
G1 X125.657 Y54.236 E.12984
;TYPE:Overhang perimeter
;WIDTH:0.4
;HEIGHT:0.4
G1 X127.903 Y54.348 E.11749
;TYPE:Perimeter
;WIDTH:0.45
;HEIGHT:0.3
G1 X127.963 Y54.838 E.02374
G1 X127.953 Y55.199 E.01737
G1 X128.329 Y55.351 F7800
G1 F900
G1 X128.329 Y55.358 E.00034
G1 X128.198 Y55.777 E.02111
;TYPE:Overhang perimeter
;WIDTH:0.4
;HEIGHT:0.4
G1 X128.171 Y55.865 E.00481
G1 X128.103 Y55.927 E.00481
G1 X122.852 Y56.147 E.27458
;TYPE:Perimeter
;WIDTH:0.45
;HEIGHT:0.3
G1 X121.794 Y56.199 E.05095
G1 X121.794 Y53.659 E.12217
;TYPE:Overhang perimeter
;WIDTH:0.4
;HEIGHT:0.4
G1 X121.794 Y53.543 E.00606
G1 X122.982 Y53.711 E.06268
G1 X127.845 Y53.964 E.25441
G1 X128.167 Y53.89 E.01726
G1 X128.23 Y54.11 E.01196
;TYPE:Perimeter
;WIDTH:0.45
;HEIGHT:0.3
G1 X128.299 Y54.352 E.0121
G1 X128.349 Y54.849 E.02402
G1 X128.332 Y55.291 E.02127
G1 X128.703 Y55.369 F7800
;TYPE:Overhang perimeter
;WIDTH:0.4
;HEIGHT:0.4
G1 F900
G1 X128.693 Y55.526 E.00822
G1 X128.53 Y56.004 E.02639
G1 X128.401 Y56.212 E.01279
G1 X128.198 Y56.309 E.01175
G1 X124.537 Y56.452 E.19141
G1 X121.408 Y56.604 E.16367
G1 X121.408 Y56.277 E.01708
;TYPE:External perimeter
;WIDTH:0.45
;HEIGHT:0.3
G1 X121.408 Y53.578 E.12981
;TYPE:Overhang perimeter
;WIDTH:0.4
;HEIGHT:0.4
G1 X121.408 Y53.098 E.02508
G1 X123.002 Y53.325 E.08412
G1 X127.41 Y53.556 E.23061
G1 X127.923 Y53.574 E.02682
G1 X128.218 Y53.402 E.01784
G1 X128.34 Y53.459 E.00704
G1 X128.53 Y53.752 E.01824
G1 X128.687 Y54.322 E.03089
G1 X128.734 Y54.86 E.02821
G1 X128.706 Y55.309 E.0235
G1 X127.826 Y55.189 F7800
;TYPE:Bridge infill
;WIDTH:0.480685
G1 F3600
G1 X122.501 Y55.417 E.40213
G1 X122.501 Y54.886 E.04006
G1 X127.831 Y54.658 E.4025
M106 S170.85
;LAYER_CHANGE
;Z:0.95
;HEIGHT:0.3
;BEFORE_LAYER_CHANGE
G92 E0.0
;0.95


;WIPE_START
G1 F6240
G1 X125.331 Y54.765 E-.8
;WIPE_END
G1 Z.95 F7800
;AFTER_LAYER_CHANGE
;0.95
G1 Z1.35
G1 X122.18 Y165.282
G1 Z.95
G1 E.8 F2100
;TYPE:Perimeter
;WIDTH:0.45
G1 F900
G1 X124.314 Y165.387 E.10276
G1 X127.888 Y165.526 E.17203
G1 X127.942 Y165.807 E.01376
G1 X127.949 Y166.082 E.01323
G1 X127.893 Y166.666 E.02822
G1 X127.795 Y166.664 E.00471
;TYPE:Overhang perimeter
;WIDTH:0.4
;HEIGHT:0.4
G1 X127.41 Y166.683 E.02014
;TYPE:Perimeter
;WIDTH:0.45
;HEIGHT:0.3
G1 X123.042 Y166.9 E.21034
G1 X122.18 Y167.022 E.04187
G1 X122.18 Y165.342 E.0808
G1 X121.794 Y164.876 F7800
G1 F900
G1 X125.468 Y165.046 E.1769
;TYPE:Overhang perimeter
;WIDTH:0.4
;HEIGHT:0.4
G1 X128.081 Y165.147 E.13662
G1 X128.142 Y165.216 E.00481
;TYPE:Perimeter
;WIDTH:0.45
;HEIGHT:0.3
G1 X128.223 Y165.305 E.00579
G1 X128.328 Y165.798 E.02424
G1 X128.334 Y166.073 E.01323
G1 X128.285 Y166.646 E.02766
G1 X128.185 Y167.033 E.01922
;TYPE:Overhang perimeter
;WIDTH:0.4
;HEIGHT:0.4
G1 X128.167 Y167.106 E.00393
G1 X127.846 Y167.048 E.01704
G1 X123.061 Y167.285 E.2503
G1 X121.794 Y167.468 E.06688
G1 X121.794 Y167.434 E.00178
;TYPE:Perimeter
;WIDTH:0.45
;HEIGHT:0.3
G1 X121.794 Y164.936 E.12015
G1 X121.408 Y164.74 F7800
;TYPE:Overhang perimeter
;WIDTH:0.4
;HEIGHT:0.4
G1 F900
G1 X121.408 Y164.471 E.01405
G1 X124.342 Y164.616 E.15347
G1 X128.096 Y164.762 E.19628
G1 X128.351 Y164.83 E.01379
G1 X128.572 Y165.128 E.01938
G1 X128.648 Y165.371 E.0133
G1 X128.713 Y165.789 E.0221
G1 X128.715 Y165.878 E.00465
;TYPE:External perimeter
;WIDTH:0.45
;HEIGHT:0.3
G1 X128.724 Y166.237 E.01727
;TYPE:Overhang perimeter
;WIDTH:0.4
;HEIGHT:0.4
G1 X128.721 Y166.309 E.00376
;TYPE:External perimeter
;WIDTH:0.45
;HEIGHT:0.3
G1 X128.713 Y166.366 E.00277
;TYPE:Overhang perimeter
;WIDTH:0.4
;HEIGHT:0.4
G1 X128.641 Y166.883 E.02727
G1 X128.53 Y167.236 E.01933
G1 X128.357 Y167.528 E.01773
G1 X128.245 Y167.604 E.00707
G1 X127.865 Y167.433 E.02177
G1 X123.08 Y167.67 E.2503
G1 X121.408 Y167.915 E.08829
G1 X121.408 Y167.514 E.02095
;TYPE:External perimeter
;WIDTH:0.45
;HEIGHT:0.3
G1 X121.408 Y164.8 E.13053
;WIPE_START
G1 F6240
G1 X121.408 Y164.74 E-.01918
G1 X121.408 Y164.471 E-.086
G1 X123.578 Y164.578 E-.69482
;WIPE_END
G1 Z1.35 F7800
G1 X122.469 Y166.495
G1 Z.95
G1 E.8 F2100
;TYPE:Solid infill
G1 F1200
G1 X122.469 Y165.584 E.04382
G1 X124.093 Y165.656 E.07819
G1 X123.987 Y165.805 E.00879
G1 X123.826 Y166.262 E.0233
G1 X123.768 Y166.575 E.01531
G1 X122.993 Y166.614 E.03732
G1 X122.469 Y166.688 E.02545
G1 X122.817 Y166.287 E.02554
;WIDTH:0.374795
G1 X123.373 Y166.255 E.02156
;WIDTH:0.356244
G1 X123.473 Y166.25 E.00364
G1 X123.565 Y165.972 E.01066
;WIDTH:0.374091
G1 X122.993 Y165.956 E.0221
;WIDTH:0.374795
G1 X122.817 Y165.948 E.00682
G1 X122.817 Y166.094 E.00565
;WIPE_START
G1 F6240
G1 X122.817 Y165.948 E-.04668
G1 X122.993 Y165.956 E-.05633
;WIPE_END
G1 E-.69699 F2100
G1 Z1.35 F7800
G1 X127.824 Y166.296
G1 Z.95
G1 E.8 F2100
;TYPE:Bridge infill
;WIDTH:0.49
;HEIGHT:0.4
G1 F3600
G1 X124.193 Y166.476 E.28502
G1 X124.298 Y166.126 E.02865
G1 X124.396 Y165.925 E.01753
G1 X127.811 Y165.756 E.26806
;WIPE_START
G1 F6240
G1 X125.312 Y165.88 E-.8
;WIPE_END
G1 Z1.35 F7800
G1 X128.112 Y55.389
G1 Z.95
M73 P0 R48
G1 E.8 F2100
;TYPE:Perimeter
;WIDTH:0.45
;HEIGHT:0.3
G1 F900
G1 X128.111 Y55.44 E.00245
G1 X128.04 Y55.879 E.02139
G1 X127.864 Y56.296 E.02177
G1 X122.18 Y56.573 E.27371
G1 X122.18 Y53.363 E.15439
G1 X123.052 Y53.466 E.04223
G1 X126.964 Y53.619 E.1883
G1 X127.981 Y53.642 E.04893
G1 X128.086 Y54.141 E.02453
G1 X128.129 Y54.869 E.03508
G1 X128.114 Y55.329 E.02214
G1 X128.498 Y55.401 F7800
G1 F900
G1 X128.493 Y55.552 E.00727
G1 X128.398 Y56.063 E.025
G1 X128.17 Y56.553 E.02599
G1 X128.072 Y56.669 E.0073
G1 X121.794 Y56.978 E.30232
G1 X121.794 Y52.931 E.19465
M73 P1 R48
G1 X123.068 Y53.081 E.0617
G1 X127.85 Y53.268 E.23017
G1 X128.177 Y53.188 E.01619
G1 X128.227 Y53.246 E.00368
G1 X128.374 Y53.585 E.01777
G1 X128.471 Y54.115 E.02591
G1 X128.514 Y54.881 E.0369
G1 X128.5 Y55.341 E.02213
G1 X128.883 Y55.413 F7800
;TYPE:External perimeter
G1 F900
G1 X128.878 Y55.594 E.00871
G1 X128.768 Y56.181 E.02872
G1 X128.561 Y56.626 E.02361
;TYPE:Overhang perimeter
;WIDTH:0.4
;HEIGHT:0.4
G1 X128.52 Y56.715 E.00512
G1 X128.356 Y56.934 E.01429
G1 X128.155 Y57.054 E.01223
G1 X121.408 Y57.383 E.35292
G1 X121.408 Y57.029 E.01849
;TYPE:External perimeter
;WIDTH:0.45
;HEIGHT:0.3
G1 X121.408 Y52.668 E.20975
;TYPE:Overhang perimeter
;WIDTH:0.4
;HEIGHT:0.4
G1 X121.408 Y52.5 E.00878
G1 X123.083 Y52.695 E.0881
G1 X127.865 Y52.883 E.25003
G1 X128.213 Y52.75 E.01946
G1 X128.357 Y52.802 E.008
G1 X128.58 Y53.067 E.01809
G1 X128.597 Y53.112 E.00251
;TYPE:External perimeter
;WIDTH:0.45
;HEIGHT:0.3
G1 X128.761 Y53.553 E.02263
G1 X128.855 Y54.089 E.02617
G1 X128.9 Y54.893 E.03873
G1 X128.885 Y55.353 E.02214
;WIPE_START
G1 F6240
G1 X128.883 Y55.413 E-.01919
G1 X128.878 Y55.594 E-.05789
G1 X128.768 Y56.181 E-.19094
G1 X128.561 Y56.626 E-.15691
;WIPE_END
G1 E-.37507 F2100
G1 Z1.35 F7800
G1 X122.469 Y53.687
G1 Z.95
G1 E.8 F2100
;TYPE:Solid infill
G1 F1200
G1 X122.469 Y56.27 E.12423
G1 X127.675 Y56.016 E.25069
G1 X127.756 Y55.826 E.00993
G1 X127.822 Y55.431 E.01926
G1 X127.841 Y54.815 E.02964
G1 X127.796 Y54.145 E.0323
G1 X127.756 Y53.939 E.01009
G1 X123.045 Y53.755 E.22676
G1 X122.66 Y53.71 E.01864
G1 X122.854 Y54.121 E.02186
G1 X122.854 Y55.865 E.08388
G1 X127.397 Y55.643 E.21876
G1 X127.449 Y55.002 E.03093
G1 X127.421 Y54.312 E.03321
G1 X123.046 Y54.141 E.21058
G1 X123.24 Y54.535 E.02112
G1 X123.24 Y55.46 E.04449
G1 X125.775 Y55.336 E.12207
;WIDTH:0.497129
G1 X125.907 Y55.306 E.00731
;WIDTH:0.544258
G1 X126.039 Y55.276 E.0081
;WIDTH:0.591388
G1 X126.171 Y55.246 E.0089
G1 X126.768 Y55.23 E.03926
;WIDTH:0.565148
G1 X126.999 Y55.219 E.01444
G1 X127.005 Y54.739 E.02998
;WIDTH:0.591388
G1 X126.168 Y54.72 E.05503
G1 X126.036 Y54.691 E.00888
;WIDTH:0.544258
G1 X125.904 Y54.662 E.00809
;WIDTH:0.497129
G1 X125.772 Y54.633 E.00729
;WIDTH:0.45
G1 X123.433 Y54.542 E.11258
G1 X123.683 Y54.995 E.02489
;WIDTH:0.564263
G1 X124.202 Y54.992 E.03236
;WIDTH:0.518758
G1 X124.72 Y54.99 E.02936
;WIDTH:0.473254
G1 X125.239 Y54.987 E.02647
;WIDTH:0.427749
G1 X125.758 Y54.985 E.02352
M106 S255
;LAYER_CHANGE
;Z:1.25
;HEIGHT:0.3
;BEFORE_LAYER_CHANGE
G92 E0.0
;1.25


;WIPE_START
G1 F6240
G1 X125.239 Y54.987 E-.16593
;WIPE_END
G1 E-.63407 F2100
G1 Z1.25 F7800
;AFTER_LAYER_CHANGE
;1.25
G1 Z1.65
G1 X128.003 Y165.069
G1 Z1.25
G1 E.8 F2100
;TYPE:Perimeter
;WIDTH:0.45
G1 F900
G1 X128.096 Y165.467 E.01966
G1 X128.124 Y166.004 E.02586
G1 X128.094 Y166.769 E.03682
G1 X127.979 Y167.378 E.02981
G1 X127.836 Y167.364 E.00691
G1 X122.978 Y167.555 E.23383
G1 X122.18 Y167.649 E.03865
G1 X122.18 Y164.489 E.15199
G1 X127.863 Y164.77 E.27367
G1 X127.977 Y165.014 E.01295
G1 X128.395 Y165.002 F7800
G1 F900
G1 X128.484 Y165.5 E.02433
G1 X128.51 Y166.016 E.02485
G1 X128.488 Y166.692 E.03253
G1 X128.407 Y167.255 E.02736
G1 X128.29 Y167.66 E.02028
G1 X128.183 Y167.827 E.00954
G1 X127.851 Y167.749 E.0164
G1 X123.732 Y167.909 E.19826
G1 X123.023 Y167.938 E.03413
G1 X121.794 Y168.082 E.05951
G1 X121.794 Y164.084 E.19229
G1 X128.056 Y164.394 E.30155
G1 X128.182 Y164.542 E.00935
G1 X128.369 Y164.948 E.0215
G1 X128.764 Y164.886 F7800
;TYPE:External perimeter
G1 F900
G1 X128.869 Y165.476 E.02882
G1 X128.895 Y166.029 E.02663
G1 X128.87 Y166.797 E.03696
G1 X128.788 Y167.315 E.02522
G1 X128.655 Y167.785 E.02349
G1 X128.576 Y167.915 E.00732
;TYPE:Overhang perimeter
;WIDTH:0.4
;HEIGHT:0.4
G1 X128.466 Y168.096 E.01107
G1 X128.238 Y168.262 E.01473
G1 X127.865 Y168.135 E.02059
G1 X123.068 Y168.321 E.25081
G1 X121.408 Y168.516 E.08732
G1 X121.408 Y168.345 E.00893
;TYPE:External perimeter
;WIDTH:0.45
;HEIGHT:0.3
G1 X121.408 Y164.046 E.20677
;TYPE:Overhang perimeter
;WIDTH:0.4
;HEIGHT:0.4
G1 X121.408 Y163.679 E.01917
G1 X128.075 Y164.008 E.34874
G1 X128.318 Y164.085 E.01332
G1 X128.546 Y164.384 E.01964
G1 X128.58 Y164.462 E.00445
;TYPE:External perimeter
;WIDTH:0.45
;HEIGHT:0.3
