; generated by PrusaSlicer 2.7.1+linux-x64-GTK3 on 2024-02-20 at 15:17:16 UTC

; 

; external perimeters extrusion width = 0.45mm
; perimeters extrusion width = 0.45mm
; infill extrusion width = 0.45mm
; solid infill extrusion width = 0.45mm
; top infill extrusion width = 0.40mm
; first layer extrusion width = 0.42mm

M73 P0 R55
M201 X9000 Y9000 Z500 E10000 ; sets maximum accelerations, mm/sec^2
M203 X500 Y500 Z12 E120 ; sets maximum feedrates, mm / sec
M204 S2000 T1500 ; sets acceleration (S) and retract acceleration (R), mm/sec^2
M205 X10.00 Y10.00 Z0.20 E2.50 ; sets the jerk limits, mm/sec
M205 S0 T0 ; sets the minimum extruding and travel feed rate, mm/sec

; printing object Bittle_Cover.stl id:0 copy 0
; stop printing object Bittle_Cover.stl id:0 copy 0

;TYPE:Custom
M862.3 P "MK2S" ; printer model check
M862.1 P0.4 ; nozzle diameter check
M115 U3.2.3 ; tell printer latest fw version
G90 ; use absolute coordinates
M83 ; extruder relative mode
M204 S2000 T1500 ; MK2 firmware only supports the old M204 format
M104 S215 ; set extruder temp
M140 S60 ; set bed temp
M190 S60 ; wait for bed temp
M109 S215 ; wait for extruder temp
G28 W ; home all without mesh bed level
G80 ; mesh bed leveling
G1 Z0.2 F720
G1 Y-2 F1000 ; go outside print area
G92 E0
G1 X60 E9 F1000 ; intro line
G1 X100 E12.5 F1000 ; intro line
G92 E0
G21 ; set units to millimeters
G90 ; use absolute coordinates
M83 ; use relative distances for extrusion

M900 K0.05 ; Filament gcode LA 1.5
M900 K30 ; Filament gcode LA 1.0




M107
;LAYER_CHANGE
;Z:0.2
;HEIGHT:0.2
;BEFORE_LAYER_CHANGE
G92 E0.0
;0.2


G1 E-.8 F2100
G1 Z.2 F720
;AFTER_LAYER_CHANGE
;0.2
G1 X107.71 Y95.577 F10800
G1 Z.2 F720
M73 P0 R54
G1 E.8 F2100
M204 S800
;TYPE:Skirt/Brim
;WIDTH:0.42
G1 F1200
G1 X108.442 Y94.816 E.03311
G1 X110.165 Y94.087 E.05866
G1 X133.632 Y94.182 E.7358
G1 X134.449 Y94.309 E.02592
G1 X135.064 Y94.596 E.02128
G1 X135.554 Y94.992 E.01975
G1 X135.999 Y95.6 E.02362
G1 X142.795 Y109.455 E.48386
G1 X142.968 Y109.931 E.01588
G1 X143.892 Y113.694 E.12149
G1 X144.72 Y118.579 E.15535
G1 X144.897 Y120.67 E.0658
G1 X144.875 Y122.337 E.05227
G1 X144.594 Y124.449 E.0668
G1 X144.141 Y125.898 E.0476
G1 X143.44 Y127.144 E.04483
G1 X142.694 Y128.013 E.03591
G1 X141.689 Y128.813 E.04028
G1 X140.707 Y129.358 E.03521
G1 X139.386 Y129.875 E.04448
G1 X128.71 Y132.976 E.34857
G1 X122.199 Y134.152 E.20745
G1 X116.851 Y134.763 E.16877
G1 X115.203 Y134.773 E.05167
G1 X113.726 Y134.652 E.04647
G1 X112.107 Y134.383 E.05146
G1 X110.444 Y133.927 E.05407
G1 X108.887 Y133.265 E.05305
G1 X107.481 Y132.419 E.05145
G1 X106.394 Y131.544 E.04375
G1 X105.261 Y130.334 E.05197
G1 X104.535 Y129.316 E.0392
G1 X103.771 Y127.871 E.05125
G1 X103.177 Y126.252 E.05407
G1 X102.855 Y124.979 E.04117
G1 X102.564 Y122.89 E.06613
G1 X102.519 Y121.344 E.04849
G1 X102.71 Y119.22 E.06687
G1 X106.438 Y99.715 E.62264
G1 X107.103 Y96.711 E.09647
G1 X107.682 Y95.63 E.03845
M204 S1000
;WIPE_START
G1 F8640
G1 X107.71 Y95.577 E-.01384
G1 X108.442 Y94.816 E-.24381
G1 X110.165 Y94.087 E-.43199
G1 X110.643 Y94.089 E-.11036
;WIPE_END
G1 Z.6 F720
G1 X110.255 Y113.85 F10800
G1 Z.2 F720
G1 E.8 F2100
M204 S800
G1 F1200
G1 X111.678 Y113.839 E.04462
G1 X112.384 Y114.007 E.02275
G1 X129.269 Y121.189 E.57532
G1 X130.026 Y121.759 E.02971
G1 X130.667 Y122.482 E.0303
G1 X131.351 Y123.879 E.04877
G1 X131.564 Y125.018 E.03633
G1 X131.509 Y126.089 E.03362
G1 X131.185 Y127.208 E.03653
G1 X130.659 Y128.121 E.03304
G1 X129.306 Y129.573 E.06223
G1 X127.549 Y130.491 E.06216
G1 X121.791 Y131.52 E.1834
G1 X117.408 Y132.056 E.13845
G1 X114.916 Y132.091 E.07814
G1 X113.944 Y131.995 E.03062
G1 X112.201 Y131.672 E.05558
G1 X111.358 Y131.425 E.02754
G1 X110.16 Y130.924 E.04071
G1 X108.719 Y130.021 E.05332
G1 X107.876 Y129.271 E.03538
G1 X106.913 Y128.087 E.04785
G1 X106.413 Y127.232 E.03106
G1 X105.893 Y125.993 E.04213
G1 X105.519 Y124.705 E.04205
G1 X105.216 Y122.626 E.06587
G1 X105.185 Y121.252 E.04309
G1 X105.29 Y119.968 E.04039
G1 X105.46 Y119.043 E.02949
G1 X105.92 Y117.484 E.05096
G1 X106.663 Y116.202 E.04646
G1 X108.478 Y114.498 E.07806
G1 X109.345 Y114.088 E.03007
G1 X110.197 Y113.865 E.02761
M204 S1000
G1 X110.291 Y114.23 F10800
M204 S800
G1 F1200
G1 X110.327 Y114.221 E.00116
G1 X111.614 Y114.211 E.04035
G1 X112.252 Y114.361 E.02055
G1 X129.099 Y121.527 E.57403
G1 X129.783 Y122.047 E.02694
G1 X130.34 Y122.671 E.02623
G1 X131.001 Y124.021 E.04713
G1 X131.189 Y125.063 E.0332
G1 X131.141 Y126.005 E.02957
G1 X130.829 Y127.081 E.03513
G1 X130.367 Y127.881 E.02897
G1 X129.101 Y129.255 E.05858
G1 X127.454 Y130.125 E.0584
G1 X121.73 Y131.148 E.18232
G1 X117.373 Y131.681 E.13763
G1 X114.947 Y131.715 E.07607
G1 X113.997 Y131.621 E.02993
G1 X112.288 Y131.305 E.05449
G1 X111.485 Y131.07 E.02623
G1 X110.323 Y130.584 E.03949
G1 X108.944 Y129.718 E.05106
G1 X108.15 Y129.012 E.03331
G1 X107.222 Y127.871 E.04611
G1 X106.756 Y127.074 E.02895
G1 X106.252 Y125.878 E.04069
G1 X105.888 Y124.627 E.04085
G1 X105.592 Y122.609 E.06395
G1 X105.562 Y121.273 E.0419
G1 X105.665 Y120.008 E.03979
G1 X105.829 Y119.125 E.02816
G1 X106.259 Y117.65 E.04817
G1 X106.975 Y116.415 E.04476
G1 X108.713 Y114.795 E.0745
G1 X109.487 Y114.437 E.02674
G1 X110.233 Y114.245 E.02415
M204 S1000
G1 X110.326 Y114.61 F10800
M204 S800
G1 F1200
G1 X110.397 Y114.592 E.0023
G1 X111.551 Y114.583 E.03618
G1 X112.12 Y114.714 E.01831
G1 X128.891 Y121.842 E.57137
G1 X129.514 Y122.313 E.02449
G1 X130.042 Y122.903 E.02483
G1 X130.634 Y124.113 E.04224
G1 X130.814 Y125.108 E.0317
G1 X130.766 Y125.961 E.02679
G1 X130.474 Y126.953 E.03242
G1 X130.075 Y127.642 E.02496
G1 X128.894 Y128.938 E.05498
G1 X127.358 Y129.76 E.05462
G1 X121.67 Y130.775 E.18116
G1 X117.337 Y131.305 E.13687
G1 X114.978 Y131.339 E.07397
G1 X114.05 Y131.248 E.02924
G1 X112.375 Y130.938 E.05341
G1 X111.612 Y130.715 E.02492
G1 X110.487 Y130.244 E.03824
G1 X109.17 Y129.415 E.04879
G1 X108.424 Y128.753 E.03127
G1 X107.531 Y127.655 E.04438
G1 X107.098 Y126.916 E.02686
G1 X106.611 Y125.761 E.0393
G1 X106.257 Y124.548 E.03962
G1 X105.968 Y122.574 E.06255
G1 X105.939 Y121.275 E.04074
G1 X106.038 Y120.067 E.038
G1 X106.197 Y119.207 E.02742
G1 X106.617 Y117.771 E.04691
G1 X107.254 Y116.671 E.03986
G1 X108.899 Y115.124 E.0708
G1 X109.629 Y114.787 E.02521
G1 X110.268 Y114.625 E.02067
M204 S1000
G1 X110.36 Y114.991 F10800
M204 S800
G1 F1200
G1 X110.468 Y114.963 E.0035
G1 X111.49 Y114.956 E.03204
G1 X111.989 Y115.068 E.01604
G1 X128.682 Y122.157 E.56864
G1 X129.272 Y122.602 E.02317
G1 X129.742 Y123.134 E.02226
G1 X130.268 Y124.206 E.03744
G1 X130.439 Y125.152 E.03014
G1 X130.391 Y125.915 E.02397
G1 X130.119 Y126.822 E.02969
G1 X129.76 Y127.433 E.02222
G1 X128.638 Y128.66 E.05213
G1 X127.262 Y129.394 E.0489
G1 X121.61 Y130.403 E.18002
G1 X117.3 Y130.93 E.13614
G1 X115.009 Y130.963 E.07184
G1 X113.201 Y130.733 E.05715
G1 X111.739 Y130.359 E.04732
G1 X110.651 Y129.904 E.03698
G1 X110.024 Y129.553 E.02253
G1 X109.395 Y129.113 E.02407
G1 X108.237 Y127.978 E.05084
G1 X107.441 Y126.757 E.0457
G1 X106.97 Y125.645 E.03786
G1 X106.626 Y124.469 E.03842
G1 X106.343 Y122.539 E.06116
G1 X106.316 Y121.276 E.03961
G1 X106.41 Y120.126 E.03618
G1 X106.565 Y119.289 E.02669
G1 X106.975 Y117.891 E.04568
G1 X107.533 Y116.925 E.03498
G1 X109.086 Y115.453 E.06709
G1 X109.739 Y115.148 E.0226
G1 X110.302 Y115.005 E.01821
M204 S1000
G1 X110.393 Y115.37 F10800
M204 S800
G1 F1200
G1 X110.537 Y115.335 E.00465
G1 X111.43 Y115.329 E.028
G1 X111.858 Y115.422 E.01373
G1 X128.475 Y122.473 E.56598
G1 X129.003 Y122.867 E.02066
G1 X129.443 Y123.365 E.02084
G1 X129.902 Y124.299 E.03263
G1 X130.064 Y125.195 E.02855
G1 X130.017 Y125.866 E.02109
G1 X129.766 Y126.689 E.02698
G1 X129.446 Y127.224 E.01955
G1 X128.43 Y128.344 E.04741
G1 X127.166 Y129.028 E.04506
G1 X121.549 Y130.031 E.1789
G1 X117.264 Y130.554 E.13535
G1 X115.029 Y130.587 E.07008
G1 X113.276 Y130.364 E.05541
G1 X111.866 Y130.004 E.04563
G1 X110.232 Y129.239 E.05657
G1 X109.637 Y128.823 E.02276
G1 X108.535 Y127.747 E.04829
G1 X107.772 Y126.577 E.0438
G1 X107.321 Y125.508 E.03638
G1 X106.995 Y124.39 E.03651
G1 X106.719 Y122.504 E.05976
G1 X106.693 Y121.278 E.03845
G1 X106.785 Y120.167 E.03495
G1 X106.933 Y119.372 E.02535
G1 X107.334 Y118.011 E.04449
G1 X107.814 Y117.179 E.03012
G1 X109.274 Y115.781 E.06338
G1 X109.882 Y115.498 E.02103
G1 X110.335 Y115.385 E.01464
M204 S1000
G1 X110.424 Y115.75 F10800
M204 S800
G1 F1200
G1 X110.604 Y115.706 E.00581
G1 X111.373 Y115.702 E.02411
G1 X111.728 Y115.777 E.01138
G1 X128.268 Y122.788 E.56327
G1 X128.761 Y123.157 E.01931
G1 X129.143 Y123.594 E.0182
G1 X129.535 Y124.392 E.02788
G1 X129.688 Y125.238 E.02696
G1 X129.643 Y125.814 E.01812
G1 X129.413 Y126.554 E.0243
G1 X129.134 Y127.012 E.01681
G1 X128.219 Y128.029 E.04289
G1 X127.069 Y128.662 E.04116
G1 X121.489 Y129.659 E.17773
G1 X117.227 Y130.179 E.13462
G1 X115.049 Y130.21 E.0683
G1 X113.351 Y129.994 E.05367
M73 P1 R54
G1 X111.993 Y129.649 E.04393
G1 X110.439 Y128.924 E.05377
G1 X109.215 Y127.944 E.04916
G1 X108.481 Y127.041 E.03649
G1 X108.104 Y126.398 E.02337
G1 X107.673 Y125.372 E.03489
G1 X107.363 Y124.311 E.03466
G1 X107.095 Y122.47 E.05833
G1 X107.071 Y121.281 E.03729
G1 X107.301 Y119.456 E.05767
G1 X107.692 Y118.131 E.04332
G1 X108.095 Y117.431 E.02533
G1 X109.463 Y116.11 E.05963
G1 X110.024 Y115.848 E.01941
G1 X110.365 Y115.764 E.01101
M204 S1000
G1 X110.455 Y116.131 F10800
M204 S800
G1 F1200
G1 X110.67 Y116.078 E.00694
G1 X111.352 Y116.079 E.02138
G1 X128.062 Y123.105 E.56836
G1 X128.491 Y123.421 E.01671
G1 X128.843 Y123.824 E.01678
G1 X129.169 Y124.485 E.02311
G1 X129.312 Y125.279 E.0253
G1 X129.269 Y125.759 E.01511
G1 X129.061 Y126.416 E.02161
G1 X128.823 Y126.799 E.01414
G1 X128.007 Y127.717 E.03851
G1 X126.97 Y128.297 E.03725
G1 X121.429 Y129.286 E.17648
G1 X117.189 Y129.803 E.13393
G1 X115.069 Y129.834 E.06648
G1 X113.414 Y129.622 E.05232
G1 X112.119 Y129.294 E.04189
G1 X110.646 Y128.608 E.05095
G1 X109.489 Y127.685 E.04641
G1 X108.79 Y126.825 E.03475
G1 X108.447 Y126.24 E.02126
G1 X108.032 Y125.256 E.03348
G1 X107.732 Y124.231 E.03349
G1 X107.47 Y122.435 E.05691
G1 X107.447 Y121.302 E.03553
G1 X107.669 Y119.541 E.05565
G1 X108.05 Y118.251 E.04217
G1 X108.377 Y117.682 E.02058
G1 X109.653 Y116.436 E.05592
G1 X110.132 Y116.209 E.01662
G1 X110.396 Y116.145 E.00852
M204 S1000
G1 X110.529 Y116.522 F10800
M204 S800
G1 F1200
G1 X110.734 Y116.451 E.0068
G1 X111.467 Y116.485 E.02301
G1 X127.857 Y123.422 E.55803
G1 X128.249 Y123.711 E.01527
G1 X128.541 Y124.051 E.01405
G1 X128.803 Y124.581 E.01854
G1 X128.935 Y125.275 E.02215
G1 X128.903 Y125.669 E.01239
G1 X128.727 Y126.24 E.01873
G1 X128.529 Y126.561 E.01183
G1 X127.746 Y127.442 E.03696
G1 X126.873 Y127.931 E.03137
G1 X121.368 Y128.914 E.17534
G1 X117.151 Y129.428 E.1332
G1 X115.701 Y129.481 E.04549
G1 X113.478 Y129.25 E.07008
G1 X112.246 Y128.939 E.03984
G1 X111.307 Y128.546 E.03192
G1 X110.361 Y127.954 E.03499
G1 X109.763 Y127.425 E.02503
G1 X109.1 Y126.609 E.03297
G1 X108.789 Y126.081 E.01921
G1 X108.391 Y125.139 E.03206
G1 X108.101 Y124.151 E.03228
G1 X107.846 Y122.4 E.05548
G1 X107.824 Y121.324 E.03374
G1 X107.91 Y120.291 E.0325
G1 X108.408 Y118.373 E.06213
G1 X108.689 Y117.895 E.01739
G1 X109.843 Y116.763 E.05068
G1 X110.472 Y116.542 E.0209
M204 S1000
G1 X110.595 Y116.894 F10800
M204 S800
G1 F1200
G1 X110.797 Y116.823 E.00671
G1 X111.303 Y116.832 E.01587
G1 X127.654 Y123.741 E.55656
G1 X128.24 Y124.279 E.02494
G1 X128.439 Y124.68 E.01404
G1 X128.557 Y125.275 E.01902
G1 X128.391 Y126.067 E.02537
G1 X127.485 Y127.168 E.04471
G1 X126.776 Y127.565 E.02548
G1 X121.308 Y128.542 E.17416
G1 X117.112 Y129.053 E.13253
G1 X115.702 Y129.104 E.04424
G1 X113.542 Y128.879 E.06809
G1 X112.372 Y128.583 E.03784
G1 X111.471 Y128.206 E.03062
G1 X110.602 Y127.663 E.03213
G1 X110.036 Y127.165 E.02364
G1 X109.409 Y126.393 E.03118
G1 X109.131 Y125.922 E.01715
G1 X108.749 Y125.022 E.03066
G1 X108.469 Y124.071 E.03108
G1 X108.221 Y122.365 E.05405
G1 X108.2 Y121.346 E.03196
G1 X108.404 Y119.712 E.05163
G1 X108.766 Y118.496 E.03978
G1 X108.999 Y118.111 E.01411
G1 X110.036 Y117.089 E.04565
G1 X110.538 Y116.913 E.01668
M204 S1000
G1 X110.661 Y117.264 F10800
M204 S800
G1 F1200
G1 X110.854 Y117.196 E.00642
G1 X111.238 Y117.207 E.01204
G1 X127.486 Y124.079 E.55314
G1 X127.937 Y124.503 E.01941
G1 X128.075 Y124.782 E.00976
G1 X128.179 Y125.28 E.01595
G1 X128.053 Y125.898 E.01978
G1 X127.224 Y126.894 E.04063
G1 X126.678 Y127.2 E.01962
G1 X121.26 Y128.168 E.17257
G1 X117.073 Y128.677 E.13225
G1 X115.712 Y128.727 E.0427
G1 X114.409 Y128.633 E.04096
G1 X113.008 Y128.376 E.04466
G1 X111.649 Y127.874 E.04542
G1 X110.826 Y127.36 E.03042
G1 X110.295 Y126.891 E.02221
G1 X109.473 Y125.763 E.04376
G1 X109.108 Y124.905 E.02924
G1 X108.838 Y123.991 E.02988
G1 X108.597 Y122.331 E.05259
G1 X108.578 Y121.348 E.03083
G1 X108.66 Y120.375 E.03062
G1 X109.123 Y118.622 E.05685
G1 X109.306 Y118.331 E.01078
G1 X110.229 Y117.414 E.04079
G1 X110.604 Y117.284 E.01244
M204 S1000
G1 X110.724 Y117.634 F10800
M204 S800
G1 F1200
G1 X110.911 Y117.57 E.0062
G1 X111.187 Y117.582 E.00866
G1 X127.318 Y124.417 E.54931
G1 X127.712 Y124.886 E.01921
G1 X127.802 Y125.292 E.01304
G1 X127.713 Y125.735 E.01417
G1 X126.963 Y126.62 E.03637
G1 X126.581 Y126.834 E.01373
G1 X121.212 Y127.794 E.17101
G1 X117.032 Y128.302 E.13203
G1 X115.721 Y128.35 E.04113
G1 X114.452 Y128.258 E.03989
G1 X113.096 Y128.009 E.04323
G1 X111.826 Y127.541 E.04244
G1 X111.05 Y127.056 E.02869
G1 X110.554 Y126.616 E.02079
G1 X109.805 Y125.582 E.04003
G1 X109.459 Y124.768 E.02773
G1 X109.202 Y123.894 E.02856
G1 X108.974 Y122.313 E.05008
G1 X109.032 Y120.435 E.05891
G1 X109.46 Y118.792 E.05323
G1 X110.427 Y117.736 E.04489
G1 X110.667 Y117.654 E.00795
M204 S1000
G1 X110.787 Y118.004 F10800
M204 S800
G1 F1200
G1 X110.959 Y117.945 E.0057
G1 X111.129 Y117.956 E.00534
G1 X127.15 Y124.756 E.5457
G1 X127.351 Y124.994 E.00977
G1 X127.425 Y125.315 E.01033
G1 X127.368 Y125.582 E.00856
G1 X126.703 Y126.346 E.03176
G1 X126.484 Y126.468 E.00786
G1 X121.151 Y127.421 E.16986
G1 X116.991 Y127.927 E.1314
G1 X115.73 Y127.973 E.03956
G1 X114.504 Y127.885 E.03854
G1 X113.195 Y127.645 E.04173
G1 X112.002 Y127.207 E.03985
G1 X111.275 Y126.753 E.02687
G1 X110.814 Y126.343 E.01934
G1 X110.136 Y125.403 E.03634
G1 X109.567 Y123.796 E.05345
G1 X109.351 Y122.296 E.04752
G1 X109.405 Y120.496 E.05646
G1 X109.8 Y118.956 E.04985
G1 X110.625 Y118.059 E.03821
G1 X110.73 Y118.023 E.00348
M204 S1000
G1 X110.835 Y118.372 F10800
M204 S800
G1 F1200
G1 X111.06 Y118.326 E.0072
G1 X126.94 Y125.076 E.54102
G1 X127.019 Y125.422 E.01113
G1 X126.386 Y126.103 E.02915
G1 X121.091 Y127.049 E.16865
G1 X116.949 Y127.552 E.13082
G1 X115.74 Y127.596 E.03793
G1 X114.557 Y127.511 E.03719
G1 X113.294 Y127.281 E.04025
G1 X112.5 Y127.02 E.02621
G1 X111.499 Y126.45 E.03612
G1 X111.074 Y126.07 E.01788
G1 X110.651 Y125.537 E.02134
G1 X110.163 Y124.496 E.03605
G1 X109.84 Y123.217 E.04136
G1 X109.709 Y121.374 E.05793
G1 X109.87 Y120.07 E.0412
G1 X110.169 Y119.065 E.03288
G1 X110.794 Y118.416 E.02825
M204 S1000
;WIPE_START
G1 F8640
G1 X110.835 Y118.372 E-.01389
G1 X111.06 Y118.326 E-.05303
G1 X113.982 Y119.568 E-.73308
;WIPE_END
G1 Z.6 F720
G1 X114.894 Y113.656 F10800
G1 Z.2 F720
G1 E.8 F2100
M204 S800
G1 F1200
G1 X113.638 Y112.553 E.05241
G1 X112.813 Y111.67 E.03789
G1 X112.116 Y110.617 E.03959
G1 X111.663 Y109.478 E.03843
G1 X111.441 Y108.214 E.04024
G1 X111.306 Y104.256 E.12417
G1 X111.528 Y103.088 E.03728
G1 X112.021 Y102.039 E.03634
G1 X113.056 Y100.879 E.04874
G1 X114.391 Y100.088 E.04865
G1 X115.479 Y99.816 E.03516
G1 X116.779 Y99.81 E.04076
G1 X117.673 Y100.036 E.02891
G1 X118.908 Y100.57 E.04219
G1 X119.765 Y100.708 E.02722
G1 X124.287 Y102.63 E.15406
G1 X125.438 Y103.497 E.04518
G1 X125.865 Y103.547 E.01348
G1 X126.82 Y103.889 E.03181
G1 X128.43 Y104.63 E.05557
G1 X129.329 Y105.305 E.03525
G1 X129.541 Y105.546 E.01006
G1 X130.141 Y105.508 E.01885
G1 X131.755 Y105.84 E.05167
G1 X133.108 Y106.413 E.04607
G1 X134.278 Y107.239 E.04491
G1 X134.978 Y108.061 E.03385
G1 X135.5 Y109.094 E.03629
G1 X135.772 Y110.379 E.04118
