; generated by PrusaSlicer 2.7.1+linux-x64-GTK3 on 2024-02-20 at 15:13:32 UTC

; 

; external perimeters extrusion width = 0.45mm
; perimeters extrusion width = 0.45mm
; infill extrusion width = 0.45mm
; solid infill extrusion width = 0.45mm
; top infill extrusion width = 0.40mm
; first layer extrusion width = 0.42mm

M73 P0 R65
M201 X9000 Y9000 Z500 E10000 ; sets maximum accelerations, mm/sec^2
M203 X500 Y500 Z12 E120 ; sets maximum feedrates, mm / sec
M204 S2000 T1500 ; sets acceleration (S) and retract acceleration (R), mm/sec^2
M205 X10.00 Y10.00 Z0.20 E2.50 ; sets the jerk limits, mm/sec
M205 S0 T0 ; sets the minimum extruding and travel feed rate, mm/sec

; printing object Bittle_BatteryCase.stl id:0 copy 0
; stop printing object Bittle_BatteryCase.stl id:0 copy 0

;TYPE:Custom
M862.3 P "MK2S" ; printer model check
M862.1 P0.4 ; nozzle diameter check
M115 U3.2.3 ; tell printer latest fw version
G90 ; use absolute coordinates
M83 ; extruder relative mode
M204 S2000 T1500 ; MK2 firmware only supports the old M204 format
M104 S215 ; set extruder temp
M140 S60 ; set bed temp
M190 S60 ; wait for bed temp
M109 S215 ; wait for extruder temp
G28 W ; home all without mesh bed level
G80 ; mesh bed leveling
G1 Z0.2 F720
G1 Y-2 F1000 ; go outside print area
G92 E0
G1 X60 E9 F1000 ; intro line
G1 X100 E12.5 F1000 ; intro line
G92 E0
G21 ; set units to millimeters
G90 ; use absolute coordinates
M83 ; use relative distances for extrusion

M900 K0.05 ; Filament gcode LA 1.5
M900 K30 ; Filament gcode LA 1.0




M107
;LAYER_CHANGE
;Z:0.2
;HEIGHT:0.2
;BEFORE_LAYER_CHANGE
G92 E0.0
;0.2


G1 E-.8 F2100
G1 Z.2 F720
;AFTER_LAYER_CHANGE
;0.2
G1 X104.641 Y63.266 F10800
G1 Z.2 F720
G1 E.8 F2100
M204 S800
;TYPE:Skirt/Brim
;WIDTH:0.42
G1 F1200
G1 X105.391 Y62.157 E.04198
G1 X106.383 Y61.033 E.047
G1 X107.383 Y60.153 E.04177
G1 X108.629 Y59.319 E.04701
G1 X109.852 Y58.732 E.04253
G1 X111.229 Y58.286 E.04538
G1 X112.523 Y58.053 E.04122
G1 X113.827 Y57.973 E.04096
G1 X135.992 Y57.971 E.69497
G1 X138.052 Y58.135 E.06479
G1 X139.919 Y58.643 E.06067
G1 X140.903 Y59.07 E.03363
G1 X141.73 Y59.533 E.02972
G1 X143.315 Y60.745 E.06256
G1 X144.678 Y62.246 E.06357
G1 X145.737 Y63.934 E.06248
G1 X146.584 Y65.976 E.06931
G1 X147.103 Y68.235 E.07267
G1 X147.236 Y69.525 E.04066
G1 X147.266 Y70.802 E.04005
G1 X146.902 Y111.986 E1.29135
G1 X146.732 Y119.944 E.24957
G1 X146.534 Y124.611 E.14646
G1 X146.165 Y125.784 E.03856
G1 X141.56 Y133.034 E.2693
G1 X141.17 Y133.508 E.01925
G1 X140.686 Y133.877 E.01908
G1 X139.731 Y134.234 E.03197
G1 X138.983 Y134.303 E.02355
G1 X111.017 Y134.303 E.87685
G1 X110.431 Y134.262 E.01842
G1 X109.825 Y134.114 E.01956
G1 X109.362 Y133.905 E.01593
G1 X108.885 Y133.56 E.01846
G1 X108.44 Y133.034 E.0216
G1 X103.835 Y125.784 E.2693
G1 X103.466 Y124.61 E.03859
G1 X103.26 Y119.71 E.15377
G1 X103.098 Y111.963 E.24295
G1 X102.734 Y70.731 E1.29285
G1 X102.898 Y68.224 E.07877
G1 X103.141 Y66.977 E.03983
G1 X103.466 Y65.824 E.03756
G1 X103.992 Y64.496 E.04479
G1 X104.613 Y63.319 E.04173
M204 S1000
;WIPE_START
G1 F8640
G1 X104.641 Y63.266 E-.01384
G1 X105.391 Y62.157 E-.30913
G1 X106.383 Y61.033 E-.34616
G1 X106.808 Y60.659 E-.13087
;WIPE_END
G1 Z.6 F720
G1 X106.842 Y64.773 F10800
G1 Z.2 F720
G1 E.8 F2100
M204 S800
G1 F1200
G1 X107.471 Y63.821 E.03578
G1 X108.252 Y62.932 E.0371
G1 X109.046 Y62.236 E.03311
G1 X109.959 Y61.628 E.03439
G1 X110.976 Y61.153 E.03519
G1 X112.033 Y60.834 E.03462
G1 X112.992 Y60.683 E.03044
G1 X113.964 Y60.635 E.03051
G1 X136.799 Y60.664 E.71598
G1 X138.482 Y60.968 E.05362
G1 X139.344 Y61.282 E.02876
G1 X140.731 Y62.069 E.05
G1 X141.969 Y63.159 E.05172
G1 X142.66 Y63.999 E.0341
G1 X143.299 Y65.023 E.03785
G1 X143.671 Y65.795 E.02687
G1 X144.276 Y67.628 E.06052
G1 X144.499 Y68.854 E.03907
G1 X144.595 Y70.109 E.03946
G1 X144.54 Y80.226 E.31722
G1 X144.239 Y111.935 E.99426
G1 X144.069 Y119.873 E.24895
G1 X143.923 Y122.854 E.09358
G1 X143.565 Y124.173 E.04285
G1 X142.861 Y125.331 E.04249
G1 X141.919 Y126.222 E.04065
G1 X140.965 Y126.742 E.03407
G1 X139.538 Y127.098 E.04611
G1 X110.459 Y127.098 E.91175
G1 X109.016 Y126.736 E.04665
M73 P0 R64
G1 X107.97 Y126.131 E.03789
G1 X107.046 Y125.223 E.04062
G1 X106.377 Y124.034 E.04278
G1 X106.074 Y122.78 E.04045
G1 X105.925 Y119.69 E.097
G1 X105.761 Y111.936 E.24318
G1 X105.397 Y70.731 E1.292
G1 X105.441 Y69.44 E.0405
G1 X105.604 Y68.189 E.03956
G1 X105.896 Y66.98 E.039
G1 X106.337 Y65.777 E.04017
G1 X106.815 Y64.827 E.03334
M204 S1000
G1 X107.151 Y64.997 F10800
M204 S800
G1 F1200
G1 X107.173 Y64.953 E.00154
G1 X107.778 Y64.041 E.03431
G1 X108.527 Y63.191 E.03552
G1 X109.285 Y62.527 E.0316
G1 X110.131 Y61.963 E.03188
G1 X111.124 Y61.5 E.03435
G1 X112.104 Y61.205 E.03209
G1 X113.041 Y61.057 E.02974
G1 X113.974 Y61.012 E.02929
G1 X136.085 Y61.012 E.69327
G1 X137.528 Y61.13 E.0454
G1 X138.364 Y61.327 E.02693
G1 X139.186 Y61.625 E.02741
G1 X140.505 Y62.371 E.04751
G1 X141.699 Y63.423 E.0499
G1 X142.347 Y64.209 E.03194
G1 X142.973 Y65.213 E.0371
G1 X143.328 Y65.952 E.02571
G1 X143.911 Y67.722 E.05843
G1 X144.124 Y68.892 E.03729
G1 X144.218 Y70.115 E.03846
G1 X144.163 Y80.224 E.31697
G1 X143.862 Y111.929 E.99413
G1 X143.692 Y119.862 E.24879
G1 X143.547 Y122.819 E.09283
G1 X143.208 Y124.046 E.03991
G1 X142.554 Y125.111 E.03919
G1 X141.679 Y125.93 E.03758
G1 X140.849 Y126.382 E.02963
G1 X139.514 Y126.721 E.04319
G1 X110.483 Y126.721 E.91025
G1 X109.136 Y126.377 E.04359
G1 X108.182 Y125.818 E.03467
G1 X107.331 Y124.974 E.03758
G1 X106.72 Y123.874 E.03945
G1 X106.45 Y122.748 E.03631
G1 X106.302 Y119.67 E.09662
G1 X106.138 Y111.931 E.24271
G1 X105.775 Y70.733 E1.29178
G1 X105.816 Y69.479 E.03934
G1 X105.973 Y68.267 E.03832
G1 X106.254 Y67.099 E.03767
G1 X106.687 Y65.917 E.03947
G1 X107.124 Y65.05 E.03044
M204 S1000
G1 X107.46 Y65.219 F10800
M204 S800
G1 F1200
G1 X107.494 Y65.152 E.00236
G1 X108.085 Y64.26 E.03355
G1 X108.801 Y63.45 E.0339
G1 X109.524 Y62.82 E.03007
G1 X110.304 Y62.299 E.02941
G1 X111.271 Y61.848 E.03346
G1 X112.176 Y61.575 E.02964
G1 X113.089 Y61.431 E.02898
G1 X136.725 Y61.415 E.74109
G1 X138.246 Y61.685 E.04844
M73 P1 R64
G1 X139.029 Y61.968 E.0261
G1 X140.279 Y62.673 E.045
G1 X141.429 Y63.686 E.04805
G1 X142.033 Y64.42 E.0298
G1 X142.648 Y65.404 E.03638
G1 X142.984 Y66.107 E.02443
G1 X143.546 Y67.816 E.05641
G1 X143.749 Y68.931 E.03553
G1 X143.841 Y70.121 E.03742
G1 X143.786 Y80.222 E.31671
G1 X143.485 Y111.924 E.99404
G1 X143.315 Y119.85 E.24857
G1 X143.171 Y122.783 E.09207
G1 X142.853 Y123.917 E.03693
G1 X142.247 Y124.891 E.03597
G1 X141.476 Y125.612 E.0331
G1 X140.731 Y126.024 E.02669
G1 X139.49 Y126.344 E.04018
G1 X110.506 Y126.344 E.90877
G1 X109.302 Y126.038 E.03895
G1 X108.43 Y125.533 E.03159
G1 X107.617 Y124.726 E.03592
G1 X107.063 Y123.716 E.03612
G1 X106.827 Y122.717 E.03219
G1 X106.678 Y119.65 E.09628
G1 X106.515 Y111.926 E.24223
G1 X106.152 Y70.734 E1.2916
G1 X106.192 Y69.501 E.03868
G1 X106.343 Y68.345 E.03655
G1 X106.611 Y67.219 E.03629
G1 X107.038 Y66.057 E.03882
G1 X107.433 Y65.273 E.02753
M204 S1000
G1 X107.768 Y65.442 F10800
M204 S800
G1 F1200
G1 X107.814 Y65.351 E.0032
G1 X108.392 Y64.479 E.0328
G1 X109.058 Y63.726 E.03152
G1 X109.743 Y63.126 E.02855
G1 X110.501 Y62.621 E.02856
G1 X111.393 Y62.205 E.03086
G1 X112.247 Y61.946 E.02798
G1 X113.138 Y61.805 E.02828
G1 X136.069 Y61.766 E.71899
G1 X137.398 Y61.873 E.0418
G1 X138.872 Y62.311 E.04821
G1 X140.053 Y62.974 E.04247
G1 X141.145 Y63.935 E.04561
G1 X141.72 Y64.63 E.02828
G1 X142.635 Y66.25 E.05834
G1 X143.176 Y67.893 E.05424
G1 X143.374 Y68.971 E.03437
G1 X143.464 Y70.126 E.03632
G1 X143.409 Y80.218 E.31643
G1 X143.108 Y111.919 E.99401
G1 X142.938 Y119.838 E.24835
G1 X142.795 Y122.747 E.09132
G1 X142.498 Y123.788 E.03394
G1 X141.972 Y124.632 E.03118
G1 X141.236 Y125.32 E.03159
G1 X140.572 Y125.681 E.0237
G1 X139.466 Y125.967 E.03582
G1 X110.53 Y125.967 E.90727
G1 X109.422 Y125.68 E.03589
G1 X108.642 Y125.221 E.02838
G1 X107.904 Y124.48 E.03279
G1 X107.407 Y123.559 E.03281
G1 X107.203 Y122.687 E.02808
G1 X107.055 Y119.631 E.09593
G1 X106.892 Y111.921 E.2418
G1 X106.529 Y70.735 E1.29141
G1 X106.568 Y69.54 E.03749
G1 X106.712 Y68.423 E.03531
G1 X106.976 Y67.317 E.03565
G1 X107.388 Y66.198 E.03739
G1 X107.741 Y65.496 E.02464
M204 S1000
G1 X108.077 Y65.665 F10800
M204 S800
G1 F1200
G1 X108.135 Y65.55 E.00404
G1 X108.699 Y64.698 E.03204
G1 X109.316 Y64.002 E.02916
G1 X109.982 Y63.418 E.02777
G1 X110.698 Y62.943 E.02694
G1 X111.515 Y62.562 E.02826
G1 X112.344 Y62.31 E.02717
G1 X113.185 Y62.18 E.02668
G1 X136.653 Y62.165 E.73582
G1 X138.031 Y62.408 E.04387
G1 X138.716 Y62.654 E.02282
G1 X139.842 Y63.287 E.0405
G1 X140.862 Y64.184 E.04259
G1 X141.407 Y64.841 E.02676
G1 X142.286 Y66.393 E.05592
G1 X142.807 Y67.97 E.05207
G1 X142.998 Y69.01 E.03315
G1 X143.087 Y70.132 E.03529
G1 X143.032 Y80.215 E.31615
G1 X142.731 Y111.913 E.99391
G1 X142.561 Y119.827 E.2482
G1 X142.419 Y122.711 E.09054
G1 X142.143 Y123.657 E.0309
G1 X141.696 Y124.374 E.02649
G1 X140.997 Y125.027 E.02999
G1 X140.415 Y125.338 E.02069
G1 X139.442 Y125.59 E.03151
G1 X110.555 Y125.59 E.90573
G1 X109.546 Y125.322 E.03273
G1 X108.856 Y124.91 E.0252
G1 X108.222 Y124.277 E.02809
G1 X107.751 Y123.403 E.03113
G1 X107.579 Y122.656 E.02403
G1 X107.431 Y119.611 E.09559
G1 X107.27 Y111.916 E.24132
G1 X106.906 Y70.736 E1.29122
G1 X106.943 Y69.579 E.0363
G1 X107.081 Y68.501 E.03408
G1 X107.34 Y67.416 E.03498
G1 X107.738 Y66.338 E.03603
G1 X108.05 Y65.718 E.02176
M204 S1000
G1 X108.386 Y65.887 F10800
M204 S800
G1 F1200
G1 X108.455 Y65.749 E.00484
G1 X109.006 Y64.918 E.03126
G1 X109.589 Y64.261 E.02754
G1 X110.22 Y63.711 E.02625
G1 X110.894 Y63.265 E.02534
G1 X111.638 Y62.918 E.02574
G1 X112.415 Y62.681 E.02547
G1 X113.232 Y62.554 E.02592
G1 X136.054 Y62.52 E.71557
G1 X137.289 Y62.62 E.03885
G1 X138.56 Y62.998 E.04158
G1 X139.615 Y63.589 E.03792
G1 X140.579 Y64.433 E.04017
G1 X141.094 Y65.051 E.02522
G1 X141.937 Y66.536 E.05354
G1 X142.438 Y68.048 E.04994
G1 X142.623 Y69.05 E.03195
G1 X142.71 Y70.138 E.03422
G1 X142.655 Y80.212 E.31587
G1 X142.354 Y111.908 E.99385
G1 X142.184 Y119.815 E.24798
G1 X142.043 Y122.673 E.08972
G1 X141.79 Y123.525 E.02787
G1 X141.421 Y124.115 E.02182
G1 X140.759 Y124.733 E.0284
G1 X140.26 Y124.993 E.01764
G1 X139.418 Y125.213 E.02729
G1 X110.581 Y125.213 E.90416
G1 X109.67 Y124.966 E.0296
G1 X109.104 Y124.625 E.02072
G1 X108.54 Y124.072 E.02477
G1 X108.095 Y123.247 E.02939
G1 X107.956 Y122.627 E.01992
G1 X107.808 Y119.592 E.09527
G1 X107.647 Y111.911 E.24089
G1 X107.283 Y70.737 E1.29103
G1 X107.318 Y69.617 E.03513
G1 X107.45 Y68.578 E.03284
G1 X107.704 Y67.515 E.03427
G1 X108.088 Y66.479 E.03464
G1 X108.359 Y65.941 E.01889
M204 S1000
G1 X108.694 Y66.11 F10800
M204 S800
G1 F1200
G1 X108.776 Y65.948 E.00569
G1 X109.313 Y65.138 E.03047
G1 X109.863 Y64.522 E.02589
G1 X110.458 Y64.004 E.02474
G1 X111.09 Y63.588 E.02372
G1 X111.784 Y63.266 E.02399
G1 X112.511 Y63.046 E.02382
G1 X113.279 Y62.928 E.02436
G1 X136.581 Y62.916 E.73062
G1 X137.213 Y62.989 E.01995
G1 X138.421 Y63.349 E.03952
G1 X139.404 Y63.901 E.03535
G1 X140.309 Y64.697 E.03779
G1 X140.781 Y65.262 E.02308
G1 X141.593 Y66.691 E.05153
G1 X142.073 Y68.143 E.04795
G1 X142.248 Y69.09 E.0302
G1 X142.333 Y70.144 E.03315
G1 X142.278 Y80.21 E.31562
G1 X141.976 Y111.903 E.99376
G1 X141.807 Y119.804 E.24779
M73 P2 R64
G1 X141.667 Y122.635 E.08887
G1 X141.436 Y123.39 E.02476
G1 X141.144 Y123.858 E.0173
G1 X140.559 Y124.413 E.02528
G1 X140.141 Y124.635 E.01484
G1 X139.392 Y124.835 E.02431
G1 X110.607 Y124.835 E.90253
G1 X109.797 Y124.61 E.02636
G1 X109.353 Y124.341 E.01628
G1 X108.825 Y123.823 E.02319
G1 X108.457 Y123.138 E.02438
G1 X108.332 Y122.595 E.01747
G1 X108.185 Y119.581 E.09461
G1 X108.024 Y111.906 E.2407
G1 X107.66 Y70.738 E1.29084
G1 X107.819 Y68.656 E.06547
M73 P2 R63
G1 X108.068 Y67.613 E.03362
G1 X108.437 Y66.621 E.03319
G1 X108.667 Y66.163 E.01607
M204 S1000
G1 X109.018 Y66.37 F10800
M204 S800
G1 F1200
G1 X109.604 Y65.378 E.03612
G1 X110.677 Y64.311 E.04745
G1 X111.262 Y63.923 E.02201
G1 X111.907 Y63.623 E.0223
G1 X112.607 Y63.411 E.02293
G1 X113.325 Y63.303 E.02277
G1 X136.041 Y63.274 E.71224
G1 X137.138 Y63.359 E.0345
G1 X138.266 Y63.693 E.03689
G1 X139.193 Y64.214 E.03334
G1 X140.039 Y64.961 E.03539
G1 X140.469 Y65.473 E.02096
G1 X141.249 Y66.845 E.04948
G1 X141.708 Y68.237 E.04596
G1 X141.873 Y69.13 E.02847
G1 X141.956 Y70.151 E.03212
G1 X141.901 Y80.207 E.3153
G1 X141.599 Y111.897 E.99366
G1 X141.431 Y119.78 E.24722
G1 X141.291 Y122.596 E.0884
G1 X141.084 Y123.253 E.0216
G1 X140.865 Y123.603 E.01295
G1 X140.355 Y124.095 E.02222
G1 X140.018 Y124.278 E.01202
G1 X139.366 Y124.458 E.02121
G1 X110.634 Y124.458 E.90087
G1 X109.927 Y124.255 E.02306
G1 X109.601 Y124.057 E.01196
G1 X109.11 Y123.574 E.0216
G1 X108.818 Y123.027 E.01944
G1 X108.708 Y122.563 E.01495
G1 X108.562 Y119.571 E.09392
G1 X108.401 Y111.901 E.24054
G1 X108.037 Y70.739 E1.29066
G1 X108.188 Y68.733 E.06307
G1 X108.432 Y67.712 E.03291
G1 X108.787 Y66.762 E.0318
G1 X108.988 Y66.422 E.01238
M204 S1000
G1 X109.311 Y66.612 F10800
M204 S800
G1 F1200
G1 X109.895 Y65.617 E.03617
G1 X110.897 Y64.618 E.04436
G1 X112.029 Y63.98 E.04074
G1 X112.703 Y63.776 E.02208
G1 X113.37 Y63.677 E.02114
G1 X136.526 Y63.668 E.72604
G1 X137.621 Y63.86 E.03486
G1 X138.55 Y64.25 E.03159
G1 X139.374 Y64.84 E.03178
G1 X140.171 Y65.705 E.03688
G1 X140.683 Y66.526 E.03034
G1 X141.118 Y67.544 E.03471
G1 X141.501 Y69.189 E.05296
G1 X141.579 Y70.172 E.03092
G1 X141.222 Y111.892 E1.30815
G1 X141.054 Y119.769 E.24703
G1 X140.915 Y122.556 E.08749
G1 X140.734 Y123.114 E.01839
G1 X140.148 Y123.779 E.02779
G1 X139.339 Y124.081 E.02708
G1 X110.661 Y124.081 E.89918
G1 X110.097 Y123.918 E.01841
G1 X109.395 Y123.326 E.02879
G1 X109.178 Y122.914 E.0146
G1 X109.084 Y122.531 E.01237
G1 X108.939 Y119.56 E.09326
G1 X108.778 Y111.896 E.24035
G1 X108.414 Y70.741 E1.29044
G1 X108.557 Y68.81 E.06071
G1 X108.789 Y67.833 E.03148
G1 X109.129 Y66.922 E.03049
G1 X109.281 Y66.664 E.00939
M204 S1000
G1 X109.604 Y66.853 F10800
M204 S800
G1 F1200
G1 X110.187 Y65.857 E.03619
G1 X111.117 Y64.924 E.0413
G1 X112.176 Y64.328 E.0381
G1 X113.414 Y64.052 E.03977
G1 X136.029 Y64.029 E.70908
G1 X137.008 Y64.102 E.03078
G1 X137.988 Y64.394 E.03206
G1 X138.754 Y64.827 E.02759
G1 X139.474 Y65.46 E.03006
G1 X139.873 Y65.937 E.0195
G1 X140.346 Y66.697 E.02807
G1 X140.758 Y67.657 E.03276
G1 X141.128 Y69.248 E.05122
G1 X141.202 Y70.194 E.02975
G1 X140.845 Y111.887 E1.3073
G1 X140.677 Y119.757 E.24681
G1 X140.539 Y122.515 E.08658
G1 X140.384 Y122.97 E.01507
G1 X139.936 Y123.466 E.02096
G1 X139.31 Y123.704 E.021
G1 X110.69 Y123.704 E.89736
G1 X110.229 Y123.564 E.01511
G1 X109.683 Y123.08 E.02288
G1 X109.46 Y122.499 E.01951
G1 X109.316 Y119.549 E.09261
G1 X109.155 Y111.889 E.24023
G1 X108.791 Y70.742 E1.29019
G1 X108.927 Y68.887 E.05832
G1 X109.147 Y67.953 E.03009
G1 X109.471 Y67.081 E.02917
G1 X109.574 Y66.905 E.00639
M204 S1000
G1 X109.898 Y67.093 F10800
M204 S800
G1 F1200
G1 X110.478 Y66.096 E.03617
G1 X111.337 Y65.23 E.03825
G1 X112.322 Y64.676 E.03543
G1 X113.457 Y64.427 E.03643
G1 X136.485 Y64.422 E.72203
G1 X137.424 Y64.588 E.0299
G1 X138.197 Y64.917 E.02634
G1 X138.864 Y65.396 E.02575
G1 X139.576 Y66.169 E.03295
G1 X140.01 Y66.868 E.0258
G1 X140.399 Y67.771 E.03083
G1 X140.755 Y69.306 E.04941
G1 X140.826 Y70.215 E.02859
G1 X140.468 Y111.882 E1.30649
G1 X140.3 Y119.745 E.2466
G1 X140.163 Y122.471 E.08558
G1 X140.038 Y122.821 E.01165
G1 X139.718 Y123.158 E.01457
G1 X139.279 Y123.327 E.01475
G1 X110.721 Y123.327 E.89542
G1 X110.367 Y123.213 E.01166
M73 P3 R63
G1 X110.004 Y122.88 E.01545
G1 X109.837 Y122.468 E.01394
G1 X109.693 Y119.539 E.09195
G1 X109.532 Y111.884 E.24007
G1 X109.168 Y70.743 E1.29
G1 X109.296 Y68.963 E.05595
G1 X109.505 Y68.073 E.02866
G1 X109.813 Y67.239 E.02788
G1 X109.868 Y67.145 E.00341
M204 S1000
G1 X110.193 Y67.333 F10800
M204 S800
G1 F1200
G1 X110.77 Y66.336 E.03612
G1 X111.576 Y65.523 E.03589
G1 X112.466 Y65.024 E.03199
G1 X113.498 Y64.801 E.0331
G1 X136.017 Y64.783 E.70607
G1 X136.898 Y64.848 E.0277
G1 X137.707 Y65.094 E.02651
