; generated by PrusaSlicer 2.7.1+linux-x64-GTK3 on 2024-02-20 at 15:15:13 UTC

; 

; external perimeters extrusion width = 0.45mm
; perimeters extrusion width = 0.45mm
; infill extrusion width = 0.45mm
; solid infill extrusion width = 0.45mm
; top infill extrusion width = 0.40mm
; first layer extrusion width = 0.42mm

M73 P0 R55
M201 X9000 Y9000 Z500 E10000 ; sets maximum accelerations, mm/sec^2
M203 X500 Y500 Z12 E120 ; sets maximum feedrates, mm / sec
M204 S2000 T1500 ; sets acceleration (S) and retract acceleration (R), mm/sec^2
M205 X10.00 Y10.00 Z0.20 E2.50 ; sets the jerk limits, mm/sec
M205 S0 T0 ; sets the minimum extruding and travel feed rate, mm/sec

; printing object Bittle_BatteryTrack.stl id:0 copy 0
; stop printing object Bittle_BatteryTrack.stl id:0 copy 0

;TYPE:Custom
M862.3 P "MK2S" ; printer model check
M862.1 P0.4 ; nozzle diameter check
M115 U3.2.3 ; tell printer latest fw version
G90 ; use absolute coordinates
M83 ; extruder relative mode
M204 S2000 T1500 ; MK2 firmware only supports the old M204 format
M104 S215 ; set extruder temp
M140 S60 ; set bed temp
M190 S60 ; wait for bed temp
M109 S215 ; wait for extruder temp
G28 W ; home all without mesh bed level
G80 ; mesh bed leveling
G1 Z0.2 F720
G1 Y-2 F1000 ; go outside print area
G92 E0
G1 X60 E9 F1000 ; intro line
G1 X100 E12.5 F1000 ; intro line
G92 E0
G21 ; set units to millimeters
G90 ; use absolute coordinates
M83 ; use relative distances for extrusion

M900 K0.05 ; Filament gcode LA 1.5
M900 K30 ; Filament gcode LA 1.0




M107
;LAYER_CHANGE
;Z:0.2
;HEIGHT:0.2
;BEFORE_LAYER_CHANGE
G92 E0.0
;0.2


G1 E-.8 F2100
G1 Z.2 F720
;AFTER_LAYER_CHANGE
;0.2
G1 X84.145 Y67.336 F10800
G1 Z.2 F720
G1 E.8 F2100
M204 S800
;TYPE:Skirt/Brim
;WIDTH:0.42
G1 F1200
G1 X84.334 Y67.1 E.00948
G1 X84.881 Y66.552 E.02428
G1 X85.912 Y65.733 E.04128
G1 X116.798 Y44.911 E1.16792
G1 X118.701 Y43.945 E.06691
G1 X120.894 Y43.192 E.0727
G1 X123.172 Y42.763 E.07268
G1 X125.488 Y42.666 E.07268
G1 X127.794 Y42.903 E.07268
G1 X129.96 Y43.444 E.07
G1 X132.107 Y44.318 E.07268
G1 X133.433 Y45.052 E.04752
G1 X164.156 Y65.78 E1.16204
G1 X165.119 Y66.552 E.0387
G1 X165.666 Y67.1 E.02428
G1 X166.437 Y68.063 E.03868
G1 X166.969 Y68.933 E.03197
G1 X167.476 Y70.057 E.03866
G1 X167.715 Y70.793 E.02426
G1 X167.964 Y72.001 E.03867
G1 X168.042 Y73.033 E.03245
G1 X168.01 Y123.319 E1.57668
G1 X167.929 Y124.438 E.03518
G1 X167.679 Y125.64 E.03849
G1 X167.44 Y126.376 E.02426
G1 X166.934 Y127.494 E.03848
G1 X166.403 Y128.358 E.0318
G1 X165.636 Y129.316 E.03848
G1 X165.089 Y129.862 E.02423
G1 X164.13 Y130.629 E.0385
G1 X133.165 Y151.471 E1.17033
G1 X131.27 Y152.432 E.06662
G1 X129.088 Y153.181 E.07233
G1 X126.82 Y153.608 E.07236
G1 X124.6 Y153.706 E.06967
G1 X122.219 Y153.468 E.07503
G1 X120.064 Y152.93 E.06964
G1 X117.926 Y152.062 E.07235
G1 X116.605 Y151.331 E.04734
G1 X85.87 Y130.629 E1.16189
G1 X84.911 Y129.862 E.0385
G1 X84.364 Y129.316 E.02423
G1 X83.597 Y128.358 E.03848
G1 X83.066 Y127.494 E.0318
G1 X82.56 Y126.376 E.03848
G1 X82.321 Y125.64 E.02426
G1 X82.071 Y124.438 E.03849
G1 X81.992 Y123.413 E.03223
G1 X81.956 Y73.126 E1.57671
G1 X82.036 Y72.001 E.03536
G1 X82.285 Y70.793 E.03867
G1 X82.524 Y70.057 E.02426
G1 X83.031 Y68.933 E.03866
G1 X83.563 Y68.063 E.03197
G1 X84.108 Y67.383 E.02732
M204 S1000
;WIPE_START
G1 F8640
G1 X84.145 Y67.336 E-.01381
G1 X84.334 Y67.1 E-.06981
G1 X84.881 Y66.552 E-.17878
G1 X85.912 Y65.733 E-.30403
G1 X86.751 Y65.168 E-.23357
;WIPE_END
G1 Z.6 F720
G1 X86.132 Y69.124 F10800
G1 Z.2 F720
G1 E.8 F2100
M204 S800
G1 F1200
G1 X86.531 Y68.659 E.01921
G1 X87.321 Y68.001 E.03224
G1 X88.208 Y67.476 E.03232
G1 X89.131 Y67.112 E.03111
G1 X89.952 Y66.919 E.02644
G1 X90.792 Y66.837 E.02646
G1 X92.891 Y66.833 E.06581
G1 X93.285 Y65.875 E.03248
M73 P0 R54
G1 X93.811 Y65.001 E.03198
G1 X94.545 Y64.146 E.03533
G1 X95.306 Y63.512 E.03106
G1 X96.156 Y63.003 E.03106
G1 X96.952 Y62.671 E.02704
G1 X97.761 Y62.455 E.02625
G1 X98.78 Y62.339 E.03216
G1 X107.129 Y62.321 E.26178
G1 X107.448 Y62.209 E.0106
G1 X107.703 Y61.905 E.01244
G1 X113.871 Y51.266 E.38558
G1 X114.515 Y50.384 E.03424
G1 X115.77 Y49.012 E.0583
G1 X116.547 Y48.327 E.03248
G1 X118.021 Y47.284 E.05662
G1 X118.945 Y46.769 E.03317
G1 X120.715 Y46.026 E.06019
G1 X121.555 Y45.773 E.02751
G1 X123.546 Y45.401 E.06351
G1 X124.419 Y45.334 E.02745
G1 X126.441 Y45.4 E.06343
G1 X128.327 Y45.742 E.0601
G1 X129.328 Y46.041 E.03276
G1 X131.009 Y46.746 E.05715
G1 X132.804 Y47.831 E.06576
G1 X133.535 Y48.395 E.02895
G1 X134.853 Y49.645 E.05695
G1 X135.547 Y50.462 E.03361
G1 X136.557 Y51.951 E.05641
G1 X142.297 Y61.905 E.36027
G1 X142.557 Y62.21 E.01257
G1 X142.851 Y62.321 E.00985
G1 X151.114 Y62.334 E.25908
G1 X152.135 Y62.436 E.03217
G1 X153.132 Y62.701 E.03235
G1 X153.993 Y63.079 E.02948
G1 X154.782 Y63.575 E.02922
G1 X155.603 Y64.295 E.03424
G1 X156.185 Y64.995 E.02854
G1 X156.668 Y65.782 E.02895
G1 X157.107 Y66.832 E.03568
G1 X159.139 Y66.834 E.06371
G1 X160 Y66.911 E.0271
G1 X160.979 Y67.148 E.03158
G1 X161.912 Y67.536 E.03168
G1 X162.869 Y68.139 E.03547
G1 X163.528 Y68.719 E.02753
G1 X164.069 Y69.337 E.02575
G1 X164.7 Y70.348 E.03737
G1 X165.095 Y71.329 E.03316
G1 X165.325 Y72.376 E.03361
G1 X165.381 Y73.252 E.02752
G1 X165.325 Y74.692 E.04518
G1 X164.268 Y79.46 E.15313
G1 X163.705 Y82.424 E.0946
G1 X163.475 Y83.244 E.0267
G1 X163.146 Y84.009 E.02611
G1 X162.588 Y84.909 E.0332
G1 X162.023 Y85.571 E.02729
G1 X161.315 Y86.195 E.02959
G1 X160.46 Y86.74 E.03179
G1 X159.529 Y87.143 E.03181
G1 X158.571 Y87.39 E.03102
G1 X157.198 Y87.485 E.04315
G1 X157.372 Y88.247 E.02451
G1 X157.358 Y108.168 E.62461
G1 X157.2 Y108.972 E.02569
G1 X158.526 Y109.059 E.04167
G1 X159.482 Y109.298 E.0309
G1 X160.386 Y109.68 E.03077
G1 X161.208 Y110.188 E.0303
G1 X161.94 Y110.812 E.03016
G1 X162.584 Y111.559 E.03092
G1 X163.185 Y112.552 E.03639
G1 X163.672 Y113.969 E.04698
G1 X164.522 Y118.312 E.13876
G1 X165.201 Y121.216 E.09351
G1 X165.334 Y122.244 E.0325
G1 X165.346 Y123.305 E.03327
G1 X165.269 Y124.2 E.02817
G1 X165.07 Y125.071 E.02801
G1 X164.657 Y126.095 E.03462
G1 X164.096 Y127.001 E.03341
G1 X163.426 Y127.768 E.03193
G1 X162.729 Y128.354 E.02855
G1 X161.907 Y128.861 E.03028
G1 X160.939 Y129.263 E.03286
G1 X160.076 Y129.474 E.02786
G1 X159.205 Y129.562 E.02745
G1 X157.056 Y129.566 E.06738
G1 X156.648 Y130.601 E.03488
G1 X156.098 Y131.489 E.03275
G1 X155.387 Y132.297 E.03375
G1 X154.649 Y132.904 E.02996
G1 X153.844 Y133.385 E.0294
G1 X153.068 Y133.712 E.0264
G1 X152.235 Y133.938 E.02706
G1 X151.201 Y134.054 E.03262
G1 X142.867 Y134.072 E.26131
G1 X142.524 Y134.193 E.0114
G1 X142.254 Y134.512 E.0131
G1 X136.079 Y145.135 E.38526
G1 X135.447 Y146.001 E.03361
G1 X134.195 Y147.371 E.05819
M73 P1 R54
G1 X132.605 Y148.667 E.06432
G1 X131.786 Y149.192 E.0305
G1 X130.106 Y150.031 E.05888
G1 X129.166 Y150.381 E.03145
G1 X127.471 Y150.817 E.05488
G1 X126.344 Y150.98 E.0357
G1 X124.616 Y151.042 E.05422
G1 X123.462 Y150.959 E.03628
G1 X121.763 Y150.649 E.05415
G1 X119.809 Y149.996 E.0646
G1 X118.214 Y149.192 E.056
G1 X117.32 Y148.614 E.03338
G1 X115.869 Y147.432 E.05868
G1 X115.186 Y146.742 E.03044
G1 X113.948 Y145.175 E.06262
G1 X107.746 Y134.512 E.38677
G1 X107.474 Y134.191 E.01319
G1 X107.128 Y134.072 E.01147
G1 X98.887 Y134.059 E.25839
G1 X97.864 Y133.956 E.03224
G1 X96.895 Y133.7 E.03142
G1 X96.107 Y133.36 E.02691
G1 X95.35 Y132.903 E.02773
G1 X94.505 Y132.191 E.03465
G1 X93.881 Y131.461 E.03011
G1 X93.37 Y130.636 E.03043
G1 X92.922 Y129.567 E.03634
G1 X90.861 Y129.565 E.06462
G1 X90.007 Y129.488 E.02689
G1 X89.068 Y129.264 E.03027
G1 X88.143 Y128.887 E.03132
G1 X87.324 Y128.393 E.02999
G1 X86.61 Y127.803 E.02904
G1 X85.894 Y126.987 E.03404
G1 X85.336 Y126.08 E.03339
G1 X84.997 Y125.278 E.0273
G1 X84.77 Y124.425 E.02768
G1 X84.665 Y123.546 E.02776
G1 X84.653 Y122.475 E.03358
G1 X84.745 Y121.528 E.02983
G1 X85.757 Y116.986 E.1459
G1 X86.323 Y113.99 E.0956
G1 X86.544 Y113.204 E.0256
G1 X86.858 Y112.466 E.02515
G1 X87.41 Y111.566 E.0331
G1 X87.97 Y110.902 E.02723
G1 X88.69 Y110.263 E.03018
G1 X89.508 Y109.736 E.03051
G1 X90.443 Y109.324 E.03204
G1 X91.449 Y109.064 E.03258
G1 X92.806 Y108.971 E.04265
G1 X92.642 Y108.187 E.02511
G1 X92.628 Y88.248 E.62517
G1 X92.802 Y87.484 E.02457
G1 X91.454 Y87.394 E.04236
G1 X90.548 Y87.169 E.02927
G1 X89.642 Y86.793 E.03076
G1 X88.784 Y86.268 E.03154
G1 X88.026 Y85.621 E.03125
G1 X87.401 Y84.893 E.03008
G1 X86.798 Y83.899 E.03645
G1 X86.307 Y82.476 E.0472
G1 X85.732 Y79.46 E.09627
G1 X84.706 Y74.924 E.14582
G1 X84.619 Y73.237 E.05296
G1 X84.685 Y72.308 E.0292
G1 X84.884 Y71.397 E.02924
G1 X85.289 Y70.37 E.03461
G1 X85.831 Y69.473 E.03286
G1 X86.093 Y69.169 E.01258
M204 S1000
G1 X86.377 Y69.414 F10800
M204 S800
G1 F1200
G1 X86.785 Y68.938 E.01966
G1 X87.527 Y68.317 E.03034
G1 X88.361 Y67.821 E.03042
G1 X89.232 Y67.476 E.02937
G1 X90.002 Y67.293 E.02482
G1 X90.82 Y67.213 E.02577
G1 X93.202 Y67.209 E.07469
G1 X93.615 Y66.058 E.03834
G1 X94.126 Y65.209 E.03107
G1 X94.82 Y64.405 E.0333
G1 X95.536 Y63.811 E.02917
G1 X96.314 Y63.345 E.02843
G1 X97.062 Y63.032 E.02542
G1 X97.845 Y62.823 E.02541
G1 X98.811 Y62.715 E.03048
G1 X107.169 Y62.698 E.26206
G1 X107.669 Y62.517 E.01667
G1 X108.021 Y62.107 E.01694
G1 X114.187 Y51.472 E.38544
G1 X114.806 Y50.623 E.03294
G1 X116.024 Y49.29 E.05662
G1 X116.781 Y48.623 E.03163
G1 X118.222 Y47.603 E.05536
G1 X120.048 Y46.678 E.06418
G1 X121.657 Y46.136 E.05323
G1 X122.745 Y45.896 E.03493
G1 X124.44 Y45.711 E.05346
G1 X125.56 Y45.711 E.03512
G1 X127.248 Y45.895 E.05324
G1 X128.24 Y46.109 E.03182
G1 X130.049 Y46.718 E.05985
G1 X131.724 Y47.571 E.05894
G1 X132.579 Y48.134 E.0321
G1 X133.963 Y49.278 E.0563
G1 X135.255 Y50.701 E.06026
G1 X135.781 Y51.425 E.02806
G1 X141.978 Y62.106 E.38718
G1 X142.338 Y62.521 E.01723
G1 X142.806 Y62.698 E.01569
G1 X151.104 Y62.711 E.26018
G1 X152.082 Y62.809 E.03082
G1 X152.994 Y63.052 E.02959
G1 X153.805 Y63.406 E.02775
G1 X154.568 Y63.886 E.02826
G1 X155.342 Y64.568 E.03235
G1 X155.885 Y65.224 E.0267
G1 X156.339 Y65.967 E.0273
G1 X156.798 Y67.209 E.04152
G1 X159.13 Y67.211 E.07312
G1 X159.952 Y67.286 E.02588
G1 X160.848 Y67.502 E.0289
G1 X161.752 Y67.878 E.0307
G1 X162.654 Y68.449 E.03347
G1 X163.253 Y68.977 E.02504
G1 X163.757 Y69.55 E.02393
G1 X164.371 Y70.534 E.03637
G1 X164.739 Y71.454 E.03107
G1 X164.953 Y72.442 E.0317
G1 X165.004 Y73.247 E.02529
G1 X164.949 Y74.66 E.04434
G1 X163.898 Y79.386 E.1518
G1 X163.336 Y82.346 E.09447
G1 X163.124 Y83.108 E.0248
G1 X162.818 Y83.824 E.02441
G1 X162.291 Y84.676 E.03141
G1 X161.763 Y85.298 E.02558
G1 X161.099 Y85.886 E.02781
G1 X160.296 Y86.401 E.02991
G1 X159.419 Y86.782 E.02998
G1 X158.518 Y87.016 E.02919
G1 X156.718 Y87.108 E.05651
G1 X156.995 Y88.27 E.03745
G1 X156.981 Y108.148 E.62326
G1 X156.737 Y109.348 E.0384
G1 X158.475 Y109.433 E.05456
G1 X159.375 Y109.66 E.0291
G1 X160.225 Y110.021 E.02896
G1 X160.996 Y110.5 E.02846
G1 X161.684 Y111.089 E.0284
G1 X162.287 Y111.792 E.02904
G1 X162.855 Y112.734 E.03449
G1 X163.306 Y114.062 E.04397
G1 X164.154 Y118.394 E.1384
G1 X164.832 Y121.293 E.09335
G1 X164.959 Y122.281 E.03123
G1 X164.969 Y123.3 E.03195
G1 X164.899 Y124.129 E.02609
G1 X164.706 Y124.972 E.02712
G1 X164.314 Y125.937 E.03266
G1 X163.784 Y126.789 E.03146
G1 X163.171 Y127.489 E.02917
G1 X162.519 Y128.041 E.02679
G1 X161.722 Y128.532 E.02935
G1 X160.835 Y128.9 E.03011
G1 X160.025 Y129.1 E.02616
G1 X159.177 Y129.186 E.02672
G1 X156.763 Y129.19 E.07569
G1 X156.307 Y130.44 E.04172
G1 X155.804 Y131.252 E.02995
G1 X155.134 Y132.016 E.03186
G1 X154.443 Y132.588 E.02813
G1 X153.684 Y133.044 E.02776
G1 X152.957 Y133.352 E.02476
G1 X152.151 Y133.57 E.02618
G1 X151.17 Y133.678 E.03094
G1 X142.827 Y133.695 E.26159
G1 X142.307 Y133.881 E.01732
G1 X141.936 Y134.31 E.01778
G1 X135.763 Y144.93 E.38515
G1 X135.155 Y145.762 E.03231
G1 X133.94 Y147.093 E.05651
G1 X132.395 Y148.353 E.06251
G1 X131.599 Y148.864 E.02966
G1 X129.968 Y149.68 E.05718
G1 X129.053 Y150.021 E.03062
G1 X127.409 Y150.445 E.05323
G1 X126.311 Y150.604 E.03479
G1 X124.622 Y150.665 E.05299
G1 X123.511 Y150.585 E.03492
G1 X121.85 Y150.282 E.05294
G1 X119.949 Y149.646 E.06285
G1 X118.401 Y148.865 E.05436
G1 X117.531 Y148.302 E.03249
G1 X116.132 Y147.161 E.0566
G1 X115.469 Y146.492 E.02953
G1 X114.264 Y144.969 E.06089
G1 X108.064 Y134.31 E.38663
G1 X107.687 Y133.876 E.01802
G1 X107.167 Y133.695 E.01726
G1 X98.896 Y133.681 E.25933
G1 X97.945 Y133.587 E.02996
G1 X97.031 Y133.348 E.02962
G1 X96.268 Y133.019 E.02605
G1 X95.558 Y132.588 E.02604
G1 X94.782 Y131.934 E.03182
G1 X94.177 Y131.227 E.02918
G1 X93.698 Y130.45 E.02862
G1 X93.234 Y129.19 E.0421
G1 X90.87 Y129.188 E.07412
G1 X90.055 Y129.114 E.02566
G1 X89.17 Y128.901 E.02854
G1 X88.3 Y128.543 E.0295
G1 X87.553 Y128.093 E.02734
G1 X86.883 Y127.541 E.02722
G1 X86.206 Y126.776 E.03203
G1 X85.665 Y125.896 E.03239
G1 X85.35 Y125.144 E.02556
G1 X85.142 Y124.366 E.02525
G1 X85.042 Y123.532 E.02634
G1 X85.03 Y122.481 E.03296
G1 X85.119 Y121.577 E.02848
G1 X86.127 Y117.06 E.14511
G1 X86.688 Y114.084 E.09495
G1 X86.896 Y113.34 E.02422
G1 X87.2 Y112.627 E.0243
G1 X87.723 Y111.776 E.03132
G1 X88.249 Y111.156 E.02549
G1 X88.907 Y110.573 E.02756
G1 X89.699 Y110.061 E.02957
G1 X90.58 Y109.675 E.03016
G1 X91.528 Y109.433 E.03068
G1 X93.275 Y109.348 E.05484
G1 X93.019 Y108.166 E.03792
G1 X93.005 Y88.27 E.62383
G1 X93.281 Y87.108 E.03745
G1 X91.505 Y87.02 E.05575
G1 X90.654 Y86.807 E.02751
G1 X89.801 Y86.451 E.02898
G1 X88.994 Y85.954 E.02972
G1 X88.283 Y85.344 E.02937
G1 X87.698 Y84.66 E.02822
G1 X87.128 Y83.717 E.03455
G1 X86.672 Y82.383 E.0442
G1 X86.102 Y79.386 E.09565
G1 X85.077 Y74.856 E.14563
G1 X84.996 Y73.252 E.05036
G1 X85.056 Y72.375 E.02756
G1 X85.249 Y71.493 E.02831
G1 X85.633 Y70.524 E.03268
G1 X86.145 Y69.683 E.03087
G1 X86.338 Y69.459 E.00927
M204 S1000
G1 X86.623 Y69.704 F10800
M204 S800
G1 F1200
G1 X87.041 Y69.217 E.02012
G1 X87.734 Y68.632 E.02844
G1 X88.515 Y68.165 E.02853
G1 X89.333 Y67.84 E.0276
G1 X90.076 Y67.663 E.02395
G1 X90.847 Y67.589 E.02429
G1 X93.496 Y67.586 E.08306
G1 X93.663 Y66.931 E.02119
G1 X93.959 Y66.214 E.02432
G1 X94.422 Y65.442 E.02823
G1 X95.074 Y64.684 E.03135
G1 X95.743 Y64.127 E.02729
G1 X96.473 Y63.687 E.02672
G1 X97.172 Y63.393 E.02378
G1 X97.928 Y63.191 E.02454
G1 X98.842 Y63.091 E.02883
G1 X107.208 Y63.075 E.26231
G1 X107.568 Y63 E.01153
G1 X107.891 Y62.826 E.0115
G1 X108.34 Y62.309 E.02147
G1 X114.503 Y51.677 E.38532
G1 X115.098 Y50.862 E.03164
G1 X116.279 Y49.568 E.05493
G1 X117.015 Y48.919 E.03077
G1 X118.424 Y47.922 E.05412
G1 X119.286 Y47.442 E.03094
G1 X120.968 Y46.737 E.05718
G1 X122.806 Y46.268 E.05948
G1 X123.628 Y46.151 E.02603
G1 X124.462 Y46.088 E.02622
G1 X126.371 Y46.151 E.05989
G1 X128.153 Y46.476 E.05679
G1 X129.099 Y46.759 E.03096
G1 X130.657 Y47.413 E.05298
G1 X132.355 Y48.437 E.06217
G1 X133.064 Y48.984 E.02808
G1 X134.287 Y50.144 E.05285
G1 X134.963 Y50.94 E.03274
G1 X135.908 Y52.334 E.0528
G1 X141.659 Y62.308 E.36099
G1 X142.12 Y62.832 E.02188
G1 X142.761 Y63.075 E.02149
G1 X151.095 Y63.088 E.26131
G1 X152.001 Y63.178 E.02855
G1 X152.856 Y63.404 E.02773
G1 X153.64 Y63.746 E.02682
G1 X154.354 Y64.197 E.02648
G1 X155.061 Y64.82 E.02955
G1 X155.586 Y65.454 E.02581
G1 X156.01 Y66.151 E.02558
G1 X156.328 Y66.904 E.02563
G1 X156.505 Y67.586 E.02209
G1 X159.121 Y67.588 E.08202
G1 X159.904 Y67.66 E.02465
G1 X160.717 Y67.856 E.02622
G1 X161.592 Y68.22 E.02971
G1 X162.439 Y68.759 E.03148
G1 X163.446 Y69.763 E.04459
G1 X164.042 Y70.719 E.03532
G1 X164.383 Y71.578 E.02898
G1 X164.581 Y72.507 E.02978
G1 X164.573 Y74.628 E.0665
G1 X163.529 Y79.312 E.15047
G1 X162.967 Y82.268 E.09434
G1 X162.477 Y83.662 E.04633
G1 X161.979 Y84.464 E.0296
G1 X161.485 Y85.043 E.02386
G1 X160.883 Y85.576 E.02521
G1 X160.105 Y86.075 E.02898
G1 X159.284 Y86.43 E.02805
G1 X158.439 Y86.647 E.02735
G1 X157.614 Y86.729 E.02599
G1 X156.237 Y86.732 E.04317
G1 X156.618 Y88.293 E.05038
G1 X156.604 Y108.128 E.62191
G1 X156.379 Y109.215 E.0348
G1 X156.15 Y109.725 E.01753
G1 X157.626 Y109.727 E.04628
G1 X158.397 Y109.802 E.02429
G1 X159.242 Y110.013 E.02731
G1 X160.039 Y110.35 E.02713
