; generated by PrusaSlicer 2.7.1+linux-x64-GTK3 on 2024-02-20 at 15:18:41 UTC

; 

; external perimeters extrusion width = 0.45mm
; perimeters extrusion width = 0.45mm
; infill extrusion width = 0.45mm
; solid infill extrusion width = 0.45mm
; top infill extrusion width = 0.40mm
; first layer extrusion width = 0.42mm

M73 P0 R30
M201 X9000 Y9000 Z500 E10000 ; sets maximum accelerations, mm/sec^2
M203 X500 Y500 Z12 E120 ; sets maximum feedrates, mm / sec
M204 S2000 T1500 ; sets acceleration (S) and retract acceleration (R), mm/sec^2
M205 X10.00 Y10.00 Z0.20 E2.50 ; sets the jerk limits, mm/sec
M205 S0 T0 ; sets the minimum extruding and travel feed rate, mm/sec

; printing object Bittle_headChin.stl id:0 copy 0
; stop printing object Bittle_headChin.stl id:0 copy 0

;TYPE:Custom
M862.3 P "MK2S" ; printer model check
M862.1 P0.4 ; nozzle diameter check
M115 U3.2.3 ; tell printer latest fw version
G90 ; use absolute coordinates
M83 ; extruder relative mode
M204 S2000 T1500 ; MK2 firmware only supports the old M204 format
M104 S215 ; set extruder temp
M140 S60 ; set bed temp
M190 S60 ; wait for bed temp
M109 S215 ; wait for extruder temp
G28 W ; home all without mesh bed level
G80 ; mesh bed leveling
G1 Z0.2 F720
G1 Y-2 F1000 ; go outside print area
G92 E0
G1 X60 E9 F1000 ; intro line
G1 X100 E12.5 F1000 ; intro line
G92 E0
G21 ; set units to millimeters
G90 ; use absolute coordinates
M83 ; use relative distances for extrusion

M900 K0.05 ; Filament gcode LA 1.5
M900 K30 ; Filament gcode LA 1.0




M107
;LAYER_CHANGE
;Z:0.2
;HEIGHT:0.2
;BEFORE_LAYER_CHANGE
G92 E0.0
;0.2


G1 E-.8 F2100
G1 Z.2 F720
;AFTER_LAYER_CHANGE
;0.2
G1 X106.458 Y71.676 F10800
G1 Z.2 F720
G1 E.8 F2100
M204 S800
;TYPE:Skirt/Brim
;WIDTH:0.42
G1 F1200
G1 X107.402 Y70.611 E.04462
G1 X110.092 Y68.831 E.10114
G1 X111.414 Y68.222 E.04564
G1 X112.826 Y67.867 E.04565
G1 X114.143 Y67.651 E.04185
G1 X117.145 Y67.446 E.09434
G1 X119.628 Y67.449 E.07785
G1 X123.556 Y67.985 E.1243
G1 X125.328 Y68.39 E.05699
G1 X127.125 Y68.946 E.05898
G1 X128.94 Y69.674 E.06132
G1 X130.444 Y70.421 E.05265
G1 X131.82 Y71.233 E.0501
G1 X133.08 Y72.103 E.04801
G1 X134.263 Y73.049 E.04749
G1 X135.313 Y74.017 E.04478
G1 X136.338 Y75.104 E.04684
G1 X137.463 Y76.509 E.05643
G1 X138.438 Y77.97 E.05507
G1 X139.82 Y80.418 E.08814
G1 X140.481 Y81.736 E.04623
G1 X140.964 Y83.103 E.04546
G1 X141.243 Y84.571 E.04685
G1 X141.393 Y87.755 E.09994
G1 X141.247 Y88.78 E.03246
G1 X136.951 Y101.217 E.41256
G1 X136.179 Y102.596 E.04955
G1 X135.06 Y103.793 E.05138
G1 X132.167 Y106.004 E.11417
G1 X130.798 Y106.543 E.04613
G1 X129.274 Y106.265 E.04857
G1 X100.82 Y91.978 E.9983
G1 X99.73 Y90.99 E.04613
G1 X99.323 Y89.174 E.05835
G1 X99.793 Y86.496 E.08525
G1 X100.6 Y83.703 E.09115
G1 X101.458 Y81.676 E.06901
G1 X106.432 Y71.73 E.34867
M204 S1000
G1 X106.769 Y71.898 F10800
M204 S800
G1 F1200
G1 X106.796 Y71.845 E.00186
G1 X107.61 Y70.925 E.03852
G1 X110.3 Y69.145 E.10114
G1 X111.98 Y68.437 E.05716
G1 X114.17 Y68.027 E.06986
G1 X117.17 Y67.822 E.09428
G1 X119.583 Y67.824 E.07566
G1 X123.479 Y68.355 E.12329
G1 X125.229 Y68.754 E.05628
G1 X127.005 Y69.304 E.05829
G1 X128.784 Y70.017 E.06009
G1 X130.269 Y70.755 E.05199
G1 X131.616 Y71.55 E.04904
G1 X132.821 Y72.38 E.04588
G1 X134.016 Y73.334 E.04794
G1 X135.046 Y74.282 E.04389
G1 X136.051 Y75.348 E.04594
G1 X137.156 Y76.727 E.05541
G1 X138.115 Y78.165 E.05419
G1 X139.486 Y80.594 E.08745
G1 X140.136 Y81.889 E.04543
G1 X140.607 Y83.224 E.04439
G1 X140.867 Y84.589 E.04357
G1 X141.016 Y87.773 E.09994
G1 X140.89 Y88.658 E.02803
G1 X136.609 Y101.058 E.41131
G1 X135.878 Y102.368 E.04704
G1 X134.817 Y103.505 E.04876
G1 X131.94 Y105.703 E.11352
G1 X130.66 Y106.177 E.0428
G1 X129.443 Y105.929 E.03894
G1 X100.989 Y91.641 E.99832
G1 X99.997 Y90.704 E.04278
G1 X99.698 Y89.22 E.04746
G1 X99.753 Y88.807 E.01306
G1 X100.294 Y86.019 E.08905
G1 X100.956 Y83.826 E.07182
G1 X101.795 Y81.844 E.06748
M73 P1 R30
G1 X106.742 Y71.952 E.34678
M204 S1000
;WIPE_START
G1 F8640
G1 X106.769 Y71.898 E-.01394
G1 X106.796 Y71.845 E-.01373
G1 X107.61 Y70.925 E-.28364
G1 X109.375 Y69.757 E-.48869
;WIPE_END
G1 Z.6 F720
G1 X109.595 Y73.623 F10800
G1 Z.2 F720
G1 E.8 F2100
M204 S800
G1 F1200
G1 X110.053 Y72.842 E.02839
G1 X110.702 Y72.118 E.03049
G1 X112.282 Y71.16 E.05793
G1 X114.063 Y70.726 E.05748
G1 X115.083 Y70.635 E.03211
G1 X117.671 Y70.578 E.08116
G1 X118.332 Y70.677 E.02096
G1 X118.833 Y70.576 E.01602
G1 X119.884 Y70.593 E.03296
G1 X121.387 Y70.725 E.04731
G1 X123.731 Y71.127 E.07457
G1 X126.18 Y71.837 E.07995
G1 X127.774 Y72.484 E.05394
G1 X129.083 Y73.142 E.04594
G1 X131.256 Y74.536 E.08095
G1 X132.29 Y75.363 E.04151
G1 X133.456 Y76.462 E.05024
G1 X134.546 Y77.699 E.05169
G1 X135.311 Y78.732 E.0403
G1 X136.105 Y79.999 E.04688
G1 X137.625 Y82.795 E.09978
G1 X138.118 Y84.273 E.04885
G1 X138.237 Y85.832 E.04902
G1 X138.031 Y86.927 E.03494
G1 X137.591 Y87.91 E.03377
G1 X136.938 Y88.775 E.03398
G1 X135.877 Y89.618 E.04249
G1 X134.619 Y90.145 E.04276
G1 X133.621 Y90.291 E.03162
G1 X132.585 Y90.216 E.03257
G1 X131.397 Y89.859 E.03889
G1 X130.091 Y89.199 E.04588
G1 X128.713 Y88.146 E.05438
G1 X127.985 Y87.242 E.03639
G1 X127.174 Y85.566 E.05838
G1 X126.463 Y84.55 E.03888
G1 X125.566 Y83.67 E.0394
G1 X124.007 Y82.677 E.05795
G1 X123.603 Y82.503 E.01379
G1 X122.878 Y83.062 E.0287
G1 X121.547 Y83.552 E.04447
G1 X120.695 Y83.645 E.02687
G1 X119.356 Y83.514 E.04218
G1 X118.652 Y83.262 E.02344
G1 X114.157 Y81.014 E.15758
G1 X112.984 Y80.642 E.03858
G1 X111.714 Y79.983 E.04486
G1 X110.515 Y79.074 E.04718
G1 X109.838 Y78.212 E.03437
G1 X109.389 Y77.261 E.03297
G1 X109.164 Y76.241 E.03275
G1 X109.169 Y75.11 E.03546
G1 X109.55 Y73.701 E.04576
G1 X109.565 Y73.675 E.00094
M204 S1000
G1 X109.891 Y73.865 F10800
M204 S800
G1 F1200
G1 X110.347 Y73.079 E.02849
G1 X110.964 Y72.391 E.02898
G1 X112.451 Y71.498 E.05439
G1 X114.137 Y71.096 E.05435
G1 X117.67 Y70.955 E.11086
G1 X118.343 Y71.061 E.02136
G1 X118.849 Y70.954 E.01622
G1 X121.336 Y71.099 E.07811
G1 X122.765 Y71.314 E.04531
G1 X124.476 Y71.7 E.055
G1 X126.843 Y72.493 E.07827
G1 X128.896 Y73.469 E.07127
G1 X129.994 Y74.122 E.04006
G1 X132.042 Y75.648 E.08008
G1 X133.183 Y76.721 E.04911
G1 X134.246 Y77.928 E.05043
G1 X134.996 Y78.938 E.03944
G1 X135.782 Y80.193 E.04643
G1 X137.283 Y82.954 E.09853
G1 X137.752 Y84.369 E.04674
G1 X137.859 Y85.834 E.04606
G1 X137.665 Y86.832 E.03188
G1 X137.257 Y87.735 E.03107
G1 X136.685 Y88.494 E.0298
G1 X135.663 Y89.307 E.04095
G1 X134.541 Y89.776 E.03813
G1 X133.587 Y89.915 E.03023
G1 X132.636 Y89.841 E.02991
G1 X131.522 Y89.503 E.0365
G1 X130.305 Y88.888 E.04275
G1 X128.992 Y87.891 E.05169
G1 X128.293 Y87.025 E.03489
G1 X127.5 Y85.376 E.05737
G1 X126.748 Y84.303 E.04108
G1 X125.804 Y83.377 E.04146
G1 X124.171 Y82.337 E.0607
G1 X123.545 Y82.068 E.02136
G1 X122.718 Y82.719 E.033
G1 X121.481 Y83.18 E.04139
G1 X120.71 Y83.267 E.02433
G1 X119.459 Y83.151 E.03939
G1 X118.81 Y82.92 E.0216
G1 X114.298 Y80.663 E.15818
G1 X113.143 Y80.299 E.03797
G1 X111.928 Y79.672 E.04287
G1 X110.795 Y78.821 E.04443
G1 X110.169 Y78.03 E.03163
G1 X109.752 Y77.157 E.03033
G1 X109.541 Y76.22 E.03011
G1 X109.546 Y75.136 E.03399
G1 X109.874 Y73.922 E.03943
M204 S1000
G1 X110.228 Y74.035 F10800
M204 S800
G1 F1200
G1 X110.641 Y73.316 E.026
G1 X111.225 Y72.664 E.02744
G1 X112.618 Y71.838 E.05078
G1 X114.209 Y71.467 E.05122
G1 X117.668 Y71.333 E.10854
G1 X118.354 Y71.445 E.02179
G1 X118.866 Y71.331 E.01645
G1 X119.858 Y71.347 E.03111
G1 X121.286 Y71.472 E.04495
G1 X123.557 Y71.861 E.07224
G1 X125.933 Y72.55 E.07757
G1 X127.466 Y73.173 E.05188
G1 X128.709 Y73.797 E.04361
G1 X130.816 Y75.149 E.07849
G1 X131.795 Y75.932 E.03931
G1 X132.909 Y76.981 E.04798
G1 X133.947 Y78.158 E.04921
G1 X134.68 Y79.145 E.03855
G1 X135.458 Y80.387 E.04595
G1 X136.94 Y83.113 E.09729
G1 X137.387 Y84.465 E.04465
G1 X137.481 Y85.834 E.04303
G1 X137.3 Y86.736 E.02885
G1 X136.942 Y87.527 E.02722
G1 X136.431 Y88.215 E.02687
G1 X135.449 Y88.995 E.03932
G1 X134.462 Y89.406 E.03352
G1 X133.595 Y89.537 E.02749
G1 X132.686 Y89.467 E.02859
G1 X131.649 Y89.147 E.03403
G1 X130.518 Y88.576 E.03972
G1 X129.271 Y87.636 E.04896
G1 X128.602 Y86.807 E.0334
G1 X127.826 Y85.185 E.05638
G1 X127.034 Y84.055 E.04327
G1 X126.043 Y83.085 E.04348
G1 X124.847 Y82.269 E.0454
G1 X123.484 Y81.631 E.04719
G1 X122.556 Y82.378 E.03735
G1 X121.413 Y82.809 E.0383
G1 X120.723 Y82.89 E.02178
G1 X119.562 Y82.787 E.03655
G1 X118.968 Y82.577 E.01975
G1 X114.44 Y80.312 E.15874
G1 X113.3 Y79.956 E.03745
G1 X112.14 Y79.36 E.04089
G1 X111.074 Y78.566 E.04168
G1 X110.499 Y77.846 E.02889
G1 X110.114 Y77.051 E.0277
G1 X109.919 Y76.2 E.02737
G1 X109.922 Y75.162 E.03255
G1 X110.212 Y74.093 E.03473
M204 S1000
G1 X110.568 Y74.2 F10800
M204 S800
G1 F1200
G1 X110.938 Y73.549 E.02348
G1 X111.444 Y72.973 E.02404
G1 X112.784 Y72.177 E.04887
G1 X114.279 Y71.837 E.04807
G1 X117.665 Y71.711 E.10624
G1 X118.367 Y71.83 E.02232
G1 X118.884 Y71.709 E.01665
G1 X121.235 Y71.846 E.07384
G1 X122.642 Y72.058 E.04461
G1 X124.273 Y72.427 E.05243
G1 X125.81 Y72.906 E.05048
G1 X127.311 Y73.517 E.05081
G1 X129.587 Y74.757 E.08127
G1 X130.596 Y75.455 E.03847
G1 X132.058 Y76.674 E.05968
G1 X133.138 Y77.782 E.04851
G1 X134.365 Y79.351 E.06245
G1 X135.135 Y80.581 E.0455
G1 X136.598 Y83.272 E.09604
G1 X137.021 Y84.559 E.04248
G1 X137.103 Y85.831 E.03997
G1 X136.935 Y86.638 E.02585
G1 X136.607 Y87.352 E.02464
G1 X136.176 Y87.935 E.02273
G1 X135.235 Y88.683 E.03769
G1 X134.383 Y89.037 E.02893
G1 X133.561 Y89.161 E.02606
G1 X132.739 Y89.093 E.02586
G1 X131.776 Y88.792 E.03163
G1 X130.73 Y88.264 E.03674
G1 X129.55 Y87.381 E.04621
G1 X128.912 Y86.591 E.03184
G1 X128.152 Y84.995 E.05543
G1 X127.319 Y83.808 E.04547
G1 X126.281 Y82.792 E.04554
G1 X125.777 Y82.412 E.01979
G1 X124.497 Y81.656 E.04661
G1 X123.422 Y81.194 E.03669
G1 X122.393 Y82.036 E.04169
G1 X121.302 Y82.448 E.03657
G1 X120.736 Y82.513 E.01786
G1 X119.663 Y82.423 E.03376
G1 X119.126 Y82.235 E.01784
G1 X114.581 Y79.961 E.15935
G1 X113.458 Y79.613 E.03686
G1 X112.326 Y79.032 E.0399
G1 X111.32 Y78.279 E.0394
G1 X110.808 Y77.63 E.02592
G1 X110.464 Y76.908 E.02508
G1 X110.291 Y76.138 E.02474
G1 X110.293 Y75.235 E.02831
G1 X110.552 Y74.258 E.03169
M204 S1000
G1 X110.909 Y74.362 F10800
M204 S800
G1 F1200
G1 X111.237 Y73.779 E.02097
G1 X111.666 Y73.28 E.02063
G1 X112.898 Y72.538 E.04509
G1 X114.324 Y72.212 E.04586
G1 X117.665 Y72.088 E.10483
G1 X118.338 Y72.226 E.02154
G1 X118.904 Y72.086 E.01828
G1 X119.833 Y72.101 E.02913
G1 X121.185 Y72.22 E.04255
G1 X123.384 Y72.595 E.06994
G1 X124.947 Y73.015 E.05075
G1 X126.413 Y73.54 E.04882
G1 X128.335 Y74.452 E.0667
G1 X129.389 Y75.078 E.03844
G1 X130.376 Y75.761 E.03763
G1 X131.797 Y76.946 E.05801
G1 X132.853 Y78.029 E.04743
G1 X134.049 Y79.558 E.06086
G1 X134.811 Y80.775 E.04502
G1 X136.256 Y83.43 E.09478
G1 X136.655 Y84.653 E.04034
G1 X136.726 Y85.827 E.03688
G1 X136.572 Y86.537 E.02278
G1 X136.291 Y87.146 E.02103
G1 X135.921 Y87.656 E.01976
G1 X135.021 Y88.372 E.03606
G1 X134.302 Y88.668 E.02438
G1 X133.569 Y88.783 E.02326
G1 X132.791 Y88.719 E.02448
G1 X131.905 Y88.437 E.02915
G1 X130.942 Y87.952 E.03381
G1 X129.828 Y87.125 E.0435
G1 X129.222 Y86.374 E.03026
G1 X128.478 Y84.805 E.05445
G1 X127.604 Y83.561 E.04767
G1 X126.519 Y82.5 E.04758
G1 X125.226 Y81.616 E.04911
G1 X123.245 Y80.739 E.06793
G1 X123.037 Y81.026 E.01111
M73 P2 R30
G1 X122.23 Y81.694 E.03285
G1 X121.191 Y82.086 E.03482
G1 X120.747 Y82.136 E.01401
G1 X119.764 Y82.059 E.03092
G1 X119.284 Y81.892 E.01593
G1 X114.721 Y79.61 E.15996
G1 X113.615 Y79.27 E.03628
G1 X112.513 Y78.704 E.03884
G1 X111.567 Y77.993 E.0371
G1 X111.12 Y77.416 E.02289
G1 X110.815 Y76.768 E.02246
G1 X110.664 Y76.078 E.02215
G1 X110.664 Y75.306 E.02421
G1 X110.894 Y74.421 E.02867
M204 S1000
G1 X111.25 Y74.524 F10800
M204 S800
G1 F1200
G1 X111.536 Y74.01 E.01844
G1 X111.931 Y73.549 E.01903
G1 X113.064 Y72.878 E.04129
G1 X114.392 Y72.583 E.04265
G1 X117.624 Y72.464 E.10141
G1 X118.32 Y72.621 E.02237
G1 X118.925 Y72.463 E.01961
G1 X121.134 Y72.594 E.06938
G1 X122.52 Y72.803 E.04395
G1 X124.078 Y73.155 E.05008
G1 X125.555 Y73.616 E.04851
G1 X126.993 Y74.2 E.04866
G1 X128.149 Y74.78 E.04055
G1 X129.179 Y75.392 E.03757
G1 X131.052 Y76.785 E.07319
G1 X132.573 Y78.282 E.06691
G1 X133.742 Y79.777 E.0595
G1 X134.48 Y80.955 E.04359
G1 X135.903 Y83.564 E.09318
G1 X136.28 Y84.702 E.03759
G1 X136.351 Y85.776 E.03375
G1 X136.219 Y86.4 E.02
G1 X135.974 Y86.941 E.01862
G1 X135.631 Y87.413 E.01829
G1 X134.81 Y88.058 E.03274
G1 X134.222 Y88.299 E.01992
G1 X133.534 Y88.407 E.02184
G1 X132.847 Y88.346 E.02163
G1 X132.035 Y88.083 E.02676
G1 X131.152 Y87.638 E.031
G1 X130.106 Y86.869 E.04071
G1 X129.533 Y86.159 E.02861
G1 X128.805 Y84.615 E.05352
G1 X128.28 Y83.81 E.03013
G1 X127.24 Y82.631 E.04929
G1 X126.207 Y81.791 E.04175
G1 X124.825 Y80.977 E.05029
G1 X123.09 Y80.285 E.05857
G1 X122.773 Y80.755 E.01778
G1 X122.015 Y81.383 E.03086
G1 X121.085 Y81.724 E.03106
G1 X119.862 Y81.694 E.03836
G1 X119.441 Y81.549 E.01396
G1 X114.861 Y79.258 E.16057
G1 X113.771 Y78.926 E.03573
G1 X112.725 Y78.392 E.03682
G1 X111.848 Y77.74 E.03426
G1 X111.452 Y77.236 E.0201
G1 X111.165 Y76.628 E.02108
G1 X111.037 Y76.021 E.01945
G1 X111.041 Y75.332 E.0216
G1 X111.235 Y74.582 E.02429
M204 S1000
G1 X111.591 Y74.686 F10800
M204 S800
G1 F1200
G1 X111.856 Y74.211 E.01705
G1 X112.196 Y73.82 E.01625
G1 X113.174 Y73.24 E.03565
G1 X114.461 Y72.954 E.04134
G1 X117.584 Y72.839 E.09799
G1 X118.008 Y72.908 E.01347
G1 X118.301 Y73.018 E.00981
G1 X118.947 Y72.841 E.021
G1 X121.084 Y72.967 E.06712
G1 X123.224 Y73.332 E.06807
G1 X124.715 Y73.732 E.0484
G1 X126.122 Y74.236 E.04686
G1 X127.962 Y75.108 E.06384
G1 X128.97 Y75.706 E.03675
G1 X130.812 Y77.076 E.07198
G1 X132.294 Y78.535 E.06521
G1 X133.435 Y79.996 E.05812
G1 X134.149 Y81.136 E.04218
G1 X135.561 Y83.723 E.09241
G1 X135.915 Y84.798 E.03549
G1 X135.977 Y85.726 E.02916
G1 X135.867 Y86.265 E.01725
G1 X135.639 Y86.766 E.01726
G1 X135.344 Y87.168 E.01563
G1 X134.6 Y87.744 E.0295
G1 X134.14 Y87.931 E.01557
G1 X133.543 Y88.029 E.01897
G1 X132.902 Y87.972 E.02018
G1 X132.167 Y87.73 E.02426
G1 X131.361 Y87.324 E.0283
G1 X130.381 Y86.611 E.038
G1 X129.869 Y85.987 E.02531
G1 X129.131 Y84.424 E.0542
G1 X128.587 Y83.59 E.03122
G1 X127.501 Y82.358 E.05149
G1 X126.422 Y81.481 E.0436
G1 X125.605 Y80.963 E.03033
G1 X124.005 Y80.207 E.05549
G1 X122.914 Y79.859 E.03591
G1 X122.507 Y80.487 E.02346
G1 X121.851 Y81.042 E.02694
G1 X121.018 Y81.352 E.02787
G1 X119.959 Y81.329 E.03321
G1 X115.001 Y78.906 E.17303
G1 X113.927 Y78.582 E.03517
G1 X112.935 Y78.078 E.03489
G1 X112.126 Y77.485 E.03145
G1 X111.782 Y77.052 E.01734
G1 X111.529 Y76.525 E.01833
G1 X111.414 Y76.001 E.01682
G1 X111.418 Y75.357 E.02019
G1 X111.576 Y74.744 E.01985
M204 S1000
G1 X111.933 Y74.848 F10800
M204 S800
G1 F1200
G1 X112.458 Y74.092 E.02886
G1 X113.285 Y73.602 E.03014
G1 X114.53 Y73.325 E.03999
G1 X117.544 Y73.215 E.09456
G1 X118.282 Y73.417 E.02399
G1 X118.971 Y73.218 E.02249
G1 X121.034 Y73.341 E.0648
G1 X122.397 Y73.547 E.04322
G1 X123.889 Y73.885 E.04797
G1 X125.302 Y74.327 E.04642
G1 X126.665 Y74.88 E.04612
G1 X127.776 Y75.435 E.03894
G1 X129.716 Y76.68 E.07228
G1 X131.014 Y77.763 E.053
G1 X132.452 Y79.306 E.06613
G1 X133.818 Y81.317 E.07622
G1 X134.901 Y83.267 E.06994
G1 X135.219 Y83.883 E.02174
G1 X135.549 Y84.893 E.03332
G1 X135.602 Y85.679 E.0247
G1 X135.514 Y86.129 E.01438
G1 X135.058 Y86.921 E.02865
G1 X134.431 Y87.406 E.02485
G1 X134.056 Y87.562 E.01273
G1 X133.505 Y87.653 E.01751
G1 X132.999 Y87.607 E.01593
G1 X132.324 Y87.386 E.02227
G1 X131.544 Y86.994 E.02737
G1 X130.624 Y86.322 E.03572
G1 X130.181 Y85.773 E.02212
G1 X129.457 Y84.234 E.05333
G1 X128.894 Y83.37 E.03233
G1 X127.763 Y82.086 E.05365
G1 X126.636 Y81.171 E.04552
G1 X125.153 Y80.297 E.05397
G1 X124.143 Y79.856 E.03455
G1 X122.742 Y79.423 E.04598
G1 X122.237 Y80.222 E.02964
G1 X121.685 Y80.702 E.02294
G1 X120.948 Y80.981 E.02471
G1 X120.054 Y80.963 E.02804
G1 X115.166 Y78.567 E.17068
G1 X114.081 Y78.238 E.03555
G1 X113.119 Y77.749 E.03384
G1 X112.403 Y77.227 E.02778
