; generated by PrusaSlicer 2.7.1+linux-x64-GTK3 on 2024-02-16 at 15:21:42 UTC

; 

; external perimeters extrusion width = 0.45mm
; perimeters extrusion width = 0.45mm
; infill extrusion width = 0.45mm
; solid infill extrusion width = 0.45mm
; top infill extrusion width = 0.40mm
; first layer extrusion width = 0.70mm

M73 P0 R46
M201 X9000 Y9000 Z500 E10000 ; sets maximum accelerations, mm/sec^2
M203 X500 Y500 Z12 E120 ; sets maximum feedrates, mm / sec
M204 S2000 T1500 ; sets acceleration (S) and retract acceleration (R), mm/sec^2
M205 X10.00 Y10.00 Z0.20 E2.50 ; sets the jerk limits, mm/sec
M205 S0 T0 ; sets the minimum extruding and travel feed rate, mm/sec
;TYPE:Custom
M862.3 P "MK2S" ; printer model check
M862.1 P0.4 ; nozzle diameter check
M115 U3.2.3 ; tell printer latest fw version
G90 ; use absolute coordinates
M83 ; extruder relative mode
M204 S2000 T1500 ; MK2 firmware only supports the old M204 format
M104 S215 ; set extruder temp
M140 S60 ; set bed temp
M190 S60 ; wait for bed temp
M109 S215 ; wait for extruder temp
G28 W ; home all without mesh bed level
G80 ; mesh bed leveling
G1 Z0.2 F720
G1 Y-2 F1000 ; go outside print area
G92 E0
G1 X60 E9 F1000 ; intro line
G1 X100 E12.5 F1000 ; intro line
G92 E0
G21 ; set units to millimeters
G90 ; use absolute coordinates
M83 ; use relative distances for extrusion

M900 K0.05 ; Filament gcode LA 1.5
M900 K30 ; Filament gcode LA 1.0




M107
;LAYER_CHANGE
;Z:0.35
;HEIGHT:0.35
;BEFORE_LAYER_CHANGE
G92 E0.0
;0.35


G1 E-.8 F2100
G1 Z.35 F7800
;AFTER_LAYER_CHANGE
;0.35
G1 X105.972 Y124.881
G1 Z.35
G1 E.8 F2100
;TYPE:Skirt/Brim
;WIDTH:0.7
G1 F1800
G1 X107.999 Y123.637 E.21626
G1 X173.34 Y98.318 E6.37189
G1 X175.59 Y97.873 E.20855
G1 X177.857 Y98.221 E.20855
G1 X179.672 Y99.169 E.18619
G1 X181.12 Y100.464 E.17664
G1 X182.233 Y101.946 E.16853
G1 X182.773 Y102.943 E.1031
G1 X183.209 Y103.978 E.10212
G1 X183.528 Y105.282 E.12207
G1 X183.458 Y107.902 E.23832
G1 X183.032 Y109.223 E.12621
G1 X181.502 Y111.42 E.24344
G1 X130.486 Y156.242 E6.17494
G1 X129.358 Y157.09 E.12832
M73 P0 R45
G1 X127.727 Y157.829 E.16282
G1 X125.907 Y158.155 E.16813
G1 X125.031 Y158.156 E.07965
G1 X123.812 Y158.007 E.11167
G1 X122.073 Y157.492 E.16491
G1 X121.07 Y157.007 E.10131
G1 X119.782 Y156.178 E.13928
G1 X118.466 Y155.029 E.15886
G1 X117.598 Y154.031 E.12027
G1 X116.92 Y153.051 E.10836
G1 X104.753 Y133.287 E2.11037
G1 X103.906 Y131.156 E.20852
G1 X103.838 Y128.863 E.20859
G1 X104.555 Y126.685 E.2085
G1 X105.935 Y124.928 E.20315
;WIPE_START
G1 F6240
G1 X105.972 Y124.881 E-.01912
G1 X107.999 Y123.637 E-.76037
G1 X108.059 Y123.614 E-.02051
;WIPE_END
G1 Z.75 F7800
G1 X110.783 Y129.937
G1 Z.35
G1 E.8 F2100
;TYPE:External perimeter
;WIDTH:0.504791
G1 F1800
G1 X110.817 Y130.013 E.00521
;WIDTH:0.474736
G1 X110.851 Y130.088 E.00479
;WIDTH:0.487162
G1 X111.191 Y130.548 E.0343
;WIDTH:0.529643
G1 X111.531 Y131.008 E.03783
;WIDTH:0.572125
G1 X111.87 Y131.468 E.04133
;WIDTH:0.583449
G1 X112.034 Y131.682 E.01994
;WIDTH:0.621755
G1 X113.048 Y133.036 E.13456
;WIDTH:0.632243
G1 X113.193 Y133.233 E.01983
;WIDTH:0.673095
G1 X114.218 Y134.659 E.15281
;WIDTH:0.694279
G1 X114.54 Y135.127 E.05118
;WIPE_START
G1 F6240
G1 X114.218 Y134.659 E-.18162
;WIPE_END
G1 E-.61838 F2100
G1 Z.75 F7800
G1 X125.927 Y151.105
G1 Z.35
G1 E.8 F2100
;WIDTH:0.481897
G1 F1800
G1 X125.815 Y151.203 E.00881
G1 X125.634 Y151.283 E.01171
G1 X125.272 Y151.289 E.02143
;WIDTH:0.516775
G1 X124.777 Y151.157 E.03292
;WIDTH:0.519425
G1 X124.41 Y150.986 E.02618
G1 X123.959 Y150.708 E.03425
;WIDTH:0.513385
G1 X123.433 Y150.272 E.04357
;WIDTH:0.500741
G1 X122.908 Y149.654 E.05022
;WIDTH:0.491808
G1 X122.571 Y149.07 E.04088
;WIDTH:0.480859
G1 X121.568 Y147.117 E.12963
;WIDTH:0.482696
G1 X120.505 Y145.12 E.13417
;WIDTH:0.475225
G1 X119.485 Y143.287 E.12213
;WIDTH:0.465104
G1 X118.436 Y141.471 E.11901
;WIDTH:0.448673
G1 X117.398 Y139.761 E.10874
;WIDTH:0.433653
G1 X116.354 Y138.116 E.10165
;WIDTH:0.419627
G1 X116.325 Y138.072 E.00264
;WIDTH:0.418737
G1 X115.291 Y136.519 E.09329
;WIDTH:0.408504
G1 X114.635 Y135.544 E.05701
;WIDTH:0.434103
G1 X114.621 Y135.485 E.00317
;WIDTH:0.477466
G1 X114.608 Y135.425 E.00359
;WIDTH:0.520828
G1 X114.594 Y135.365 E.004
;WIDTH:0.564191
G1 X114.581 Y135.306 E.0043
;WIDTH:0.607553
G1 X114.567 Y135.246 E.00477
;WIDTH:0.650916
G1 X114.554 Y135.187 E.00506
;WIDTH:0.694279
G1 X114.54 Y135.127 E.00555
G1 X114.591 Y135.161 E.00552
;WIDTH:0.650916
G1 X114.642 Y135.195 E.00514
;WIDTH:0.607553
G1 X114.692 Y135.229 E.00468
;WIDTH:0.564191
G1 X114.743 Y135.263 E.00436
;WIDTH:0.520828
G1 X114.794 Y135.298 E.00401
;WIDTH:0.477466
G1 X114.844 Y135.332 E.00354
;WIDTH:0.434103
G1 X114.895 Y135.366 E.0032
;WIDTH:0.408504
G1 X115.567 Y136.332 E.05709
;WIDTH:0.418649
G1 X116.609 Y137.877 E.09316
;WIDTH:0.419627
G1 X116.643 Y137.929 E.00311
;WIDTH:0.433653
G1 X117.7 Y139.568 E.10175
;WIDTH:0.448673
G1 X118.755 Y141.276 E.10913
;WIDTH:0.465104
G1 X119.822 Y143.091 E.11948
;WIDTH:0.475225
G1 X120.852 Y144.925 E.12247
;WIDTH:0.482696
G1 X121.925 Y146.927 E.13472
;WIDTH:0.480859
G1 X122.932 Y148.885 E.13
;WIDTH:0.481448
G1 X122.939 Y148.898 E.00087
;WIDTH:0.495482
G1 X123.296 Y149.478 E.04166
;WIDTH:0.499975
G1 X123.782 Y150.017 E.04487
;WIDTH:0.507556
G1 X124.359 Y150.454 E.04555
;WIDTH:0.516775
G1 X124.905 Y150.735 E.03946
G1 X125.39 Y150.901 E.03295
;WIDTH:0.481897
G1 X125.871 Y151.084 E.03046
;WIPE_START
G1 F6240
G1 X125.927 Y151.105 E-.01912
G1 X125.815 Y151.203 E-.04758
;WIPE_END
G1 E-.7333 F2100
G1 Z.75 F7800
G1 X175.694 Y104.712
G1 Z.35
G1 E.8 F2100
;WIDTH:0.450703
G1 F1800
G1 X175.932 Y104.97 E.01918
;WIDTH:0.486295
G1 X176.17 Y105.228 E.021
;WIDTH:0.523921
G1 X176.463 Y105.72 E.0374
;WIDTH:0.563245
G1 X176.687 Y106.255 E.0412
G1 X176.717 Y106.401 E.01059
M106 S84.15
;LAYER_CHANGE
;Z:0.65
;HEIGHT:0.3
;BEFORE_LAYER_CHANGE
G92 E0.0
;0.65


;WIPE_START
G1 F6240
G1 X176.687 Y106.255 E-.04765
G1 X176.463 Y105.72 E-.18543
;WIPE_END
G1 E-.56692 F2100
G1 Z.65 F7800
;AFTER_LAYER_CHANGE
;0.65
M104 S210 ; set temperature
G1 Z1.05
G1 X110.325 Y129.234
G1 Z.65
G1 E.8 F2100
;TYPE:Overhang perimeter
;WIDTH:0.4
;HEIGHT:0.4
G1 F900
G1 X108.584 Y127.177 E.14079
G1 X108.942 Y126.844 E.02554
G1 X110.698 Y128.894 E.14102
G1 X110.37 Y129.193 E.02319
G1 X110.459 Y129.932 F7800
;TYPE:Perimeter
;WIDTH:0.45
;HEIGHT:0.3
G1 F900
G1 X110.43 Y130 E.00356
;WIDTH:0.441109
G1 X110.506 Y130.155 E.00811
;WIDTH:0.405977
G1 X110.581 Y130.311 E.00737
G1 X110.486 Y130.163 E.00749
;WIDTH:0.441109
G1 X110.391 Y130.015 E.00826
;WIDTH:0.448216
G1 X110.135 Y129.7 E.01943
;TYPE:Overhang perimeter
;WIDTH:0.4
;HEIGHT:0.4
G1 X109.127 Y128.478 E.08276
G1 X107.817 Y126.949 E.10519
G1 X108.302 Y126.816 E.02627
G1 X108.989 Y126.229 E.04721
G1 X111.323 Y128.942 E.18697
G1 X110.686 Y129.486 E.04376
;TYPE:Perimeter
;WIDTH:0.45
;HEIGHT:0.3
G1 X110.628 Y129.536 E.00368
G1 X110.483 Y129.877 E.01782
G1 X110.811 Y129.984 F7800
;TYPE:External perimeter
G1 F1725
G1 X110.852 Y130.096 E.00574
G1 X112.282 Y131.896 E.11057
G1 X113.228 Y133.13 E.07478
G1 X114.32 Y134.609 E.08842
G1 X115.58 Y136.388 E.10485
G1 X116.602 Y137.895 E.08758
G1 X117.578 Y139.393 E.08599
G1 X118.804 Y141.359 E.11144
G1 X119.69 Y142.847 E.08329
G1 X120.485 Y144.233 E.07685
G1 X121.775 Y146.588 E.12915
G1 X122.967 Y148.895 E.12489
G1 X123.268 Y149.392 E.02795
G1 X123.625 Y149.823 E.02692
G1 X124.015 Y150.156 E.02467
G1 X124.499 Y150.492 E.02834
G1 X125.038 Y150.755 E.02885
G1 X126.407 Y151.272 E.07038
;TYPE:Overhang perimeter
;WIDTH:0.4
;HEIGHT:0.4
G1 F3600
G1 X126.869 Y151.447 E.02581
G1 X126.652 Y151.632 E.0149
G1 X126.506 Y151.719 E.00888
G1 X126.135 Y151.793 E.01976
G1 X125.64 Y151.736 E.02603
;TYPE:External perimeter
;WIDTH:0.45
;HEIGHT:0.3
G1 F1725
G1 X125.471 Y151.717 E.00818
G1 X124.619 Y151.462 E.04277
G1 X124.08 Y151.19 E.02904
G1 X123.493 Y150.776 E.03455
G1 X122.954 Y150.255 E.03606
G1 X122.489 Y149.626 E.03762
G1 X121.261 Y147.281 E.12732
G1 X120.189 Y145.297 E.10846
G1 X118.585 Y142.49 E.15549
G1 X117.058 Y139.976 E.14147
G1 X116.277 Y138.763 E.06939
;TYPE:Overhang perimeter
;WIDTH:0.4
;HEIGHT:0.4
G1 F3600
G1 X114.866 Y136.645 E.13296
G1 X113.72 Y135.014 E.10414
G1 X112.545 Y133.409 E.10392
G1 X111.336 Y131.82 E.10431
G1 X110.097 Y130.258 E.10416
G1 X108.83 Y128.724 E.10395
G1 X107.529 Y127.212 E.10421
G1 X107.346 Y126.905 E.01867
G1 X106.243 Y125.682 E.08604
G1 X104.882 Y124.227 E.10409
G1 X103.488 Y122.797 E.10433
G1 X101.938 Y121.274 E.11353
G1 X100.616 Y120.024 E.09505
G1 X99.216 Y118.746 E.09904
G1 X97.639 Y117.362 E.10962
G1 X96.033 Y116.015 E.10951
G1 X94.404 Y114.698 E.10944
G1 X92.89 Y113.517 E.10032
G1 X90.81 Y111.948 E.13612
G1 X90.244 Y111.449 E.03942
G1 X89.797 Y110.892 E.03731
G1 X89.48 Y110.331 E.03366
G1 X89.349 Y110.016 E.01782
G1 X89.193 Y109.492 E.02856
G1 X89.185 Y108.97 E.02728
G1 X89.253 Y108.742 E.01243
G1 X89.422 Y108.573 E.01249
G1 X89.61 Y109.456 E.04717
G1 X89.843 Y110.126 E.03706
G1 X90.172 Y110.704 E.03475
G1 X90.618 Y111.238 E.03635
G1 X91.101 Y111.651 E.0332
G1 X93.157 Y113.168 E.13349
G1 X95.107 Y114.675 E.12876
G1 X96.51 Y115.805 E.09412
G1 X97.923 Y116.983 E.09611
G1 X99.539 Y118.387 E.11184
G1 X100.917 Y119.634 E.0971
G1 X102.279 Y120.912 E.09758
G1 X103.785 Y122.383 E.10999
G1 X105.245 Y123.871 E.10891
G1 X106.219 Y124.9 E.07402
G1 X107.763 Y126.584 E.11936
G1 X108.051 Y126.523 E.01538
G1 X109.031 Y125.686 E.06733
G1 X111.868 Y128.984 E.22728
G1 X111.771 Y129.066 E.00664
;TYPE:External perimeter
;WIDTH:0.45
;HEIGHT:0.3
G1 F1725
G1 X110.878 Y129.829 E.05649
G1 X110.835 Y129.929 E.00524
;WIPE_START
G1 F6240
G1 X110.811 Y129.984 E-.01919
G1 X110.852 Y130.096 E-.03813
G1 X112.282 Y131.896 E-.73498
G1 X112.297 Y131.915 E-.0077
;WIPE_END
G1 Z1.05 F7800
G1 X125.547 Y151.348
G1 Z.65
G1 E.8 F2100
;TYPE:Perimeter
;WIDTH:0.461449
G1 F1725
G1 X125.158 Y151.215 E.02036
;WIDTH:0.493971
G1 X124.77 Y151.082 E.02198
G1 X124.29 Y150.84 E.0288
;WIDTH:0.492149
G1 X123.752 Y150.464 E.03502
;WIDTH:0.488757
G1 X123.252 Y149.994 E.03632
;WIDTH:0.467255
G1 X122.923 Y149.567 E.02709
;WIDTH:0.445773
G1 X122.63 Y149.073 E.02732
;WIDTH:0.453397
G1 X121.604 Y147.101 E.10786
;WIDTH:0.460347
G1 X120.527 Y145.114 E.11162
;WIDTH:0.449455
G1 X120.521 Y145.102 E.00064
;WIDTH:0.463183
G1 X119.353 Y143.045 E.11766
;WIDTH:0.461195
G1 X118.914 Y142.294 E.04305
;WIDTH:0.452915
G1 X117.38 Y139.784 E.14255
;WIDTH:0.431699
G1 X116.292 Y138.101 E.09181
;WIDTH:0.421709
G1 X116.286 Y138.091 E.00052
;WIDTH:0.421551
G1 X115.277 Y136.598 E.08027
;WIDTH:0.414669
G1 X115.165 Y136.435 E.00864
;WIDTH:0.410023
G1 X114.027 Y134.821 E.08514
;WIDTH:0.402231
G1 X114.012 Y134.801 E.00105
;WIDTH:0.401745
G1 X112.942 Y133.345 E.07603
;WIDTH:0.394791
G1 X112.826 Y133.191 E.00795
;WIDTH:0.390573
G1 X112.003 Y132.113 E.05518
;WIDTH:0.385305
G1 X111.608 Y131.604 E.02579
;WIDTH:0.372003
G1 X110.581 Y130.311 E.06336
;WIPE_START
G1 F6240
G1 X111.608 Y131.604 E-.52792
;WIPE_END
G1 E-.27208 F2100
G1 Z1.05 F7800
G1 X157.69 Y88.803
G1 Z.65
G1 E.8 F2100
;TYPE:Overhang perimeter
;WIDTH:0.4
;HEIGHT:0.4
G1 F900
G1 X157.406 Y89.046 E.01953
G1 X155.571 Y86.887 E.14803
G1 X155.836 Y86.66 E.01823
G1 X157.651 Y88.758 E.14493
G1 X158.315 Y88.937 F7800
G1 F900
G1 X157.996 Y89.039 E.0175
G1 X157.362 Y89.58 E.04354
G1 X155.054 Y86.845 E.18697
G1 X155.67 Y86.319 E.04232
G1 X155.808 Y86.061 E.01529
G1 X157.039 Y87.502 E.09902
G1 X158.275 Y88.892 E.09718
;WIPE_START
G1 F6240
G1 X158.315 Y88.937 E-.01925
G1 X157.996 Y89.039 E-.10707
G1 X157.362 Y89.58 E-.26646
G1 X156.541 Y88.607 E-.40722
;WIPE_END
G1 Z1.05 F7800
G1 X143.77 Y67.868
G1 Z.65
G1 E.8 F2100
G1 F3600
G1 X145.93 Y71.63 E.22664
;WIPE_START
G1 F6240
G1 X144.684 Y69.46 E-.8
;WIPE_END
G1 Z1.05 F7800
G1 X176.208 Y105.179
G1 Z.65
G1 E.8 F2100
;TYPE:External perimeter
;WIDTH:0.589661
;HEIGHT:0.3
G1 F1725
G1 X175.688 Y104.561 E.05291
;WIDTH:0.578688
G1 X175.477 Y104.381 E.01779
;TYPE:Overhang perimeter
;WIDTH:0.4
;HEIGHT:0.4
G1 F3600
G1 X175.233 Y104.173 E.01675
G1 X173.214 Y102.695 E.13073
G1 X171.132 Y101.097 E.13712
G1 X169.794 Y100.027 E.08951
G1 X168.705 Y99.126 E.07384
G1 X166.75 Y97.449 E.13457
G1 X165.38 Y96.218 E.09623
G1 X164.014 Y94.945 E.09755
G1 X162.516 Y93.494 E.10896
G1 X161.043 Y92.005 E.10943
G1 X160.003 Y90.916 E.07867
G1 X158.538 Y89.326 E.11295
G1 X158.392 Y89.282 E.00797
G1 X158.246 Y89.332 E.00806
G1 X157.318 Y90.125 E.06377
G1 X154.512 Y86.801 E.22727
G1 X155.419 Y86.026 E.06233
G1 X155.487 Y85.903 E.00734
G1 X155.462 Y85.745 E.00836
G1 X154.219 Y84.197 E.10372
G1 X153.201 Y82.881 E.08692
G1 X152.001 Y81.271 E.10491
M73 P1 R45
G1 X150.74 Y79.508 E.11324
G1 X149.659 Y77.926 E.1001
G1 X148.606 Y76.32 E.10033
G1 X147.538 Y74.625 E.10467
G1 X146.549 Y72.98 E.10028
G1 X146.006 Y72.047 E.0564
G1 X145.93 Y71.63 E.02214
G1 X146.26 Y71.896 E.02214
G1 X147.802 Y74.426 E.1548
G1 X148.896 Y76.128 E.10571
G1 X149.994 Y77.775 E.10342
G1 X151.049 Y79.291 E.09649
G1 X152.312 Y81.035 E.1125
G1 X153.519 Y82.629 E.10446
G1 X154.756 Y84.198 E.10438
G1 X155.796 Y85.475 E.08604
G1 X158.313 Y88.354 E.19979
G1 X158.868 Y89.018 E.04521
G1 X159.991 Y90.234 E.08648
G1 X161.373 Y91.676 E.10435
G1 X162.784 Y93.09 E.10436
G1 X164.345 Y94.589 E.11307
G1 X165.687 Y95.831 E.09553
G1 X167.081 Y97.075 E.09761
G1 X169.025 Y98.734 E.13352
G1 X170.312 Y99.788 E.08691
G1 X171.955 Y101.085 E.10936
G1 X173.525 Y102.283 E.10318
G1 X175.536 Y103.758 E.1303
G1 X176.166 Y104.306 E.04362
G1 X176.697 Y104.973 E.04454
G1 X176.961 Y105.437 E.02789
G1 X177.105 Y105.792 E.02001
G1 X177.295 Y106.356 E.03109
G1 X177.376 Y106.891 E.02827
G1 X177.368 Y107.364 E.02472
G1 X177.264 Y107.763 E.02154
G1 X177.076 Y107.975 E.0148
G1 X176.868 Y106.961 E.05408
;TYPE:External perimeter
;WIDTH:0.605449
;HEIGHT:0.3
G1 F1725
G1 X176.768 Y106.47 E.03382
G1 X176.488 Y105.697 E.05548
;WIDTH:0.604753
G1 X176.236 Y105.232 E.03565
M106 S170.85
;LAYER_CHANGE
;Z:0.95
;HEIGHT:0.3
;BEFORE_LAYER_CHANGE
G92 E0.0
;0.95


;WIPE_START
G1 F6240
G1 X176.208 Y105.179 E-.01916
G1 X175.688 Y104.561 E-.25822
;WIPE_END
G1 E-.52262 F2100
G1 Z.95 F7800
;AFTER_LAYER_CHANGE
;0.95
G1 Z1.35
G1 X110.262 Y129.547
G1 Z.95
G1 E.8 F2100
;TYPE:Perimeter
;WIDTH:0.45
G1 F900
G1 X109.266 Y128.35 E.0749
G1 X108.25 Y127.178 E.0746
G1 X108.553 Y127.111 E.01493
G1 X108.981 Y126.745 E.02709
G1 X110.805 Y128.88 E.13506
G1 X110.378 Y129.245 E.02702
G1 X110.283 Y129.491 E.01268
G1 X110.46 Y129.964 F7800
;WIDTH:0.461776
G1 F900
G1 X110.425 Y130.053 E.00474
;WIDTH:0.510281
G1 X110.467 Y130.213 E.0092
;WIDTH:0.558787
G1 X110.51 Y130.373 E.01022
G1 X110.381 Y130.251 E.01095
;WIDTH:0.510281
G1 X110.252 Y130.129 E.00987
;WIDTH:0.461776
G1 X109.595 Y129.349 E.05055
;WIDTH:0.45
G1 X108.233 Y127.748 E.1011
;WIDTH:0.484583
G1 X108.002 Y127.457 E.01947
;WIDTH:0.519166
G1 X107.77 Y127.166 E.02111
;WIDTH:0.553749
G1 X107.539 Y126.875 E.02268
G1 X107.652 Y126.914 E.0073
;WIDTH:0.520382
G1 X107.766 Y126.953 E.00685
;WIDTH:0.487016
G1 X108.303 Y126.818 E.02919
;WIDTH:0.45
G1 X109.024 Y126.201 E.04564
G1 X111.348 Y128.923 E.17214
G1 X110.628 Y129.538 E.04554
;WIDTH:0.461776
G1 X110.482 Y129.908 E.01972
G1 X110.813 Y130.003 F7800
;TYPE:External perimeter
;WIDTH:0.45
G1 F1800
G1 X110.853 Y130.098 E.00496
G1 X112.114 Y131.678 E.09723
G1 X113.194 Y133.085 E.08531
G1 X114.236 Y134.495 E.08432
G1 X115.607 Y136.429 E.11402
G1 X116.575 Y137.856 E.08293
G1 X117.491 Y139.258 E.08055
G1 X118.86 Y141.452 E.12438
G1 X120.384 Y144.05 E.14487
G1 X121.71 Y146.45 E.13188
G1 X122.996 Y148.914 E.13368
G1 X123.296 Y149.404 E.02763
G1 X123.636 Y149.815 E.02565
G1 X124.022 Y150.147 E.02449
G1 X124.5 Y150.489 E.02827
G1 X125.074 Y150.77 E.03074
G1 X127.322 Y151.62 E.11559
;TYPE:Overhang perimeter
;WIDTH:0.4
;HEIGHT:0.4
G1 F3600
G1 X127.421 Y151.657 E.00552
G1 X127.115 Y151.915 E.02091
G1 X126.859 Y152.01 E.01427
;TYPE:External perimeter
;WIDTH:0.45
;HEIGHT:0.3
G1 F1800
G1 X126.764 Y152.045 E.00487
G1 X126.322 Y152.061 E.02127
G1 X125.605 Y151.918 E.03516
G1 X125.083 Y151.755 E.0263
G1 X124.568 Y151.567 E.02637
G1 X124.023 Y151.289 E.02943
G1 X123.421 Y150.867 E.03536
G1 X122.867 Y150.334 E.03698
G1 X122.388 Y149.69 E.0386
