; generated by PrusaSlicer 2.7.1+linux-x64-GTK3 on 2024-02-20 at 15:20:40 UTC

; 

; external perimeters extrusion width = 0.45mm
; perimeters extrusion width = 0.45mm
; infill extrusion width = 0.45mm
; solid infill extrusion width = 0.45mm
; top infill extrusion width = 0.40mm
; first layer extrusion width = 0.42mm

M73 P0 R13
M201 X9000 Y9000 Z500 E10000 ; sets maximum accelerations, mm/sec^2
M203 X500 Y500 Z12 E120 ; sets maximum feedrates, mm / sec
M204 S2000 T1500 ; sets acceleration (S) and retract acceleration (R), mm/sec^2
M205 X10.00 Y10.00 Z0.20 E2.50 ; sets the jerk limits, mm/sec
M205 S0 T0 ; sets the minimum extruding and travel feed rate, mm/sec

; printing object Bittle_hookForCarryingCargoUnderBelly.stl id:0 copy 0
; stop printing object Bittle_hookForCarryingCargoUnderBelly.stl id:0 copy 0

;TYPE:Custom
M862.3 P "MK2S" ; printer model check
M862.1 P0.4 ; nozzle diameter check
M115 U3.2.3 ; tell printer latest fw version
G90 ; use absolute coordinates
M83 ; extruder relative mode
M204 S2000 T1500 ; MK2 firmware only supports the old M204 format
M104 S215 ; set extruder temp
M140 S60 ; set bed temp
M190 S60 ; wait for bed temp
M109 S215 ; wait for extruder temp
G28 W ; home all without mesh bed level
G80 ; mesh bed leveling
G1 Z0.2 F720
G1 Y-2 F1000 ; go outside print area
G92 E0
G1 X60 E9 F1000 ; intro line
G1 X100 E12.5 F1000 ; intro line
G92 E0
G21 ; set units to millimeters
G90 ; use absolute coordinates
M83 ; use relative distances for extrusion

M900 K0.05 ; Filament gcode LA 1.5
M900 K30 ; Filament gcode LA 1.0




M107
;LAYER_CHANGE
;Z:0.2
;HEIGHT:0.2
;BEFORE_LAYER_CHANGE
G92 E0.0
;0.2


G1 E-.8 F2100
G1 Z.2 F720
;AFTER_LAYER_CHANGE
;0.2
G1 X92.529 Y91.823 F10800
G1 Z.2 F720
G1 E.8 F2100
M204 S800
;TYPE:Skirt/Brim
;WIDTH:0.42
G1 F1200
G1 X94.079 Y90.496 E.06398
G1 X94.893 Y90.04 E.02925
G1 X96.287 Y89.589 E.04594
G1 X97.841 Y89.348 E.04931
G1 X100.431 Y89.365 E.08121
G1 X109.452 Y89.44 E.28286
G1 X150.554 Y93.893 E1.29627
G1 X151.262 Y94.055 E.02277
M73 P1 R13
G1 X151.936 Y94.416 E.02397
G1 X152.602 Y95.11 E.03016
G1 X162.005 Y109.323 E.53434
G1 X162.231 Y109.794 E.01638
G1 X162.44 Y110.663 E.02802
G1 X162.438 Y111.683 E.03198
G1 X162.274 Y112.356 E.02172
G1 X161.753 Y113.22 E.03163
G1 X159.233 Y115.586 E.10838
G1 X158.331 Y116.112 E.03274
G1 X157.461 Y116.322 E.02806
G1 X93.644 Y121.042 E2.0064
G1 X90.507 Y121.021 E.09836
G1 X89.262 Y120.79 E.0397
G1 X88.524 Y120.553 E.0243
G1 X86.954 Y119.76 E.05515
G1 X85.871 Y118.917 E.04303
G1 X83.453 Y116.663 E.10365
G1 X82.618 Y115.67 E.04068
G1 X82.114 Y114.832 E.03066
G1 X81.585 Y113.509 E.04467
G1 X81.285 Y111.827 E.05357
G1 X81.352 Y109.931 E.05948
G1 X81.568 Y108.868 E.03401
G1 X81.808 Y108.13 E.02433
G1 X82.261 Y107.144 E.03402
G1 X82.658 Y106.488 E.02404
G1 X92.096 Y92.311 E.534
G1 X92.489 Y91.868 E.01857
M73 P2 R13
M204 S1000
;WIPE_START
G1 F8640
G1 X92.529 Y91.823 E-.0139
G1 X94.079 Y90.496 E-.47115
G1 X94.893 Y90.04 E-.21544
G1 X95.303 Y89.907 E-.09951
;WIPE_END
G1 Z.6 F720
G1 X94.517 Y93.755 F10800
G1 Z.2 F720
G1 E.8 F2100
M204 S800
G1 F1200
G1 X95.122 Y93.104 E.02787
G1 X96.334 Y92.391 E.04409
G1 X97.834 Y92.023 E.04843
G1 X108.137 Y92.078 E.32305
G1 X109.279 Y92.216 E.03607
G1 X110.329 Y92.601 E.03507
G1 X111.423 Y93.363 E.0418
G1 X112.178 Y94.253 E.03659
G1 X112.687 Y95.239 E.03479
G1 X112.975 Y96.512 E.04092
G1 X112.998 Y98.346 E.05751
G1 X112.627 Y99.99 E.05284
G1 X111.687 Y101.531 E.0566
G1 X110.535 Y102.511 E.04742
G1 X110.022 Y102.744 E.01767
G1 X110.023 Y104.487 E.05465
G1 X115.23 Y104.516 E.16326
G1 X116.845 Y104.726 E.05106
M73 P2 R12
G1 X123.636 Y104.801 E.21294
G1 X126.969 Y104.931 E.10458
G1 X128.075 Y105.254 E.03613
G1 X129.506 Y106.183 E.05349
G1 X130.391 Y107.31 E.04493
G1 X130.916 Y108.667 E.04562
G1 X131.008 Y109.44 E.02441
G1 X130.939 Y111.692 E.07064
G1 X130.605 Y112.749 E.03476
G1 X129.865 Y113.941 E.04399
G1 X129.024 Y114.709 E.03571
G1 X128.56 Y115.027 E.01764
G1 X127.022 Y115.565 E.05109
G1 X121.162 Y115.904 E.18404
G1 X115.423 Y116 E.17997
G1 X113.739 Y115.536 E.05477
G1 X112.678 Y114.813 E.04026
G1 X106.126 Y114.813 E.20543
G1 X104.424 Y114.629 E.05368
G1 X102.759 Y114.614 E.05221
G1 X101.744 Y114.634 E.03183
G1 X100.456 Y114.805 E.04074
G1 X98.244 Y114.809 E.06936
G1 X97.621 Y116.022 E.04276
G1 X96.65 Y117.105 E.04561
G1 X95.34 Y117.928 E.04851
G1 X93.613 Y118.382 E.05599
G1 X91 Y118.387 E.08193
G1 X90.03 Y118.234 E.03079
G1 X89.081 Y117.904 E.0315
G1 X87.522 Y116.8 E.0599
G1 X86.749 Y115.751 E.04086
G1 X86.232 Y115.5 E.01802
G1 X85.278 Y114.711 E.03882
G1 X84.454 Y113.524 E.04531
G1 X84.038 Y112.293 E.04074
G1 X83.952 Y110.773 E.04773
G1 X84.109 Y109.69 E.03431
G1 X84.499 Y108.622 E.03565
G1 X85.113 Y107.645 E.03618
G1 X86.021 Y106.742 E.04015
G1 X87.125 Y106.069 E.04054
G1 X87.566 Y105.923 E.01457
G1 X88.807 Y105.104 E.04662
G1 X90.127 Y104.683 E.04344
G1 X92.064 Y104.441 E.06121
G1 X96.312 Y104.416 E.1332
G1 X96.313 Y102.83 E.04973
G1 X94.68 Y101.63 E.06354
G1 X93.806 Y100.305 E.04977
G1 X93.363 Y98.807 E.04898
G1 X93.317 Y96.663 E.06724
G1 X93.602 Y95.278 E.04434
G1 X94.225 Y94.068 E.04267
G1 X94.476 Y93.798 E.01156
M204 S1000
G1 X94.752 Y94.052 F10800
M204 S800
G1 F1200
G1 X95.338 Y93.415 E.02714
G1 X96.501 Y92.731 E.0423
G1 X97.9 Y92.395 E.04511
G1 X108.125 Y92.455 E.3206
M73 P3 R12
G1 X109.17 Y92.577 E.03299
G1 X110.175 Y92.946 E.03357
G1 X111.185 Y93.657 E.03873
G1 X111.875 Y94.478 E.03363
G1 X112.34 Y95.388 E.03204
G1 X112.602 Y96.573 E.03805
G1 X112.62 Y98.327 E.055
G1 X112.267 Y99.876 E.04981
G1 X111.42 Y101.263 E.05096
G1 X110.313 Y102.205 E.04558
G1 X109.645 Y102.494 E.02282
G1 X109.646 Y104.861 E.07422
G1 X115.218 Y104.893 E.17471
G1 X116.811 Y105.102 E.05038
G1 X123.629 Y105.178 E.21379
G1 X126.931 Y105.307 E.10361
G1 X127.895 Y105.587 E.03147
G1 X129.23 Y106.441 E.04969
G1 X130.077 Y107.52 E.04301
G1 X130.545 Y108.735 E.04082
G1 X130.631 Y109.445 E.02242
G1 X130.571 Y111.606 E.06778
G1 X130.271 Y112.571 E.03169
G1 X129.559 Y113.719 E.04236
G1 X128.369 Y114.7 E.04836
G1 X126.924 Y115.2 E.04794
G1 X121.152 Y115.527 E.18127
G1 X115.444 Y115.623 E.179
G1 X113.869 Y115.181 E.05129
G1 X113.098 Y114.694 E.02859
G1 X112.833 Y114.436 E.0116
G1 X106.134 Y114.436 E.21004
G1 X104.453 Y114.252 E.05302
G1 X102.757 Y114.237 E.05318
G1 X101.715 Y114.257 E.03268
G1 X100.443 Y114.428 E.04024
G1 X97.945 Y114.433 E.07832
G1 X97.323 Y115.791 E.04683
G1 X96.425 Y116.801 E.04237
G1 X95.214 Y117.572 E.04501
G1 X93.588 Y118.005 E.05276
G1 X91.014 Y118.01 E.08071
G1 X90.135 Y117.872 E.0279
G1 X89.276 Y117.58 E.02845
G1 X87.765 Y116.511 E.05803
G1 X86.997 Y115.451 E.04104
G1 X86.453 Y115.193 E.01888
G1 X85.539 Y114.437 E.03719
G1 X84.802 Y113.376 E.04051
G1 X84.413 Y112.246 E.03747
G1 X84.33 Y110.771 E.04632
G1 X84.471 Y109.8 E.03076
G1 X84.829 Y108.806 E.03313
G1 X85.421 Y107.865 E.03486
G1 X86.269 Y107.027 E.03738
G1 X87.299 Y106.404 E.03774
G1 X87.755 Y106.259 E.015
G1 X88.061 Y105.991 E.01275
G1 X88.943 Y105.456 E.03234
G1 X90.222 Y105.049 E.04208
G1 X92.11 Y104.815 E.05965
G1 X96.689 Y104.794 E.14357
G1 X96.69 Y102.568 E.06979
G1 X96.298 Y102.411 E.01324
G1 X94.976 Y101.394 E.0523
G1 X94.159 Y100.17 E.04614
G1 X93.731 Y98.724 E.04728
G1 X93.69 Y96.717 E.06294
G1 X93.95 Y95.426 E.04129
G1 X94.521 Y94.304 E.03947
G1 X94.711 Y94.096 E.00883
M204 S1000
G1 X94.989 Y94.348 F10800
M204 S800
G1 F1200
G1 X95.554 Y93.725 E.02637
G1 X96.667 Y93.071 E.04048
G1 X97.963 Y92.767 E.04174
G1 X108.112 Y92.832 E.31822
G1 X109.103 Y92.949 E.03129
G1 X110.021 Y93.291 E.03072
G1 X110.912 Y93.918 E.03416
G1 X111.572 Y94.704 E.03218
G1 X111.992 Y95.536 E.02922
G1 X112.23 Y96.633 E.0352
G1 X112.243 Y98.307 E.05249
G1 X111.906 Y99.762 E.04683
G1 X111.153 Y100.995 E.0453
G1 X110.092 Y101.898 E.04368
M73 P4 R12
G1 X109.267 Y102.241 E.02801
G1 X109.269 Y105.236 E.09391
G1 X115.206 Y105.27 E.18615
G1 X116.778 Y105.479 E.04972
G1 X123.622 Y105.555 E.2146
G1 X126.894 Y105.683 E.10267
G1 X127.717 Y105.92 E.02685
G1 X128.955 Y106.701 E.0459
G1 X129.736 Y107.685 E.03939
G1 X130.174 Y108.805 E.03771
G1 X130.253 Y109.45 E.02037
G1 X130.203 Y111.522 E.06499
G1 X129.938 Y112.394 E.02858
G1 X129.254 Y113.497 E.04069
G1 X128.179 Y114.374 E.0435
G1 X126.827 Y114.835 E.04479
G1 X121.142 Y115.15 E.17852
G1 X115.466 Y115.245 E.17799
G1 X114 Y114.827 E.0478
G1 X113.321 Y114.389 E.02533
G1 X112.99 Y114.059 E.01465
G1 X106.141 Y114.059 E.21475
G1 X104.482 Y113.875 E.05234
G1 X102.755 Y113.859 E.05415
G1 X101.685 Y113.881 E.03356
G1 X100.429 Y114.051 E.03974
G1 X97.643 Y114.056 E.08735
G1 X97.52 Y114.569 E.01654
G1 X96.998 Y115.599 E.03621
G1 X96.199 Y116.499 E.03773
G1 X95.086 Y117.215 E.04149
G1 X93.562 Y117.628 E.04951
G1 X91.028 Y117.633 E.07945
G1 X90.238 Y117.509 E.02507
G1 X89.471 Y117.255 E.02533
G1 X88.01 Y116.222 E.0561
G1 X87.246 Y115.15 E.04127
G1 X86.674 Y114.887 E.01974
G1 X85.799 Y114.163 E.03561
G1 X85.149 Y113.227 E.03573
G1 X84.788 Y112.197 E.03422
G1 X84.707 Y110.768 E.04488
G1 X84.832 Y109.908 E.02725
G1 X85.16 Y108.989 E.03059
G1 X85.728 Y108.084 E.0335
G1 X86.517 Y107.312 E.03461
G1 X87.472 Y106.74 E.0349
G1 X87.945 Y106.595 E.01551
G1 X88.273 Y106.303 E.01377
G1 X89.079 Y105.808 E.02966
G1 X90.316 Y105.414 E.04071
G1 X92.932 Y105.16 E.08241
G1 X97.065 Y105.173 E.12959
G1 X97.068 Y102.302 E.09002
G1 X96.501 Y102.092 E.01896
G1 X95.271 Y101.158 E.04842
G1 X94.489 Y99.986 E.04418
G1 X94.101 Y98.644 E.0438
G1 X94.064 Y96.769 E.0588
G1 X94.299 Y95.571 E.03828
G1 X94.818 Y94.537 E.03628
G1 X94.949 Y94.393 E.0061
M204 S1000
G1 X95.223 Y94.644 F10800
M204 S800
G1 F1200
G1 X95.812 Y94.002 E.02732
G1 X96.831 Y93.411 E.03693
G1 X97.983 Y93.144 E.03708
G1 X108.1 Y93.209 E.31722
G1 X108.993 Y93.311 E.02818
G1 X109.865 Y93.636 E.02918
G1 X110.673 Y94.21 E.03108
G1 X111.267 Y94.927 E.02919
G1 X111.644 Y95.682 E.02646
G1 X111.857 Y96.692 E.03236
G1 X111.866 Y98.288 E.05004
G1 X111.568 Y99.594 E.042
G1 X110.884 Y100.728 E.04152
G1 X109.872 Y101.59 E.04168
G1 X108.89 Y101.985 E.03319
G1 X108.893 Y105.611 E.11369
G1 X115.194 Y105.647 E.19757
G1 X116.745 Y105.856 E.04907
G1 X123.61 Y105.932 E.21526
G1 X126.855 Y106.059 E.10182
G1 X127.585 Y106.274 E.02386
M73 P5 R12
G1 X128.682 Y106.963 E.04062
G1 X129.396 Y107.851 E.03573
G1 X129.803 Y108.877 E.03461
G1 X129.876 Y109.456 E.0183
G1 X129.834 Y111.439 E.06219
G1 X129.603 Y112.219 E.02551
G1 X128.982 Y113.234 E.03731
G1 X127.991 Y114.046 E.04017
G1 X126.732 Y114.469 E.04164
G1 X121.132 Y114.773 E.17584
G1 X115.541 Y114.875 E.17533
G1 X114.18 Y114.494 E.04431
G1 X113.543 Y114.084 E.02375
G1 X113.15 Y113.682 E.01763
G1 X106.148 Y113.682 E.21954
G1 X104.511 Y113.498 E.05165
G1 X102.753 Y113.482 E.05512
G1 X101.656 Y113.504 E.0344
G1 X100.416 Y113.674 E.03924
G1 X97.339 Y113.68 E.09648
G1 X97.172 Y114.421 E.02382
G1 X96.672 Y115.407 E.03466
G1 X95.971 Y116.197 E.03312
G1 X94.957 Y116.86 E.03799
G1 X93.536 Y117.251 E.04621
G1 X91.072 Y117.258 E.07726
G1 X90.312 Y117.139 E.02412
G1 X89.617 Y116.907 E.02297
G1 X88.256 Y115.935 E.05244
G1 X87.496 Y114.848 E.04159
G1 X86.894 Y114.579 E.02067
G1 X86.06 Y113.89 E.03392
G1 X85.475 Y113.036 E.03246
G1 X85.153 Y112.1 E.03104
G1 X85.083 Y110.803 E.04073
G1 X85.194 Y110.015 E.02495
G1 X85.49 Y109.171 E.02804
G1 X86.035 Y108.305 E.03208
G1 X86.762 Y107.599 E.03177
G1 X87.643 Y107.077 E.03211
G1 X88.133 Y106.934 E.016
G1 X88.486 Y106.615 E.01492
G1 X89.256 Y106.142 E.02833
G1 X90.408 Y105.781 E.03785
G1 X92.943 Y105.537 E.07985
G1 X97.442 Y105.551 E.14106
G1 X97.445 Y102.032 E.11034
G1 X96.702 Y101.772 E.02468
G1 X95.565 Y100.92 E.04455
G1 X94.842 Y99.85 E.04049
G1 X94.477 Y98.611 E.0405
G1 X94.442 Y96.783 E.05733
G1 X94.663 Y95.671 E.03555
G1 X95.142 Y94.732 E.03305
G1 X95.182 Y94.688 E.00186
M204 S1000
G1 X95.464 Y94.929 F10800
M204 S800
G1 F1200
G1 X96.068 Y94.279 E.02782
G1 X96.945 Y93.772 E.03176
G1 X98.003 Y93.521 E.03409
G1 X108.087 Y93.586 E.31618
G1 X108.927 Y93.682 E.02651
G1 X109.707 Y93.979 E.02617
G1 X110.431 Y94.501 E.02799
G1 X110.961 Y95.148 E.02622
G1 X111.295 Y95.826 E.0237
G1 X111.48 Y96.713 E.02841
G1 X111.489 Y98.269 E.04879
G1 X111.228 Y99.428 E.03725
G1 X110.616 Y100.462 E.03767
G1 X109.652 Y101.282 E.03968
G1 X108.513 Y101.725 E.03832
G1 X108.516 Y105.986 E.1336
G1 X115.182 Y106.024 E.20901
G1 X116.733 Y106.233 E.04907
G1 X123.598 Y106.309 E.21526
G1 X126.816 Y106.435 E.10098
G1 X127.452 Y106.627 E.02083
G1 X128.41 Y107.226 E.03543
G1 X129.058 Y108.019 E.03211
G1 X129.432 Y108.95 E.03146
G1 X129.499 Y109.464 E.01625
G1 X129.465 Y111.36 E.05946
G1 X129.267 Y112.047 E.02242
G1 X128.71 Y112.971 E.03383
G1 X127.804 Y113.718 E.03682
G1 X126.686 Y114.094 E.03698
G1 X121.115 Y114.396 E.17493
G1 X115.561 Y114.497 E.17417
G1 X114.36 Y114.162 E.03909
G1 X113.767 Y113.779 E.02213
G1 X113.312 Y113.305 E.0206
G1 X106.156 Y113.305 E.22437
G1 X104.541 Y113.121 E.05096
M73 P6 R12
G1 X102.751 Y113.105 E.05613
G1 X101.626 Y113.128 E.03528
G1 X100.402 Y113.297 E.03874
G1 X97.033 Y113.304 E.10563
G1 X96.824 Y114.273 E.03108
G1 X96.347 Y115.213 E.03305
G1 X95.707 Y115.927 E.03006
G1 X94.827 Y116.505 E.03301
G1 X93.508 Y116.874 E.04294
G1 X91.114 Y116.883 E.07506
G1 X90.416 Y116.776 E.02214
G1 X89.764 Y116.558 E.02156
G1 X88.503 Y115.648 E.04876
G1 X87.801 Y114.569 E.04036
G1 X87.112 Y114.271 E.02354
G1 X86.322 Y113.617 E.03216
G1 X85.803 Y112.847 E.02911
G1 X85.519 Y112.005 E.02786
G1 X85.459 Y110.836 E.0367
G1 X85.557 Y110.119 E.02269
G1 X85.822 Y109.351 E.02547
G1 X86.314 Y108.559 E.02923
G1 X87.008 Y107.886 E.03031
G1 X87.811 Y107.416 E.02917
G1 X88.322 Y107.273 E.01664
G1 X88.699 Y106.926 E.01607
G1 X89.433 Y106.476 E.02699
G1 X90.498 Y106.147 E.03495
G1 X92.953 Y105.914 E.07732
G1 X97.819 Y105.929 E.15257
G1 X97.822 Y101.76 E.13072
G1 X96.901 Y101.45 E.03047
G1 X95.858 Y100.68 E.04065
G1 X95.194 Y99.713 E.03678
G1 X94.854 Y98.577 E.03718
G1 X94.819 Y96.796 E.05585
G1 X95.027 Y95.773 E.03273
G1 X95.436 Y94.983 E.02789
M204 S1000
G1 X95.769 Y95.158 F10800
M204 S800
G1 F1200
G1 X95.785 Y95.129 E.00104
G1 X96.322 Y94.56 E.02453
G1 X97.107 Y94.113 E.02832
G1 X98.023 Y93.899 E.02949
G1 X108.076 Y93.963 E.31521
G1 X108.816 Y94.044 E.02334
G1 X109.549 Y94.322 E.02458
G1 X110.188 Y94.79 E.02483
G1 X110.654 Y95.367 E.02325
G1 X110.945 Y95.969 E.02096
G1 X111.103 Y96.733 E.02446
G1 X111.112 Y98.25 E.04757
G1 X110.887 Y99.265 E.0326
G1 X110.346 Y100.196 E.03376
G1 X109.433 Y100.973 E.03759
G1 X108.135 Y101.412 E.04296
G1 X108.139 Y106.361 E.15517
G1 X115.17 Y106.401 E.22046
G1 X116.714 Y106.61 E.04885
G1 X123.586 Y106.685 E.21548
G1 X126.775 Y106.81 E.10007
G1 X127.316 Y106.98 E.01778
G1 X128.14 Y107.491 E.0304
G1 X128.72 Y108.189 E.02845
G1 X129.062 Y109.025 E.02832
G1 X129.122 Y109.473 E.01417
G1 X129.095 Y111.283 E.05676
G1 X128.929 Y111.877 E.01934
G1 X128.437 Y112.709 E.03031
G1 X127.618 Y113.389 E.03338
G1 X126.64 Y113.719 E.03236
G1 X121.098 Y114.019 E.17402
G1 X115.582 Y114.12 E.17298
G1 X114.541 Y113.829 E.03389
G1 X113.991 Y113.475 E.02051
G1 X113.476 Y112.928 E.02356
G1 X106.164 Y112.928 E.22926
G1 X104.57 Y112.744 E.05031
G1 X102.753 Y112.728 E.05697
G1 X101.583 Y112.753 E.03669
G1 X100.388 Y112.92 E.03783
G1 X96.658 Y112.927 E.11695
G1 X96.476 Y114.125 E.03799
G1 X96.023 Y115.02 E.03145
G1 X95.444 Y115.656 E.02697
G1 X94.695 Y116.151 E.02815
G1 X93.48 Y116.497 E.03961
G1 X91.154 Y116.508 E.07293
G1 X90.519 Y116.413 E.02013
G1 X89.912 Y116.21 E.02007
G1 X88.753 Y115.364 E.04499
G1 X88.096 Y114.282 E.03969
G1 X87.33 Y113.962 E.02603
G1 X86.584 Y113.344 E.03037
M73 P7 R12
G1 X86.132 Y112.661 E.02568
G1 X85.885 Y111.912 E.02473
G1 X85.835 Y110.869 E.03274
G1 X85.92 Y110.222 E.02046
G1 X86.155 Y109.529 E.02294
G1 X86.596 Y108.811 E.02642
G1 X87.219 Y108.199 E.02738
G1 X87.978 Y107.755 E.02757
G1 X88.51 Y107.614 E.01726
G1 X88.913 Y107.237 E.0173
G1 X89.61 Y106.81 E.02563
G1 X90.546 Y106.522 E.03071
G1 X92.962 Y106.291 E.0761
G1 X98.196 Y106.308 E.16411
G1 X98.2 Y101.484 E.15125
G1 X97.097 Y101.126 E.03636
G1 X96.148 Y100.437 E.03677
G1 X95.546 Y99.573 E.03302
G1 X95.23 Y98.543 E.03378
G1 X95.196 Y96.811 E.05432
G1 X95.391 Y95.876 E.02995
