; generated by PrusaSlicer 2.7.1+linux-x64-GTK3 on 2024-02-20 at 15:22:45 UTC

; 

; external perimeters extrusion width = 0.45mm
; perimeters extrusion width = 0.45mm
; infill extrusion width = 0.45mm
; solid infill extrusion width = 0.45mm
; top infill extrusion width = 0.40mm
; first layer extrusion width = 0.42mm

M73 P0 R21
M201 X9000 Y9000 Z500 E10000 ; sets maximum accelerations, mm/sec^2
M203 X500 Y500 Z12 E120 ; sets maximum feedrates, mm / sec
M204 S2000 T1500 ; sets acceleration (S) and retract acceleration (R), mm/sec^2
M205 X10.00 Y10.00 Z0.20 E2.50 ; sets the jerk limits, mm/sec
M205 S0 T0 ; sets the minimum extruding and travel feed rate, mm/sec

; printing object Bittle_shank.stl id:0 copy 0
; stop printing object Bittle_shank.stl id:0 copy 0

;TYPE:Custom
M862.3 P "MK2S" ; printer model check
M862.1 P0.4 ; nozzle diameter check
M115 U3.2.3 ; tell printer latest fw version
G90 ; use absolute coordinates
M83 ; extruder relative mode
M204 S2000 T1500 ; MK2 firmware only supports the old M204 format
M104 S215 ; set extruder temp
M140 S60 ; set bed temp
M190 S60 ; wait for bed temp
M109 S215 ; wait for extruder temp
G28 W ; home all without mesh bed level
G80 ; mesh bed leveling
G1 Z0.2 F720
G1 Y-2 F1000 ; go outside print area
G92 E0
G1 X60 E9 F1000 ; intro line
G1 X100 E12.5 F1000 ; intro line
G92 E0
G21 ; set units to millimeters
G90 ; use absolute coordinates
M83 ; use relative distances for extrusion

M900 K0.05 ; Filament gcode LA 1.5
M900 K30 ; Filament gcode LA 1.0




M107
;LAYER_CHANGE
;Z:0.2
;HEIGHT:0.2
;BEFORE_LAYER_CHANGE
G92 E0.0
;0.2


G1 E-.8 F2100
G1 Z.2 F720
;AFTER_LAYER_CHANGE
;0.2
G1 X90.641 Y92.636 F10800
G1 Z.2 F720
G1 E.8 F2100
M204 S800
;TYPE:Skirt/Brim
;WIDTH:0.42
G1 F1200
G1 X91.499 Y91.905 E.03534
G1 X92.225 Y91.389 E.02793
G1 X93.291 Y90.778 E.03852
G1 X94.371 Y90.315 E.03684
G1 X95.515 Y89.976 E.03741
G1 X96.491 Y89.802 E.03108
G1 X97.76 Y89.727 E.03986
G1 X119.935 Y89.977 E.69533
G1 X123.332 Y90.161 E.10667
G1 X124.365 Y90.352 E.03294
G1 X153.746 Y97.335 E.94688
G1 X154.879 Y97.781 E.03818
G1 X155.816 Y98.325 E.03397
G1 X156.394 Y98.758 E.02264
G1 X157.41 Y99.833 E.04638
G1 X158.156 Y101.078 E.04551
G1 X158.592 Y102.209 E.03801
G1 X158.808 Y103.334 E.03592
G1 X158.808 Y104.866 E.04803
G1 X158.592 Y105.991 E.03592
G1 X158.286 Y106.86 E.02889
G1 X157.619 Y108.06 E.04305
G1 X156.868 Y108.996 E.03763
G1 X155.816 Y109.875 E.04298
G1 X154.228 Y110.709 E.05624
G1 X126.676 Y117.498 E.88971
G1 X120.712 Y118.396 E.1891
G1 X106.017 Y120.105 E.46386
G1 X103.802 Y120.221 E.06954
M73 P1 R21
G1 X97.327 Y120.268 E.20302
G1 X96.199 Y120.159 E.03553
G1 X95.013 Y119.88 E.0382
G1 X94.221 Y119.586 E.02649
G1 X93.193 Y119.046 E.03641
G1 X92.071 Y118.287 E.04247
G1 X91.042 Y117.458 E.04143
G1 X89.508 Y115.817 E.07043
G1 X88.232 Y113.853 E.07344
G1 X87.24 Y111.612 E.07684
G1 X86.528 Y109.031 E.08395
G1 X86.307 Y107.698 E.04237
G1 X86.15 Y105.877 E.05731
G1 X86.214 Y103.137 E.08593
G1 X86.607 Y100.594 E.08068
G1 X87.431 Y97.418 E.10288
G1 X88.288 Y95.637 E.06197
G1 X88.971 Y94.569 E.03975
G1 X89.719 Y93.605 E.03826
G1 X90.6 Y92.679 E.04008
M204 S1000
;WIPE_START
G1 F8640
G1 X90.641 Y92.636 E-.01372
G1 X91.499 Y91.905 E-.26027
G1 X92.225 Y91.389 E-.20566
G1 X93.291 Y90.778 E-.28371
G1 X93.437 Y90.715 E-.03664
;WIPE_END
G1 Z.6 F720
G1 X92.484 Y94.56 F10800
G1 Z.2 F720
G1 E.8 F2100
M204 S800
G1 F1200
G1 X93.202 Y93.956 E.02942
G1 X93.97 Y93.439 E.02903
G1 X95.274 Y92.82 E.04526
G1 X96.072 Y92.582 E.02611
G1 X97.703 Y92.39 E.05149
G1 X109.534 Y92.49 E.37097
G1 X119.893 Y92.64 E.32483
G1 X122.75 Y92.773 E.08968
G1 X124.223 Y93.065 E.04708
G1 X125.306 Y93.457 E.03611
G1 X126.172 Y93.977 E.03167
G1 X126.929 Y94.686 E.03252
G1 X127.784 Y96.174 E.05381
G1 X128.07 Y97.851 E.05334
G1 X127.778 Y99.588 E.05523
G1 X127.515 Y100.122 E.01866
G1 X128.018 Y101.618 E.04949
G1 X128.056 Y106.301 E.14684
G1 X127.665 Y107.745 E.04691
G1 X127.505 Y108.034 E.01036
G1 X127.742 Y108.521 E.01698
G1 X128.058 Y110.092 E.05024
G1 X128.022 Y111.187 E.03435
G1 X127.665 Y112.412 E.04001
G1 X126.992 Y113.511 E.04041
G1 X125.786 Y114.563 E.05018
G1 X124.324 Y115.166 E.04959
G1 X120.409 Y115.75 E.12411
G1 X106.491 Y117.39 E.43941
G1 X103.756 Y117.558 E.08592
G1 X97.501 Y117.605 E.19613
G1 X96.52 Y117.508 E.03091
G1 X95.36 Y117.169 E.03789
G1 X94.048 Y116.432 E.04718
G1 X92.688 Y115.356 E.05437
G1 X92.079 Y114.739 E.02718
G1 X91.113 Y113.489 E.04953
G1 X90.625 Y112.677 E.0297
G1 X90.205 Y111.843 E.02928
G1 X89.635 Y110.388 E.049
G1 X89.323 Y109.319 E.03492
G1 X89.028 Y107.892 E.04569
G1 X88.812 Y105.783 E.06647
G1 X88.8 Y104.575 E.03788
G1 X88.927 Y102.809 E.05551
G1 X89.084 Y101.783 E.03254
G1 X89.869 Y98.525 E.10508
G1 X90.236 Y97.632 E.03027
G1 X91.081 Y96.2 E.05213
G1 X91.77 Y95.304 E.03544
G1 X92.443 Y94.603 E.03047
M204 S1000
G1 X92.715 Y94.864 F10800
M204 S800
G1 F1200
G1 X92.749 Y94.828 E.00155
G1 X94.145 Y93.773 E.05486
G1 X95.423 Y93.167 E.04435
G1 X96.15 Y92.951 E.02378
G1 X97.707 Y92.767 E.04916
G1 X119.885 Y93.017 E.69542
G1 X122.703 Y93.147 E.08845
G1 X124.124 Y93.429 E.04542
G1 X125.16 Y93.805 E.03456
G1 X125.959 Y94.288 E.02927
G1 X126.65 Y94.941 E.02981
G1 X127.418 Y96.27 E.04813
G1 X127.693 Y97.882 E.05127
G1 X127.412 Y99.493 E.05127
G1 X127.067 Y100.165 E.02368
G1 X127.231 Y100.423 E.00959
G1 X127.641 Y101.65 E.04056
G1 X127.679 Y106.277 E.14508
G1 X127.309 Y107.618 E.04362
G1 X127.073 Y108.019 E.01459
G1 X127.378 Y108.622 E.02119
G1 X127.684 Y110.144 E.04868
G1 X127.646 Y111.149 E.03153
G1 X127.311 Y112.279 E.03695
G1 X126.687 Y113.289 E.03722
G1 X125.612 Y114.227 E.04473
G1 X124.245 Y114.797 E.04644
G1 X120.362 Y115.376 E.12309
G1 X106.458 Y117.014 E.43896
G1 X103.749 Y117.18 E.0851
G1 X97.528 Y117.229 E.19506
G1 X96.609 Y117.141 E.02895
G1 X95.487 Y116.813 E.03665
G1 X94.245 Y116.11 E.04475
G1 X92.939 Y115.074 E.05227
G1 X91.871 Y113.903 E.04969
G1 X90.952 Y112.489 E.05288
G1 X90.25 Y110.983 E.0521
G1 X89.69 Y109.23 E.0577
G1 X89.263 Y106.799 E.07739
M73 P2 R21
G1 X89.178 Y104.577 E.06972
G1 X89.302 Y102.852 E.05423
G1 X89.6 Y101.143 E.05439
G1 X90.224 Y98.653 E.08049
G1 X90.934 Y97.135 E.05254
G1 X92.05 Y95.558 E.06057
G1 X92.673 Y94.907 E.02825
M204 S1000
G1 X92.962 Y95.212 F10800
M204 S800
G1 F1200
G1 X93.642 Y94.569 E.02934
G1 X94.32 Y94.108 E.02571
G1 X95.571 Y93.514 E.04342
G1 X96.229 Y93.32 E.02151
G1 X97.711 Y93.144 E.04679
G1 X109.526 Y93.244 E.37046
G1 X119.876 Y93.394 E.32455
G1 X122.656 Y93.522 E.08726
G1 X124.024 Y93.793 E.04373
G1 X125.013 Y94.153 E.033
G1 X125.745 Y94.599 E.02688
G1 X126.369 Y95.194 E.02703
G1 X127.073 Y96.427 E.04452
G1 X127.316 Y97.909 E.04709
G1 X127.047 Y99.396 E.04738
G1 X126.625 Y100.191 E.02822
G1 X126.883 Y100.572 E.01443
G1 X127.264 Y101.684 E.03686
G1 X127.302 Y106.253 E.14326
G1 X126.953 Y107.488 E.04024
G1 X126.638 Y108.004 E.01896
G1 X127.014 Y108.723 E.02544
G1 X127.309 Y110.196 E.0471
G1 X127.271 Y111.109 E.02865
G1 X126.977 Y112.102 E.03247
G1 X126.381 Y113.065 E.03551
G1 X125.389 Y113.921 E.04108
G1 X124.167 Y114.427 E.04147
G1 X120.314 Y115.001 E.12214
G1 X106.425 Y116.639 E.4385
G1 X103.743 Y116.803 E.08425
G1 X97.553 Y116.853 E.19409
G1 X96.697 Y116.773 E.02696
G1 X95.614 Y116.457 E.03537
G1 X94.442 Y115.789 E.0423
G1 X93.19 Y114.792 E.05018
G1 X92.627 Y114.221 E.02514
G1 X91.736 Y113.063 E.04581
G1 X91.279 Y112.301 E.02786
G1 X90.895 Y111.537 E.02681
G1 X90.349 Y110.144 E.04691
G1 X89.774 Y107.783 E.07619
G1 X89.565 Y105.741 E.06436
G1 X89.555 Y104.58 E.0364
G1 X89.676 Y102.895 E.05297
G1 X89.828 Y101.906 E.03137
G1 X90.579 Y98.782 E.10074
G1 X90.909 Y97.973 E.02739
G1 X91.709 Y96.618 E.04934
G1 X92.329 Y95.811 E.03191
G1 X92.918 Y95.254 E.02542
M204 S1000
G1 X93.162 Y95.487 F10800
M204 S800
G1 F1200
G1 X93.28 Y95.365 E.00532
G1 X94.495 Y94.442 E.04784
G1 X95.719 Y93.862 E.04247
G1 X96.308 Y93.689 E.01925
G1 X97.714 Y93.522 E.04439
G1 X119.868 Y93.771 E.69467
G1 X122.608 Y93.896 E.086
G1 X123.925 Y94.157 E.0421
G1 X124.865 Y94.5 E.03137
G1 X125.53 Y94.909 E.02448
G1 X126.087 Y95.446 E.02426
G1 X126.728 Y96.582 E.0409
G1 X126.938 Y97.934 E.0429
G1 X126.682 Y99.295 E.04342
G1 X126.18 Y100.218 E.03294
G1 X126.537 Y100.724 E.01942
G1 X126.887 Y101.719 E.03307
G1 X126.925 Y106.228 E.14138
G1 X126.599 Y107.356 E.03682
G1 X126.2 Y107.988 E.02343
G1 X126.65 Y108.826 E.02982
G1 X126.935 Y110.246 E.04541
G1 X126.895 Y111.068 E.0258
G1 X126.643 Y111.926 E.02804
G1 X126.077 Y112.841 E.03373
G1 X125.169 Y113.614 E.03739
G1 X124.089 Y114.057 E.0366
G1 X120.267 Y114.627 E.12116
G1 X106.392 Y116.263 E.43805
G1 X103.736 Y116.426 E.08343
G1 X97.576 Y116.476 E.19315
G1 X96.784 Y116.406 E.02493
G1 X95.741 Y116.102 E.03406
G1 X94.66 Y115.48 E.0391
G1 X93.441 Y114.511 E.04883
G1 X92.477 Y113.453 E.04488
G1 X91.606 Y112.113 E.05011
G1 X90.956 Y110.717 E.04828
G1 X90.422 Y109.05 E.05488
G1 X90.015 Y106.734 E.07373
G1 X89.932 Y104.582 E.06752
G1 X90.051 Y102.938 E.05168
G1 X90.332 Y101.324 E.05137
G1 X90.934 Y98.91 E.07801
G1 X91.578 Y97.528 E.04781
G1 X92.609 Y96.065 E.05612
G1 X93.121 Y95.53 E.02322
M204 S1000
G1 X93.393 Y95.791 F10800
M204 S800
G1 F1200
G1 X93.545 Y95.633 E.00687
G1 X94.695 Y94.762 E.04523
G1 X95.839 Y94.219 E.0397
G1 X96.982 Y93.946 E.03685
G1 X97.718 Y93.899 E.02312
G1 X109.519 Y93.998 E.37003
G1 X119.86 Y94.148 E.32427
G1 X122.561 Y94.27 E.08477
G1 X123.825 Y94.52 E.0404
G1 X124.717 Y94.848 E.0298
M73 P3 R21
G1 X125.283 Y95.195 E.02082
G1 X125.805 Y95.698 E.02273
G1 X126.381 Y96.734 E.03717
G1 X126.561 Y97.956 E.03873
G1 X126.318 Y99.192 E.0395
G1 X125.731 Y100.246 E.03783
G1 X126.193 Y100.88 E.0246
G1 X126.51 Y101.756 E.02921
G1 X126.547 Y106.203 E.13944
G1 X126.246 Y107.222 E.03331
G1 X125.731 Y108.016 E.02967
G1 X126.286 Y108.93 E.03353
G1 X126.557 Y110.255 E.0424
G1 X126.527 Y110.984 E.02288
G1 X126.289 Y111.794 E.02647
G1 X125.774 Y112.615 E.03039
G1 X124.95 Y113.306 E.03372
G1 X124.012 Y113.688 E.03176
G1 X120.22 Y114.253 E.12021
G1 X106.359 Y115.888 E.43761
G1 X103.73 Y116.049 E.08258
G1 X97.599 Y116.1 E.19224
G1 X96.872 Y116.039 E.02287
G1 X95.869 Y115.746 E.03276
G1 X94.877 Y115.172 E.03594
G1 X93.692 Y114.229 E.04748
G1 X93.176 Y113.704 E.02308
G1 X92.359 Y112.638 E.04211
G1 X91.933 Y111.926 E.02601
G1 X91.062 Y109.9 E.06915
G1 X90.52 Y107.674 E.07183
G1 X90.318 Y105.699 E.06225
G1 X90.309 Y104.585 E.03493
G1 X90.572 Y102.03 E.08053
G1 X91.289 Y99.038 E.09647
G1 X91.582 Y98.313 E.02452
G1 X92.337 Y97.037 E.04649
G1 X92.888 Y96.318 E.0284
G1 X93.351 Y95.835 E.02098
M204 S1000
G1 X93.624 Y96.096 F10800
M204 S800
G1 F1200
G1 X93.81 Y95.901 E.00845
G1 X94.895 Y95.082 E.04262
G1 X95.96 Y94.577 E.03696
G1 X96.484 Y94.422 E.01713
G1 X97.721 Y94.276 E.03905
G1 X119.851 Y94.525 E.69391
G1 X122.515 Y94.645 E.08361
G1 X123.725 Y94.884 E.03867
G1 X124.568 Y95.194 E.02816
G1 X125.065 Y95.504 E.01837
G1 X125.521 Y95.948 E.01996
G1 X126.033 Y96.883 E.03342
G1 X126.183 Y97.974 E.03453
G1 X125.955 Y99.087 E.03562
G1 X125.514 Y99.877 E.02837
G1 X125.223 Y100.196 E.01354
G1 X125.85 Y101.039 E.03294
G1 X126.134 Y101.793 E.02526
G1 X126.17 Y106.176 E.13743
G1 X125.894 Y107.085 E.02979
G1 X125.53 Y107.638 E.02076
G1 X125.175 Y107.977 E.01539
G1 X125.567 Y108.404 E.01817
G1 X125.924 Y109.037 E.02279
G1 X126.18 Y110.266 E.03936
G1 X126.158 Y110.901 E.01992
G1 X125.935 Y111.661 E.02483
G1 X125.473 Y112.386 E.02696
G1 X124.733 Y112.996 E.03007
G1 X123.934 Y113.318 E.02701
G1 X120.172 Y113.879 E.11926
G1 X106.326 Y115.512 E.43714
G1 X103.723 Y115.672 E.08177
G1 X97.62 Y115.723 E.19136
G1 X96.958 Y115.671 E.02082
G1 X95.997 Y115.391 E.03138
G1 X95.095 Y114.864 E.03275
G1 X93.943 Y113.948 E.04615
G1 X93.083 Y113.004 E.04004
G1 X92.26 Y111.739 E.04732
G1 X91.658 Y110.442 E.04483
G1 X91.155 Y108.871 E.05172
G1 X90.766 Y106.668 E.07014
G1 X90.686 Y104.588 E.06527
G1 X90.8 Y103.025 E.04914
G1 X91.064 Y101.505 E.04837
G1 X91.644 Y99.165 E.07559
G1 X92.222 Y97.921 E.04301
G1 X93.167 Y96.572 E.05164
G1 X93.582 Y96.139 E.01881
M204 S1000
G1 X93.879 Y96.396 F10800
M204 S800
G1 F1200
G1 X94.074 Y96.17 E.00936
G1 X95.095 Y95.402 E.04006
G1 X96.08 Y94.934 E.03419
G1 X97.097 Y94.691 E.03278
G1 X109.511 Y94.752 E.38924
G1 X119.843 Y94.902 E.32399
G1 X122.468 Y95.019 E.08239
G1 X123.624 Y95.248 E.03695
G1 X124.418 Y95.541 E.02654
G1 X124.846 Y95.811 E.01587
G1 X125.236 Y96.195 E.01716
G1 X125.684 Y97.029 E.02968
G1 X125.805 Y97.989 E.03034
G1 X125.612 Y98.928 E.03006
G1 X125.197 Y99.67 E.02666
G1 X124.55 Y100.223 E.02669
G1 X125.06 Y100.605 E.01998
G1 X125.51 Y101.202 E.02344
G1 X125.757 Y101.832 E.02122
G1 X125.793 Y106.151 E.13542
G1 X125.564 Y106.9 E.02456
G1 X125.228 Y107.41 E.01915
G1 X124.577 Y108.012 E.0278
G1 X125.251 Y108.61 E.02825
G1 X125.58 Y109.196 E.02107
G1 X125.803 Y110.278 E.03464
G1 X125.789 Y110.819 E.01697
G1 X125.581 Y111.528 E.02317
G1 X125.174 Y112.155 E.02344
G1 X124.519 Y112.685 E.02642
G1 X123.858 Y112.948 E.02231
G1 X120.125 Y113.505 E.11834
G1 X106.293 Y115.136 E.4367
G1 X103.717 Y115.295 E.08092
G1 X97.639 Y115.347 E.19058
G1 X97.044 Y115.304 E.0187
G1 X96.126 Y115.035 E.02999
G1 X95.313 Y114.556 E.02959
G1 X94.194 Y113.667 E.04481
G1 X93.726 Y113.188 E.021
G1 X92.982 Y112.212 E.03848
G1 X92.588 Y111.551 E.02413
G1 X91.776 Y109.655 E.06467
G1 X91.267 Y107.565 E.06745
M73 P4 R21
G1 X91.071 Y105.657 E.06014
G1 X91.063 Y104.591 E.03342
G1 X91.316 Y102.154 E.07682
G1 X91.999 Y99.292 E.09226
G1 X92.256 Y98.652 E.02162
G1 X92.965 Y97.455 E.04362
G1 X93.84 Y96.441 E.04199
M204 S1000
G1 X94.125 Y96.687 F10800
M204 S800
G1 F1200
G1 X94.339 Y96.439 E.01027
G1 X95.295 Y95.722 E.03747
G1 X96.201 Y95.292 E.03144
G1 X96.678 Y95.152 E.01559
G1 X97.728 Y95.03 E.03314
G1 X119.835 Y95.279 E.69319
G1 X122.441 Y95.395 E.08179
G1 X123.524 Y95.611 E.03463
G1 X124.269 Y95.888 E.02492
G1 X124.951 Y96.445 E.02761
G1 X125.316 Y97.115 E.02392
G1 X125.429 Y97.949 E.02639
G1 X125.267 Y98.774 E.02636
G1 X124.906 Y99.429 E.02345
G1 X124.239 Y99.979 E.02711
G1 X123.481 Y100.236 E.0251
G1 X124.371 Y100.565 E.02975
G1 X124.778 Y100.856 E.01569
G1 X125.192 Y101.407 E.02161
G1 X125.392 Y101.933 E.01764
G1 X125.415 Y106.124 E.13141
G1 X125.234 Y106.715 E.01938
G1 X124.927 Y107.182 E.01752
G1 X124.534 Y107.539 E.01665
G1 X123.686 Y107.917 E.02911
G1 X124.626 Y108.498 E.03465
G1 X124.959 Y108.851 E.01522
G1 X125.236 Y109.352 E.01795
G1 X125.426 Y110.294 E.03013
G1 X125.42 Y110.739 E.01395
G1 X125.227 Y111.393 E.02138
G1 X124.877 Y111.92 E.01984
G1 X124.308 Y112.371 E.02277
G1 X123.781 Y112.578 E.01775
G1 X120.077 Y113.131 E.11742
G1 X106.26 Y114.761 E.43623
G1 X103.71 Y114.918 E.0801
G1 X97.656 Y114.97 E.18983
G1 X97.129 Y114.936 E.01656
G1 X96.255 Y114.68 E.02856
G1 X94.915 Y113.787 E.05049
G1 X94.001 Y112.93 E.03928
G1 X93.293 Y112 E.03665
G1 X92.618 Y110.772 E.04394
G1 X92.133 Y109.533 E.04172
G1 X91.64 Y107.51 E.06529
G1 X91.448 Y105.636 E.05907
G1 X91.49 Y103.683 E.06125
G1 X91.688 Y102.216 E.04641
G1 X92.355 Y99.418 E.09019
G1 X92.594 Y98.821 E.02016
G1 X93.27 Y97.677 E.04166
G1 X94.085 Y96.732 E.03913
M204 S1000
G1 X94.343 Y96.98 F10800
M204 S800
G1 F1200
G1 X94.604 Y96.708 E.01182
G1 X95.494 Y96.043 E.03483
G1 X96.322 Y95.649 E.02875
G1 X97.209 Y95.437 E.02859
G1 X109.504 Y95.506 E.38551
G1 X119.826 Y95.656 E.32367
G1 X122.918 Y95.85 E.09714
M73 P4 R20
G1 X124.119 Y96.234 E.03953
G1 X124.668 Y96.694 E.02246
G1 X124.947 Y97.201 E.01814
G1 X125.051 Y97.966 E.02421
G1 X124.905 Y98.666 E.02242
G1 X124.592 Y99.219 E.01992
G1 X124.047 Y99.653 E.02184
G1 X123.353 Y99.861 E.02272
G1 X121.862 Y99.587 E.04753
G1 X97.597 Y99.615 E.76081
G1 X97.241 Y99.817 E.01283
G1 X97.115 Y100.002 E.00702
G1 X96.96 Y100.746 E.02383
G1 X97.764 Y101.336 E.03127
G1 X98.469 Y102.207 E.03513
G1 X98.869 Y103.381 E.03889
G1 X98.926 Y104.336 E.03
G1 X98.774 Y105.23 E.02843
G1 X98.387 Y106.131 E.03075
G1 X97.738 Y106.888 E.03126
G1 X96.932 Y107.536 E.03243
G1 X96.853 Y107.983 E.01423
G1 X96.917 Y108.251 E.00864
G1 X97.13 Y108.559 E.01174
G1 X98.092 Y109.012 E.03334
G1 X98.509 Y109.331 E.01646
G1 X98.816 Y109.712 E.01534
G1 X99.101 Y110.408 E.02358
G1 X102.933 Y110.409 E.12015
G1 X105.545 Y110.308 E.08196
