; generated by PrusaSlicer 2.7.1+linux-x64-GTK3 on 2024-02-21 at 21:29:47 UTC

; 

; external perimeters extrusion width = 0.45mm
; perimeters extrusion width = 0.45mm
; infill extrusion width = 0.45mm
; solid infill extrusion width = 0.45mm
; top infill extrusion width = 0.40mm
; first layer extrusion width = 0.42mm

M73 P0 R9
M201 X9000 Y9000 Z500 E10000 ; sets maximum accelerations, mm/sec^2
M203 X500 Y500 Z12 E120 ; sets maximum feedrates, mm / sec
M204 S2000 T1500 ; sets acceleration (S) and retract acceleration (R), mm/sec^2
M205 X10.00 Y10.00 Z0.20 E2.50 ; sets the jerk limits, mm/sec
M205 S0 T0 ; sets the minimum extruding and travel feed rate, mm/sec

; printing object Bittle_bone.stl id:0 copy 0
; stop printing object Bittle_bone.stl id:0 copy 0

;TYPE:Custom
M862.3 P "MK2S" ; printer model check
M862.1 P0.4 ; nozzle diameter check
M115 U3.2.3 ; tell printer latest fw version
G90 ; use absolute coordinates
M83 ; extruder relative mode
M204 S2000 T1500 ; MK2 firmware only supports the old M204 format
M104 S215 ; set extruder temp
M140 S60 ; set bed temp
M190 S60 ; wait for bed temp
M109 S215 ; wait for extruder temp
G28 W ; home all without mesh bed level
G80 ; mesh bed leveling
G1 Z0.2 F720
G1 Y-2 F1000 ; go outside print area
G92 E0
G1 X60 E9 F1000 ; intro line
G1 X100 E12.5 F1000 ; intro line
M73 P0 R8
G92 E0
G21 ; set units to millimeters
G90 ; use absolute coordinates
M83 ; use relative distances for extrusion

M900 K0.05 ; Filament gcode LA 1.5
M900 K30 ; Filament gcode LA 1.0




M107
;LAYER_CHANGE
;Z:0.2
;HEIGHT:0.2
;BEFORE_LAYER_CHANGE
G92 E0.0
;0.2


G1 E-.8 F2100
M73 P1 R8
G1 Z.2 F720
;AFTER_LAYER_CHANGE
;0.2
G1 X114.774 Y86.094 F10800
G1 Z.2 F720
G1 E.8 F2100
M204 S800
;TYPE:Skirt/Brim
;WIDTH:0.42
G1 F1200
G1 X115.396 Y85.289 E.0319
G1 X116.199 Y84.452 E.03637
G1 X117.416 Y83.534 E.0478
G1 X118.899 Y82.818 E.05163
G1 X119.921 Y82.495 E.03361
G1 X121.632 Y82.247 E.05421
G1 X128.352 Y82.221 E.2107
G1 X129.687 Y82.385 E.04217
G1 X130.694 Y82.645 E.03261
G1 X132.465 Y83.435 E.0608
G1 X133.632 Y84.274 E.04507
G1 X134.676 Y85.318 E.04629
G1 X135.771 Y86.961 E.06191
G1 X136.226 Y88.045 E.03686
G1 X136.515 Y89.049 E.03276
G1 X136.703 Y90.351 E.04125
G1 X136.712 Y91.462 E.03484
G1 X136.53 Y92.783 E.04181
G1 X136.262 Y93.769 E.03204
G1 X135.754 Y94.953 E.0404
G1 X135.027 Y96.144 E.04375
G1 X133.749 Y97.524 E.05897
G1 X133.003 Y98.119 E.02992
G1 X132.275 Y98.571 E.02687
G1 X130.633 Y99.287 E.05617
G1 X129.648 Y99.534 E.03184
G1 X128.723 Y99.663 E.02928
G1 X121.289 Y99.639 E.23309
G1 X120.03 Y99.443 E.03995
G1 X119.07 Y99.16 E.03138
G1 X118.034 Y98.702 E.03552
G1 X117.06 Y98.126 E.03548
G1 X115.691 Y96.947 E.05665
G1 X114.894 Y95.981 E.03927
G1 X114.294 Y94.988 E.03638
G1 X113.93 Y94.213 E.02685
G1 X113.523 Y92.903 E.04301
G1 X113.361 Y91.973 E.0296
G1 X113.3 Y90.863 E.03486
G1 X113.486 Y89.162 E.05365
G1 X114.035 Y87.47 E.05577
G1 X114.746 Y86.147 E.04709
M204 S1000
G1 X115.09 Y86.37 F10800
M204 S800
G1 F1200
G1 X115.47 Y85.785 E.02187
G1 X116.471 Y84.713 E.04599
G1 X117.633 Y83.842 E.04553
G1 X119.052 Y83.162 E.04934
G1 X120.026 Y82.858 E.03199
G1 X121.633 Y82.624 E.05092
G1 X128.352 Y82.598 E.21067
G1 X129.633 Y82.758 E.04048
M73 P2 R8
G1 X130.592 Y83.008 E.03107
G1 X132.255 Y83.748 E.05707
G1 X133.368 Y84.543 E.04289
G1 X134.407 Y85.581 E.04605
G1 X135.424 Y87.108 E.05752
G1 X135.877 Y88.189 E.03675
G1 X136.151 Y89.145 E.03118
G1 X136.329 Y90.398 E.03968
G1 X136.335 Y91.456 E.03317
G1 X136.157 Y92.723 E.04012
G1 X135.9 Y93.662 E.03052
G1 X135.42 Y94.776 E.03803
G1 X134.732 Y95.908 E.04153
G1 X133.485 Y97.254 E.05753
G1 X132.774 Y97.819 E.02847
G1 X132.084 Y98.246 E.02544
G1 X130.533 Y98.923 E.05306
G1 X129.596 Y99.16 E.0303
G1 X128.671 Y99.29 E.02929
G1 X121.655 Y99.288 E.21998
G1 X120.425 Y99.139 E.03885
G1 X119.5 Y98.909 E.02989
G1 X118.498 Y98.51 E.03382
G1 X117.526 Y97.982 E.03468
G1 X116.793 Y97.455 E.02831
G1 X115.761 Y96.469 E.04475
G1 X114.797 Y95.121 E.05196
G1 X114.163 Y93.768 E.04685
G1 X113.895 Y92.839 E.03032
G1 X113.733 Y91.908 E.02963
G1 X113.69 Y90.515 E.0437
G1 X113.795 Y89.567 E.02991
G1 X114.018 Y88.59 E.03142
G1 X114.652 Y87.045 E.05236
G1 X115.057 Y86.421 E.02332
M204 S1000
;WIPE_START
G1 F8640
G1 X115.09 Y86.37 E-.01403
G1 X115.47 Y85.785 E-.16107
G1 X116.471 Y84.713 E-.33866
G1 X117.463 Y83.97 E-.28624
;WIPE_END
G1 Z.6 F720
G1 X117.259 Y87.893 F10800
G1 Z.2 F720
G1 E.8 F2100
M204 S800
G1 F1200
G1 X117.533 Y87.484 E.01544
G1 X118.502 Y86.503 E.04323
G1 X119.354 Y85.948 E.03188
G1 X120.547 Y85.481 E.04017
G1 X121.657 Y85.298 E.03527
G1 X122.71 Y85.339 E.03304
G1 X123.758 Y85.562 E.03359
G1 X124.988 Y86.11 E.04222
G1 X126.595 Y85.433 E.05468
G1 X127.565 Y85.276 E.03081
G1 X128.584 Y85.302 E.03196
G1 X129.726 Y85.535 E.03654
G1 X130.8 Y85.992 E.0366
G1 X132.116 Y87.05 E.05294
G1 X133.025 Y88.296 E.04836
G1 X133.586 Y89.91 E.05358
G1 X133.678 Y91.025 E.03508
G1 X133.564 Y92.11 E.03421
G1 X133.072 Y93.507 E.04644
G1 X132.241 Y94.738 E.04657
G1 X130.91 Y95.846 E.0543
G1 X129.705 Y96.384 E.04138
G1 X128.439 Y96.633 E.04046
G1 X126.759 Y96.516 E.0528
G1 X125.471 Y96.062 E.04282
G1 X124.967 Y95.77 E.01826
G1 X124.621 Y95.989 E.01284
G1 X123.567 Y96.409 E.03557
G1 X122.242 Y96.621 E.04207
G1 X121.021 Y96.539 E.03837
G1 X120.27 Y96.334 E.02441
G1 X118.678 Y95.538 E.05581
G1 X117.745 Y94.684 E.03966
G1 X117.135 Y93.838 E.0327
G1 X116.637 Y92.75 E.03752
G1 X116.373 Y91.505 E.0399
G1 X116.457 Y89.842 E.05221
G1 X117.081 Y88.161 E.05622
G1 X117.226 Y87.943 E.00821
M204 S1000
G1 X117.539 Y88.151 F10800
M204 S800
G1 F1200
G1 X117.815 Y87.736 E.01563
G1 X118.756 Y86.782 E.04201
M73 P3 R8
G1 X119.509 Y86.292 E.02817
G1 X120.665 Y85.84 E.03892
G1 X121.697 Y85.673 E.03278
G1 X122.677 Y85.715 E.03076
G1 X123.66 Y85.927 E.03153
G1 X124.661 Y86.365 E.03426
G1 X124.97 Y86.577 E.01175
G1 X126.678 Y85.801 E.05882
G1 X127.608 Y85.651 E.02954
G1 X128.557 Y85.678 E.02977
G1 X129.598 Y85.89 E.03331
G1 X130.585 Y86.303 E.03355
G1 X131.861 Y87.329 E.05134
G1 X132.679 Y88.448 E.04346
G1 X133.212 Y89.967 E.05047
G1 X133.301 Y91.004 E.03263
G1 X133.191 Y92.048 E.03292
G1 X132.725 Y93.358 E.0436
G1 X131.978 Y94.467 E.04192
G1 X130.731 Y95.513 E.05103
G1 X129.611 Y96.018 E.03852
G1 X128.391 Y96.258 E.03899
G1 X126.861 Y96.152 E.04809
G1 X125.614 Y95.712 E.04146
G1 X124.958 Y95.326 E.02386
G1 X124.463 Y95.646 E.01848
G1 X123.447 Y96.051 E.03429
G1 X122.246 Y96.243 E.03813
G1 X121.065 Y96.164 E.03711
G1 X120.422 Y95.989 E.02089
G1 X118.87 Y95.212 E.05442
G1 X118.039 Y94.447 E.03541
G1 X117.469 Y93.663 E.03039
G1 X117.001 Y92.649 E.03502
G1 X116.751 Y91.499 E.0369
G1 X116.832 Y89.891 E.05048
G1 X117.407 Y88.351 E.05154
G1 X117.506 Y88.201 E.00564
M204 S1000
G1 X117.821 Y88.407 F10800
M204 S800
G1 F1200
G1 X118.097 Y87.987 E.01576
G1 X119.01 Y87.061 E.04077
G1 X119.664 Y86.636 E.02446
G1 X120.783 Y86.199 E.03767
G1 X121.736 Y86.049 E.03025
G1 X122.643 Y86.091 E.02847
G1 X123.561 Y86.291 E.02946
G1 X124.49 Y86.701 E.03184
G1 X124.995 Y87.06 E.01943
G1 X125.324 Y86.787 E.0134
G1 X126.761 Y86.17 E.04903
G1 X127.65 Y86.026 E.02824
G1 X128.529 Y86.054 E.02757
G1 X129.472 Y86.246 E.03017
G1 X130.37 Y86.614 E.03043
G1 X131.605 Y87.607 E.04969
G1 X132.333 Y88.6 E.03861
G1 X132.838 Y90.024 E.04737
G1 X132.924 Y91.018 E.03128
G1 X132.819 Y91.985 E.0305
G1 X132.378 Y93.208 E.04076
G1 X131.714 Y94.196 E.03732
G1 X130.551 Y95.181 E.04779
G1 X129.514 Y95.653 E.03572
G1 X128.389 Y95.88 E.03598
G1 X126.962 Y95.788 E.04484
G1 X125.758 Y95.363 E.04003
G1 X124.947 Y94.88 E.0296
G1 X124.304 Y95.303 E.02413
G1 X123.364 Y95.683 E.03179
G1 X122.248 Y95.865 E.03545
G1 X121.143 Y95.795 E.03472
G1 X120.573 Y95.643 E.0185
G1 X119.063 Y94.887 E.05295
G1 X118.333 Y94.21 E.03122
G1 X117.803 Y93.486 E.02813
G1 X117.364 Y92.546 E.03253
G1 X117.129 Y91.492 E.03386
G1 X117.207 Y89.939 E.04875
G1 X117.734 Y88.54 E.04687
G1 X117.788 Y88.458 E.00308
M204 S1000
G1 X118.104 Y88.662 F10800
M204 S800
G1 F1200
G1 X118.379 Y88.238 E.01585
G1 X119.264 Y87.341 E.03951
G1 X119.819 Y86.98 E.02076
G1 X120.9 Y86.558 E.03639
G1 X121.773 Y86.425 E.02769
G1 X122.608 Y86.467 E.02621
G1 X123.46 Y86.655 E.02736
G1 X124.317 Y87.037 E.02942
G1 X125.021 Y87.546 E.02724
G1 X125.504 Y87.12 E.02019
G1 X126.845 Y86.538 E.04584
G1 X127.691 Y86.401 E.02687
G1 X128.499 Y86.431 E.02535
G1 X129.378 Y86.611 E.02813
G1 X130.2 Y86.952 E.0279
G1 X131.349 Y87.884 E.04639
G1 X131.987 Y88.752 E.03378
G1 X132.475 Y90.126 E.04572
G1 X132.547 Y91.029 E.0284
G1 X132.447 Y91.92 E.02811
M73 P4 R8
G1 X132.032 Y93.058 E.03798
G1 X131.451 Y93.925 E.03272
G1 X130.328 Y94.875 E.04612
G1 X129.38 Y95.3 E.03257
G1 X128.387 Y95.502 E.03177
G1 X127.062 Y95.423 E.04162
G1 X125.902 Y95.014 E.03857
G1 X125.27 Y94.634 E.02312
G1 X125.013 Y94.383 E.01126
G1 X124.143 Y94.962 E.03277
G1 X123.28 Y95.314 E.02922
G1 X122.25 Y95.488 E.03275
G1 X121.186 Y95.42 E.03343
G1 X120.725 Y95.297 E.01496
G1 X119.257 Y94.562 E.05148
G1 X118.626 Y93.972 E.02709
G1 X118.135 Y93.308 E.02589
G1 X117.727 Y92.441 E.03004
G1 X117.507 Y91.484 E.03079
G1 X117.582 Y89.988 E.04696
G1 X118.061 Y88.728 E.04226
G1 X118.071 Y88.713 E.00057
M204 S1000
G1 X118.389 Y88.915 F10800
M204 S800
G1 F1200
G1 X118.662 Y88.487 E.01592
G1 X119.489 Y87.644 E.03703
G1 X119.975 Y87.324 E.01824
G1 X121.018 Y86.917 E.0351
G1 X121.774 Y86.802 E.02398
G1 X122.542 Y86.839 E.02411
G1 X123.36 Y87.019 E.02626
G1 X124.144 Y87.373 E.02697
G1 X124.994 Y88.086 E.03479
G1 X125.684 Y87.453 E.02936
G1 X126.973 Y86.894 E.04405
G1 X127.73 Y86.777 E.02402
G1 X128.468 Y86.807 E.02316
G1 X129.251 Y86.967 E.02506
G1 X130.03 Y87.289 E.02643
G1 X131.091 Y88.161 E.04306
G1 X131.642 Y88.906 E.02905
G1 X132.101 Y90.183 E.04255
G1 X132.17 Y91.006 E.0259
G1 X132.075 Y91.855 E.02679
G1 X131.686 Y92.906 E.03514
G1 X131.187 Y93.655 E.02822
G1 X130.105 Y94.57 E.04443
G1 X129.248 Y94.947 E.02936
G1 X128.338 Y95.128 E.02909
G1 X127.113 Y95.049 E.03849
G1 X126.081 Y94.681 E.03435
G1 X125.488 Y94.324 E.0217
G1 X125.004 Y93.827 E.02175
G1 X124.669 Y94.159 E.01479
G1 X123.98 Y94.621 E.02601
G1 X123.195 Y94.947 E.02665
G1 X122.251 Y95.11 E.03004
G1 X121.228 Y95.045 E.03214
G1 X120.877 Y94.951 E.01139
G1 X119.451 Y94.238 E.04999
G1 X118.899 Y93.712 E.02391
G1 X118.451 Y93.101 E.02376
G1 X118.077 Y92.301 E.02769
G1 X117.88 Y91.427 E.02809
G1 X117.957 Y90.039 E.04359
G1 X118.367 Y88.971 E.03587
M204 S1000
G1 X118.719 Y89.106 F10800
M204 S800
G1 F1200
G1 X118.734 Y89.069 E.00125
G1 X118.968 Y88.709 E.01346
G1 X119.742 Y87.924 E.03457
G1 X120.164 Y87.651 E.01576
G1 X121.097 Y87.286 E.03141
G1 X121.776 Y87.18 E.02155
G1 X122.508 Y87.215 E.02298
G1 X123.258 Y87.382 E.02409
G1 X123.968 Y87.707 E.02448
G1 X124.468 Y88.076 E.01948
G1 X124.976 Y88.626 E.02348
G1 X125.866 Y87.785 E.03839
G1 X127.099 Y87.25 E.04214
G1 X127.766 Y87.152 E.02114
G1 X128.435 Y87.183 E.021
G1 X129.156 Y87.332 E.02308
G1 X129.857 Y87.626 E.02383
G1 X130.833 Y88.436 E.03977
G1 X131.297 Y89.062 E.02443
G1 X131.727 Y90.24 E.03932
G1 X131.792 Y91.018 E.02448
G1 X131.703 Y91.787 E.02427
G1 X131.34 Y92.753 E.03236
G1 X130.923 Y93.384 E.02371
G1 X129.884 Y94.263 E.04267
G1 X129.118 Y94.592 E.02614
G1 X128.291 Y94.753 E.02642
G1 X127.166 Y94.675 E.03536
G1 X126.259 Y94.349 E.03022
G1 X125.705 Y94.015 E.02028
G1 X125.009 Y93.281 E.03172
G1 X124.442 Y93.857 E.02534
G1 X123.786 Y94.297 E.02477
G1 X123.071 Y94.59 E.02423
G1 X122.253 Y94.732 E.02603
G1 X121.271 Y94.67 E.03085
G1 X119.647 Y93.914 E.05617
G1 X119.174 Y93.454 E.02069
G1 X118.767 Y92.894 E.02171
G1 X118.429 Y92.162 E.02528
G1 X118.254 Y91.371 E.0254
G1 X118.32 Y90.146 E.03846
G1 X118.698 Y89.162 E.03305
M204 S1000
G1 X119.05 Y89.297 F10800
M204 S800
G1 F1200
G1 X119.078 Y89.225 E.00242
G1 X119.271 Y88.934 E.01095
G1 X119.994 Y88.206 E.03217
G1 X120.35 Y87.979 E.01324
G1 X121.178 Y87.655 E.02788
G1 X121.779 Y87.557 E.01909
G1 X122.442 Y87.586 E.02081
G1 X123.155 Y87.746 E.02291
G1 X123.791 Y88.04 E.02197
G1 X124.227 Y88.367 E.01709
M73 P5 R8
G1 X125.009 Y89.224 E.03638
G1 X125.197 Y88.94 E.01068
G1 X126.048 Y88.117 E.03712
G1 X127.225 Y87.607 E.04022
G1 X127.798 Y87.528 E.01814
G1 X128.401 Y87.558 E.01893
G1 X129.059 Y87.697 E.02109
G1 X129.683 Y87.961 E.02124
G1 X130.573 Y88.71 E.03647
G1 X130.954 Y89.219 E.01994
G1 X131.354 Y90.299 E.03611
G1 X131.415 Y90.994 E.02188
G1 X131.331 Y91.72 E.02292
G1 X130.996 Y92.6 E.02952
G1 X130.656 Y93.116 E.01938
G1 X129.708 Y93.928 E.03914
G1 X128.989 Y94.237 E.02454
G1 X128.246 Y94.378 E.02371
G1 X127.221 Y94.301 E.03223
G1 X126.408 Y94.002 E.02716
G1 X125.924 Y93.707 E.01777
G1 X124.95 Y92.664 E.04474
G1 X124.684 Y93.072 E.01527
G1 X124.215 Y93.555 E.02111
G1 X123.593 Y93.973 E.0235
G1 X122.949 Y94.233 E.02178
G1 X122.255 Y94.354 E.02209
G1 X121.313 Y94.295 E.02959
G1 X119.888 Y93.623 E.0494
G1 X119.449 Y93.195 E.01922
G1 X119.084 Y92.689 E.01956
G1 X118.78 Y92.025 E.0229
G1 X118.628 Y91.317 E.0227
G1 X118.682 Y90.253 E.0334
G1 X119.028 Y89.353 E.03023
M204 S1000
G1 X119.413 Y89.522 F10800
M204 S800
G1 F1200
G1 X119.571 Y89.162 E.01233
G1 X120.244 Y88.488 E.02986
G1 X120.533 Y88.31 E.01064
G1 X121.294 Y88.014 E.0256
G1 X121.817 Y87.933 E.01659
G1 X122.406 Y87.962 E.01849
G1 X123.051 Y88.109 E.02074
G1 X123.612 Y88.372 E.01943
G1 X124.491 Y89.198 E.03782
G1 X124.99 Y90.34 E.03908
G1 X125.484 Y89.187 E.03933
G1 X126.233 Y88.448 E.03299
G1 X127.302 Y87.977 E.03663
G1 X127.831 Y87.904 E.01674
G1 X128.962 Y88.062 E.03581
G1 X129.507 Y88.296 E.0186
G1 X130.313 Y88.984 E.03323
G1 X130.611 Y89.379 E.01551
G1 X130.981 Y90.358 E.03281
G1 X131.038 Y91.007 E.02043
G1 X130.96 Y91.65 E.02031
G1 X130.651 Y92.445 E.02674
G1 X130.389 Y92.849 E.0151
G1 X129.53 Y93.595 E.03567
G1 X128.898 Y93.871 E.02162
G1 X128.201 Y94.002 E.02224
G1 X127.326 Y93.938 E.02751
G1 X126.556 Y93.655 E.02572
G1 X126.145 Y93.401 E.01515
G1 X125.413 Y92.607 E.03386
G1 X124.968 Y91.678 E.0323
G1 X124.725 Y92.307 E.02114
G1 X124.399 Y92.824 E.01916
G1 X123.958 Y93.278 E.01984
G1 X123.434 Y93.631 E.01981
G1 X122.827 Y93.875 E.02051
G1 X122.215 Y93.979 E.01946
G1 X121.325 Y93.911 E.02799
G1 X120.128 Y93.331 E.0417
G1 X119.418 Y92.513 E.03396
G1 X119.144 Y91.924 E.02037
G1 X119.002 Y91.261 E.02126
G1 X119.045 Y90.36 E.02828
G1 X119.389 Y89.577 E.02682
M204 S1000
;WIPE_START
G1 F8640
G1 X119.413 Y89.522 E-.01386
G1 X119.571 Y89.162 E-.09078
G1 X120.244 Y88.488 E-.21993
G1 X120.533 Y88.31 E-.07837
G1 X121.294 Y88.014 E-.18854
G1 X121.817 Y87.933 E-.1222
G1 X122.191 Y87.951 E-.08632
;WIPE_END
G1 Z.6 F720
G1 X125.359 Y90.441 F10800
G1 Z.2 F720
G1 E.8 F2100
M204 S800
G1 F1200
G1 X125.797 Y89.398 E.03547
G1 X126.419 Y88.777 E.02756
G1 X127.381 Y88.347 E.03304
G1 X128.327 Y88.309 E.02969
G1 X128.83 Y88.416 E.01612
G1 X129.331 Y88.631 E.01709
G1 X130.051 Y89.256 E.02989
G1 X130.269 Y89.54 E.01123
G1 X130.608 Y90.42 E.02957
G1 X130.661 Y90.982 E.0177
G1 X130.589 Y91.58 E.01889
G1 X130.119 Y92.585 E.03479
G1 X129.352 Y93.261 E.03206
G1 X128.767 Y93.516 E.02001
G1 X128.157 Y93.627 E.01944
G1 X127.432 Y93.575 E.02279
G1 X126.404 Y93.125 E.03519
G1 X125.711 Y92.374 E.03204
G1 X125.441 Y91.789 E.0202
G1 X125.317 Y91.174 E.01967
G1 X125.355 Y90.501 E.02114
M204 S1000
G1 X125.731 Y90.526 F10800
M204 S800
G1 F1200
G1 X125.733 Y90.494 E.00101
G1 X126.107 Y89.614 E.02998
G1 X126.659 Y89.07 E.0243
G1 X127.46 Y88.716 E.02746
G1 X127.86 Y88.658 E.01267
G1 X128.731 Y88.78 E.02758
G1 X129.152 Y88.964 E.01441
G1 X129.786 Y89.524 E.02652
G1 X129.952 Y89.745 E.00867
G1 X130.235 Y90.482 E.02475
G1 X130.284 Y90.996 E.01619
G1 X130.218 Y91.507 E.01616
G1 X129.818 Y92.356 E.02943
G1 X129.129 Y92.956 E.02865
G1 X128.643 Y93.16 E.01653
G1 X128.117 Y93.252 E.01674
G1 X127.49 Y93.201 E.01972
G1 X126.626 Y92.819 E.02962
G1 X126.012 Y92.144 E.02861
G1 X125.795 Y91.657 E.01672
G1 X125.692 Y91.128 E.0169
G1 X125.727 Y90.585 E.01706
M204 S1000
G1 X126.102 Y90.613 F10800
M204 S800
G1 F1200
G1 X126.107 Y90.55 E.00198
G1 X126.414 Y89.833 E.02446
G1 X126.896 Y89.365 E.02106
G1 X127.539 Y89.086 E.02198
G1 X128.25 Y89.06 E.02231
M73 P6 R8
G1 X128.972 Y89.297 E.02383
G1 X129.632 Y89.946 E.02902
