; generated by PrusaSlicer 2.7.1+linux-x64-GTK3 on 2024-02-20 at 15:16:07 UTC

; 

; external perimeters extrusion width = 0.45mm
; perimeters extrusion width = 0.45mm
; infill extrusion width = 0.45mm
; solid infill extrusion width = 0.45mm
; top infill extrusion width = 0.40mm
; first layer extrusion width = 0.42mm

M73 P0 R13
M201 X9000 Y9000 Z500 E10000 ; sets maximum accelerations, mm/sec^2
M203 X500 Y500 Z12 E120 ; sets maximum feedrates, mm / sec
M204 S2000 T1500 ; sets acceleration (S) and retract acceleration (R), mm/sec^2
M205 X10.00 Y10.00 Z0.20 E2.50 ; sets the jerk limits, mm/sec
M205 S0 T0 ; sets the minimum extruding and travel feed rate, mm/sec

; printing object Bittle_bone.stl id:0 copy 0
; stop printing object Bittle_bone.stl id:0 copy 0

;TYPE:Custom
M862.3 P "MK2S" ; printer model check
M862.1 P0.4 ; nozzle diameter check
M115 U3.2.3 ; tell printer latest fw version
G90 ; use absolute coordinates
M83 ; extruder relative mode
M204 S2000 T1500 ; MK2 firmware only supports the old M204 format
M104 S215 ; set extruder temp
M140 S60 ; set bed temp
M190 S60 ; wait for bed temp
M109 S215 ; wait for extruder temp
G28 W ; home all without mesh bed level
G80 ; mesh bed leveling
G1 Z0.2 F720
G1 Y-2 F1000 ; go outside print area
G92 E0
G1 X60 E9 F1000 ; intro line
G1 X100 E12.5 F1000 ; intro line
G92 E0
G21 ; set units to millimeters
G90 ; use absolute coordinates
M83 ; use relative distances for extrusion

M900 K0.05 ; Filament gcode LA 1.5
M900 K30 ; Filament gcode LA 1.0




M107
;LAYER_CHANGE
;Z:0.2
;HEIGHT:0.2
;BEFORE_LAYER_CHANGE
G92 E0.0
;0.2


G1 E-.8 F2100
G1 Z.2 F720
;AFTER_LAYER_CHANGE
;0.2
G1 X98.053 Y99.414 F10800
G1 Z.2 F720
G1 E.8 F2100
M204 S800
;TYPE:Skirt/Brim
;WIDTH:0.42
G1 F1200
G1 X99.308 Y98.194 E.05488
G1 X100.815 Y97.232 E.05606
G1 X102.224 Y96.667 E.0476
G1 X103.841 Y96.349 E.05167
G1 X105.543 Y96.345 E.05337
G1 X134.041 Y100.783 E.9043
G1 X134.771 Y101.075 E.02465
M73 P1 R13
G1 X135.584 Y101.608 E.03048
G1 X136.238 Y102.276 E.02931
G1 X136.73 Y103.041 E.02852
G1 X137.012 Y103.76 E.02422
G1 X137.179 Y104.577 E.02615
G1 X137.176 Y105.561 E.03085
G1 X137.004 Y106.377 E.02615
G1 X136.742 Y107.044 E.02247
G1 X136.39 Y107.627 E.02135
G1 X135.621 Y108.472 E.03582
G1 X134.626 Y109.105 E.03698
G1 X133.495 Y109.459 E.03716
G1 X106.12 Y113.714 E.86863
G1 X104.124 Y113.787 E.06263
G1 X102.991 Y113.624 E.03589
G1 X101.883 Y113.333 E.03592
G1 X100.858 Y112.898 E.03491
G1 X99.803 Y112.278 E.03837
G1 X99.119 Y111.763 E.02685
G1 X98.113 Y110.767 E.04439
G1 X97.111 Y109.345 E.05454
G1 X96.521 Y108.071 E.04402
G1 X96.12 Y106.578 E.04847
G1 X96.004 Y105.564 E.032
G1 X95.999 Y104.654 E.02853
G1 X96.17 Y103.283 E.04332
G1 X96.488 Y102.131 E.03747
G1 X97.172 Y100.663 E.05078
G1 X98.018 Y99.463 E.04604
M204 S1000
G1 X98.325 Y99.679 F10800
M204 S800
G1 F1200
G1 X98.334 Y99.665 E.00052
G1 X99.531 Y98.498 E.05242
G1 X101.004 Y97.559 E.05477
G1 X102.313 Y97.033 E.04423
G1 X103.866 Y96.726 E.04964
G1 X105.526 Y96.721 E.05205
G1 X133.942 Y101.146 E.9017
G1 X134.605 Y101.414 E.02242
M73 P1 R12
G1 X135.341 Y101.896 E.02759
G1 X135.945 Y102.514 E.02709
G1 X136.391 Y103.207 E.02584
G1 X136.649 Y103.86 E.02201
G1 X136.806 Y104.628 E.02458
G1 X136.803 Y105.508 E.02759
G1 X136.641 Y106.275 E.02458
G1 X136.404 Y106.876 E.02026
G1 X136.075 Y107.419 E.01991
G1 X135.378 Y108.183 E.03243
G1 X134.462 Y108.765 E.03403
G1 X133.437 Y109.086 E.03368
G1 X106.062 Y113.341 E.86863
G1 X104.138 Y113.41 E.06036
G1 X102.342 Y113.084 E.05723
G1 X101.044 Y112.571 E.04376
G1 X99.574 Y111.647 E.05444
G1 X98.393 Y110.514 E.05131
M73 P2 R12
G1 X97.53 Y109.315 E.04632
G1 X96.871 Y107.931 E.04806
G1 X96.493 Y106.527 E.04559
G1 X96.381 Y105.561 E.03049
G1 X96.376 Y104.652 E.0285
G1 X96.535 Y103.378 E.04026
G1 X96.84 Y102.267 E.03612
G1 X97.492 Y100.862 E.04857
G1 X98.29 Y99.728 E.04348
M204 S1000
;WIPE_START
G1 F8640
G1 X98.325 Y99.679 E-.0139
G1 X98.334 Y99.665 E-.00384
G1 X99.531 Y98.498 E-.38601
G1 X100.978 Y97.575 E-.39625
;WIPE_END
G1 Z.6 F720
G1 X100.366 Y101.394 F10800
G1 Z.2 F720
G1 E.8 F2100
M204 S800
G1 F1200
G1 X101.118 Y100.638 E.03343
G1 X103.244 Y99.535 E.0751
G1 X104.345 Y99.361 E.03495
G1 X105.492 Y99.385 E.03597
G1 X107.655 Y100.15 E.07194
G1 X108.084 Y100.456 E.01652
G1 X109.431 Y101.792 E.05948
G1 X109.946 Y102.732 E.03361
G1 X110.304 Y103.766 E.03431
G1 X110.385 Y105.857 E.06561
G1 X109.763 Y107.763 E.06286
G1 X109.128 Y108.697 E.03541
G1 X108.319 Y109.495 E.03563
G1 X107.452 Y110.072 E.03265
G1 X106.51 Y110.495 E.03238
G1 X104.383 Y110.735 E.06711
G1 X103.94 Y110.716 E.0139
G1 X102.188 Y110.164 E.05759
G1 X101.187 Y109.519 E.03734
G1 X100.324 Y108.665 E.03807
G1 X99.32 Y106.877 E.0643
G1 X99.068 Y105.677 E.03845
G1 X99.064 Y104.436 E.03891
G1 X99.758 Y102.247 E.072
G1 X100.331 Y101.442 E.03098
M204 S1000
G1 X100.638 Y101.661 F10800
M204 S800
G1 F1200
G1 X100.664 Y101.625 E.00139
G1 X101.364 Y100.925 E.03104
G1 X103.333 Y99.903 E.06956
G1 X104.387 Y99.736 E.03346
G1 X105.453 Y99.761 E.03343
G1 X107.459 Y100.473 E.06674
G1 X107.831 Y100.736 E.01428
G1 X109.113 Y101.998 E.0564
G1 X109.607 Y102.899 E.03222
G1 X109.938 Y103.861 E.0319
G1 X110.007 Y105.836 E.06196
G1 X109.437 Y107.572 E.05729
G1 X108.827 Y108.47 E.03404
G1 X108.094 Y109.191 E.03224
G1 X107.283 Y109.734 E.0306
G1 X106.382 Y110.139 E.03097
G1 X104.358 Y110.359 E.06383
G1 X103.983 Y110.34 E.01177
G1 X102.371 Y109.833 E.05298
G1 X101.408 Y109.213 E.03591
G1 X100.608 Y108.416 E.03541
G1 X99.683 Y106.771 E.05917
G1 X99.441 Y105.619 E.03691
G1 X99.441 Y104.465 E.03618
G1 X100.083 Y102.442 E.06655
G1 X100.603 Y101.71 E.02815
M204 S1000
G1 X100.909 Y101.927 F10800
M204 S800
G1 F1200
G1 X100.942 Y101.88 E.0018
G1 X101.61 Y101.212 E.02962
G1 X103.424 Y100.27 E.06409
G1 X104.395 Y100.113 E.03084
G1 X105.414 Y100.138 E.03196
G1 X107.264 Y100.796 E.06157
G1 X107.58 Y101.017 E.01209
G1 X108.797 Y102.205 E.05332
G1 X109.256 Y103.038 E.02982
G1 X109.572 Y103.957 E.03047
G1 X109.638 Y105.752 E.05632
G1 X109.109 Y107.384 E.05379
G1 X108.548 Y108.215 E.03144
G1 X107.869 Y108.888 E.02998
G1 X107.087 Y109.412 E.02951
G1 X106.257 Y109.782 E.02849
G1 X104.028 Y109.965 E.07012
G1 X102.553 Y109.502 E.04847
G1 X101.66 Y108.932 E.03322
G1 X100.893 Y108.167 E.03397
G1 X100.046 Y106.664 E.05409
G1 X99.818 Y105.599 E.03415
G1 X99.818 Y104.493 E.03468
G1 X100.407 Y102.635 E.06111
G1 X100.874 Y101.976 E.02532
M204 S1000
G1 X101.182 Y102.193 F10800
M204 S800
G1 F1200
G1 X101.24 Y102.112 E.00312
G1 X101.856 Y101.5 E.02723
G1 X103.514 Y100.638 E.05859
G1 X104.438 Y100.488 E.02935
G1 X105.373 Y100.514 E.02933
G1 X107.07 Y101.121 E.05651
G1 X108.481 Y102.412 E.05996
G1 X108.918 Y103.205 E.02839
G1 X109.206 Y104.052 E.02805
G1 X109.261 Y105.731 E.05267
G1 X108.781 Y107.196 E.04834
G1 X108.268 Y107.962 E.02891
G1 X107.643 Y108.586 E.02769
G1 X106.918 Y109.074 E.0274
G1 X106.131 Y109.425 E.02702
G1 X104.314 Y109.605 E.05725
G1 X102.735 Y109.171 E.05134
G1 X101.881 Y108.625 E.03178
G1 X101.178 Y107.919 E.03124
G1 X100.408 Y106.557 E.04906
G1 X100.192 Y105.54 E.0326
G1 X100.195 Y104.524 E.03186
G1 X100.732 Y102.829 E.05575
G1 X101.148 Y102.242 E.02256
M204 S1000
G1 X101.454 Y102.458 F10800
M204 S800
G1 F1200
G1 X101.518 Y102.367 E.00349
G1 X102.101 Y101.787 E.02578
G1 X103.604 Y101.005 E.05312
G1 X104.48 Y100.863 E.02782
G1 X105.331 Y100.889 E.02669
G1 X106.878 Y101.446 E.05155
G1 X108.165 Y102.621 E.05464
M73 P3 R12
G1 X108.566 Y103.343 E.0259
G1 X108.84 Y104.146 E.0266
G1 X108.883 Y105.708 E.04899
G1 X108.453 Y107.008 E.04293
G1 X107.987 Y107.71 E.02642
G1 X107.416 Y108.284 E.02539
G1 X106.749 Y108.737 E.02528
G1 X106.006 Y109.068 E.0255
G1 X104.124 Y109.216 E.05919
G1 X102.915 Y108.839 E.03971
G1 X102.133 Y108.344 E.02902
G1 X101.463 Y107.671 E.02978
G1 X100.771 Y106.449 E.04403
G1 X100.569 Y105.52 E.02981
G1 X100.572 Y104.553 E.03032
G1 X101.057 Y103.022 E.05035
G1 X101.42 Y102.507 E.01976
M204 S1000
G1 X101.728 Y102.724 F10800
M204 S800
G1 F1200
G1 X101.816 Y102.598 E.00482
G1 X102.346 Y102.076 E.02332
G1 X103.695 Y101.372 E.04771
G1 X104.487 Y101.241 E.02517
G1 X105.29 Y101.265 E.02519
G1 X106.688 Y101.772 E.04663
G1 X107.85 Y102.829 E.04925
G1 X108.228 Y103.51 E.02442
G1 X108.473 Y104.238 E.02408
G1 X108.505 Y105.683 E.04532
G1 X108.125 Y106.821 E.03762
G1 X107.705 Y107.459 E.02395
G1 X107.188 Y107.983 E.02308
G1 X106.551 Y108.415 E.02413
G1 X105.883 Y108.711 E.02291
G1 X104.281 Y108.851 E.05042
G1 X103.095 Y108.507 E.03872
G1 X102.353 Y108.037 E.02754
G1 X101.749 Y107.424 E.02698
G1 X101.132 Y106.339 E.03914
G1 X100.946 Y105.5 E.02694
G1 X100.949 Y104.583 E.02875
G1 X101.382 Y103.216 E.04496
G1 X101.693 Y102.773 E.01697
M204 S1000
G1 X102.001 Y102.987 F10800
M204 S800
G1 F1200
G1 X102.094 Y102.854 E.00509
G1 X102.591 Y102.364 E.02188
G1 X103.786 Y101.739 E.04228
G1 X104.53 Y101.616 E.02364
G1 X105.246 Y101.641 E.02246
G1 X106.502 Y102.101 E.04194
G1 X107.536 Y103.04 E.04379
G1 X107.877 Y103.648 E.02186
G1 X108.107 Y104.332 E.02263
G1 X108.137 Y105.596 E.03964
G1 X107.795 Y106.637 E.03436
G1 X107.422 Y107.209 E.02141
G1 X106.959 Y107.683 E.02078
G1 X106.383 Y108.077 E.02188
G1 X105.76 Y108.353 E.02136
G1 X104.238 Y108.47 E.04786
G1 X103.275 Y108.174 E.03159
G1 X102.574 Y107.73 E.02602
G1 X102.036 Y107.179 E.02415
G1 X101.494 Y106.228 E.03432
G1 X101.323 Y105.476 E.02418
G1 X101.318 Y104.666 E.0254
G1 X101.708 Y103.407 E.04133
G1 X101.967 Y103.037 E.01416
M204 S1000
G1 X102.276 Y103.252 F10800
M204 S800
G1 F1200
G1 X102.393 Y103.085 E.00639
G1 X102.834 Y102.653 E.01936
G1 X103.88 Y102.106 E.03701
G1 X104.536 Y101.994 E.02087
G1 X105.202 Y102.017 E.02089
G1 X106.323 Y102.432 E.03748
G1 X107.222 Y103.251 E.03813
G1 X107.539 Y103.816 E.02031
G1 X107.74 Y104.422 E.02002
G1 X107.76 Y105.57 E.036
G1 X107.466 Y106.453 E.02918
G1 X107.137 Y106.961 E.01898
G1 X106.729 Y107.384 E.01843
G1 X106.213 Y107.74 E.01966
G1 X105.637 Y107.995 E.01975
G1 X104.296 Y108.094 E.04216
G1 X103.453 Y107.841 E.0276
G1 X102.825 Y107.449 E.02321
G1 X102.349 Y106.968 E.02122
G1 X101.855 Y106.116 E.03088
G1 X101.695 Y105.413 E.02261
G1 X101.694 Y104.695 E.02251
G1 X102.034 Y103.599 E.03598
G1 X102.241 Y103.302 E.01135
M204 S1000
G1 X102.55 Y103.515 F10800
M204 S800
G1 F1200
G1 X102.67 Y103.341 E.00663
G1 X103.079 Y102.941 E.01794
G1 X103.972 Y102.472 E.03163
G1 X104.58 Y102.369 E.01934
G1 X105.155 Y102.392 E.01804
G1 X106.138 Y102.766 E.03298
G1 X106.91 Y103.464 E.03263
G1 X107.187 Y103.953 E.01762
G1 X107.373 Y104.514 E.01853
G1 X107.391 Y105.484 E.03042
G1 X107.134 Y106.271 E.02596
G1 X106.851 Y106.715 E.01651
G1 X106.498 Y107.085 E.01603
G1 X106.015 Y107.419 E.01841
G1 X105.516 Y107.636 E.01706
G1 X104.368 Y107.723 E.0361
G1 X103.628 Y107.506 E.02418
G1 X103.075 Y107.165 E.02037
G1 X102.661 Y106.754 E.01829
G1 X102.215 Y106 E.02747
G1 X102.072 Y105.391 E.01961
G1 X102.072 Y104.723 E.02094
G1 X102.361 Y103.789 E.03065
G1 X102.516 Y103.564 E.00857
M204 S1000
G1 X102.821 Y103.822 F10800
M204 S800
G1 F1200
G1 X103.321 Y103.231 E.02427
G1 X104.068 Y102.838 E.02647
G1 X104.585 Y102.746 E.01646
G1 X105.11 Y102.768 E.01648
G1 X105.915 Y103.071 E.02697
G1 X106.597 Y103.678 E.02863
G1 X106.849 Y104.122 E.01601
G1 X107.006 Y104.604 E.01589
G1 X107.023 Y105.4 E.02496
G1 X106.802 Y106.092 E.02278
G1 X106.265 Y106.788 E.02756
G1 X105.394 Y107.278 E.03133
G1 X104.439 Y107.351 E.03003
G1 X103.8 Y107.17 E.02082
G1 X103.321 Y106.879 E.01757
G1 X102.97 Y106.537 E.01537
G1 X102.575 Y105.884 E.02393
G1 X102.444 Y105.327 E.01794
G1 X102.448 Y104.754 E.01797
G1 X102.688 Y103.979 E.02544
G1 X102.782 Y103.868 E.00456
M204 S1000
G1 X103.066 Y104.108 F10800
M204 S800
G1 F1200
G1 X103.562 Y103.522 E.02407
G1 X104.163 Y103.204 E.02132
G1 X104.63 Y103.121 E.01487
G1 X105.059 Y103.143 E.01347
G1 X105.745 Y103.409 E.02307
G1 X106.286 Y103.893 E.02276
G1 X106.638 Y104.694 E.02743
G1 X106.653 Y105.318 E.01957
G1 X106.468 Y105.915 E.0196
G1 X106.03 Y106.492 E.02271
G1 X105.273 Y106.92 E.02727
G1 X104.506 Y106.979 E.02412
G1 X103.97 Y106.832 E.01743
G1 X103.276 Y106.316 E.02712
G1 X102.934 Y105.764 E.02036
G1 X102.822 Y105.305 E.01481
G1 X102.825 Y104.784 E.01634
G1 X103.015 Y104.169 E.02018
G1 X103.028 Y104.154 E.00062
M204 S1000
G1 X103.343 Y104.358 F10800
M204 S800
G1 F1200
G1 X103.566 Y104.034 E.01233
G1 X103.8 Y103.815 E.01005
G1 X104.262 Y103.569 E.01641
G1 X104.634 Y103.499 E.01187
G1 X105.011 Y103.518 E.01184
G1 X105.524 Y103.716 E.01724
G1 X105.976 Y104.11 E.0188
G1 X106.27 Y104.779 E.02291
G1 X106.276 Y105.291 E.01605
G1 X106.134 Y105.739 E.01474
G1 X105.794 Y106.198 E.01791
G1 X105.154 Y106.561 E.02307
G1 X104.57 Y106.606 E.01837
G1 X104.136 Y106.492 E.01407
G1 X103.579 Y106.09 E.02154
G1 X103.291 Y105.64 E.01675
G1 X103.195 Y104.861 E.02461
G1 X103.326 Y104.415 E.01457
M204 S1000
G1 X103.671 Y104.546 F10800
M204 S800
G1 F1200
G1 X104.037 Y104.11 E.01785
G1 X104.361 Y103.934 E.01156
G1 X104.954 Y103.892 E.01864
G1 X105.352 Y104.052 E.01345
G1 X105.668 Y104.329 E.01318
G1 X105.902 Y104.866 E.01837
G1 X105.907 Y105.21 E.01079
G1 X105.799 Y105.564 E.0116
G1 X105.555 Y105.905 E.01315
G1 X105.035 Y106.202 E.01878
G1 X104.629 Y106.233 E.01277
G1 X104.298 Y106.151 E.01069
G1 X103.878 Y105.859 E.01604
G1 X103.648 Y105.514 E.013
G1 X103.572 Y104.89 E.01971
G1 X103.654 Y104.604 E.00933
M204 S1000
; printing object Bittle_bone.stl id:0 copy 0
;WIPE_START
G1 F8640
G1 X103.671 Y104.546 E-.01396
G1 X104.037 Y104.11 E-.13144
G1 X104.361 Y103.934 E-.08514
G1 X104.954 Y103.892 E-.13727
G1 X105.352 Y104.052 E-.09905
G1 X105.668 Y104.329 E-.09703
G1 X105.902 Y104.866 E-.13526
G1 X105.907 Y105.21 E-.07944
G1 X105.88 Y105.299 E-.02141
;WIPE_END
G1 Z.6 F720
G1 X104.708 Y105.305 F10800
G1 Z.2 F720
G1 E.8 F2100
M204 S800
;TYPE:Perimeter
;WIDTH:0.517177
G1 F1200
G1 X104.528 Y105.183 E.00858
G1 X104.491 Y105.03 E.00621
G1 X104.586 Y104.868 E.00741
G1 X104.777 Y104.818 E.00779
G1 X104.936 Y104.904 E.00713
G1 X104.987 Y105.057 E.00636
G1 X104.978 Y105.111 E.00216
G1 X104.858 Y105.273 E.00795
G1 X104.767 Y105.293 E.00367
M204 S1000
G1 X104.783 Y105.732 F10800
M204 S800
;TYPE:External perimeter
;WIDTH:0.419999
G1 F1200
M73 P4 R12
G1 X104.515 Y105.699 E.00847
G1 X104.25 Y105.525 E.00994
G1 X104.116 Y105.338 E.00721
G1 X104.066 Y105.074 E.00842
G1 X104.13 Y104.75 E.01036
G1 X104.318 Y104.525 E.00919
G1 X104.578 Y104.398 E.00907
G1 X104.88 Y104.389 E.00947
G1 X105.168 Y104.545 E.01027
G1 X105.356 Y104.778 E.00939
G1 X105.412 Y105.06 E.00901
G1 X105.412 Y105.151 E.00285
G1 X105.283 Y105.442 E.00998
G1 X105.072 Y105.645 E.00918
G1 X104.841 Y105.715 E.00757
M204 S1000
; stop printing object Bittle_bone.stl id:0 copy 0
M106 S84.15
;LAYER_CHANGE
;Z:0.4
;HEIGHT:0.2
;BEFORE_LAYER_CHANGE
G92 E0.0
;0.4


;WIPE_START
G1 F8640
G1 X104.783 Y105.732 E-.01396
G1 X104.515 Y105.699 E-.06235
G1 X104.25 Y105.525 E-.0732
G1 X104.116 Y105.338 E-.05312
G1 X104.066 Y105.074 E-.06204
G1 X104.13 Y104.75 E-.07626
G1 X104.318 Y104.525 E-.0677
G1 X104.578 Y104.398 E-.06681
G1 X104.88 Y104.389 E-.06976
G1 X105.168 Y104.545 E-.07563
G1 X105.356 Y104.778 E-.06913
G1 X105.412 Y105.06 E-.06639
G1 X105.412 Y105.151 E-.02101
G1 X105.372 Y105.241 E-.02264
;WIPE_END
G1 Z.4 F720
;AFTER_LAYER_CHANGE
;0.4
M104 S210 ; set temperature
G1 Z.8
G1 X106.675 Y113.627 F10800
G1 Z.4 F720
G1 E.8 F2100
;TYPE:Skirt/Brim
;WIDTH:0.42
G1 F1563
G1 X106.12 Y113.714 E.01761
G1 X104.124 Y113.787 E.06263
G1 X102.991 Y113.624 E.03589
G1 X101.883 Y113.333 E.03592
G1 X100.858 Y112.898 E.03491
G1 X99.803 Y112.278 E.03837
G1 X99.119 Y111.763 E.02685
G1 X98.113 Y110.767 E.04439
G1 X97.111 Y109.345 E.05454
G1 X96.521 Y108.071 E.04402
G1 X96.12 Y106.578 E.04847
G1 X96.004 Y105.564 E.032
G1 X95.999 Y104.654 E.02853
G1 X96.17 Y103.283 E.04332
G1 X96.488 Y102.131 E.03747
G1 X97.172 Y100.663 E.05078
G1 X98.053 Y99.414 E.04792
G1 X99.308 Y98.194 E.05488
G1 X100.815 Y97.232 E.05606
G1 X102.224 Y96.667 E.0476
G1 X103.841 Y96.349 E.05167
G1 X105.543 Y96.345 E.05337
G1 X134.041 Y100.783 E.9043
G1 X134.771 Y101.075 E.02465
G1 X135.584 Y101.608 E.03048
G1 X136.238 Y102.276 E.02931
G1 X136.73 Y103.041 E.02852
