; generated by PrusaSlicer 2.7.1+linux-x64-GTK3 on 2024-02-20 at 15:23:43 UTC

; 

; external perimeters extrusion width = 0.45mm
; perimeters extrusion width = 0.45mm
; infill extrusion width = 0.45mm
; solid infill extrusion width = 0.45mm
; top infill extrusion width = 0.40mm
; first layer extrusion width = 0.42mm

; external perimeters extrusion width = 0.45mm
; perimeters extrusion width = 0.45mm
; infill extrusion width = 0.45mm
; solid infill extrusion width = 0.45mm
; top infill extrusion width = 0.40mm
; first layer extrusion width = 0.42mm

; external perimeters extrusion width = 0.45mm
; perimeters extrusion width = 0.45mm
; infill extrusion width = 0.45mm
; solid infill extrusion width = 0.45mm
; top infill extrusion width = 0.40mm
; first layer extrusion width = 0.42mm

; external perimeters extrusion width = 0.45mm
; perimeters extrusion width = 0.45mm
; infill extrusion width = 0.45mm
; solid infill extrusion width = 0.45mm
; top infill extrusion width = 0.40mm
; first layer extrusion width = 0.42mm

M73 P0 R20
M201 X9000 Y9000 Z500 E10000 ; sets maximum accelerations, mm/sec^2
M203 X500 Y500 Z12 E120 ; sets maximum feedrates, mm / sec
M204 S2000 T1500 ; sets acceleration (S) and retract acceleration (R), mm/sec^2
M205 X10.00 Y10.00 Z0.20 E2.50 ; sets the jerk limits, mm/sec
M205 S0 T0 ; sets the minimum extruding and travel feed rate, mm/sec

; printing object Bittle_standoffPi.stl id:1 copy 0
; stop printing object Bittle_standoffPi.stl id:1 copy 0
; printing object Bittle_standoffPi.stl id:0 copy 0
; stop printing object Bittle_standoffPi.stl id:0 copy 0
; printing object Bittle_standoffPi.stl id:3 copy 0
; stop printing object Bittle_standoffPi.stl id:3 copy 0
; printing object Bittle_standoffPi.stl id:2 copy 0
; stop printing object Bittle_standoffPi.stl id:2 copy 0

;TYPE:Custom
M862.3 P "MK2S" ; printer model check
M862.1 P0.4 ; nozzle diameter check
M115 U3.2.3 ; tell printer latest fw version
G90 ; use absolute coordinates
M83 ; extruder relative mode
M204 S2000 T1500 ; MK2 firmware only supports the old M204 format
M104 S215 ; set extruder temp
M140 S60 ; set bed temp
M190 S60 ; wait for bed temp
M109 S215 ; wait for extruder temp
G28 W ; home all without mesh bed level
G80 ; mesh bed leveling
G1 Z0.2 F720
G1 Y-2 F1000 ; go outside print area
G92 E0
G1 X60 E9 F1000 ; intro line
G1 X100 E12.5 F1000 ; intro line
G92 E0
G21 ; set units to millimeters
G90 ; use absolute coordinates
M83 ; use relative distances for extrusion

M900 K0.05 ; Filament gcode LA 1.5
M900 K30 ; Filament gcode LA 1.0




M107
;LAYER_CHANGE
;Z:0.2
;HEIGHT:0.2
;BEFORE_LAYER_CHANGE
G92 E0.0
;0.2


G1 E-.8 F2100
G1 Z.2 F720
;AFTER_LAYER_CHANGE
;0.2
G1 X47.732 Y90.116 F10800
G1 Z.2 F720
G1 E.8 F2100
M204 S800
;TYPE:Skirt/Brim
;WIDTH:0.42
G1 F1200
G1 X48.519 Y89.72 E.02762
G1 X49.712 Y89.309 E.03956
G1 X50.634 Y89.129 E.02945
G1 X51.554 Y89.06 E.02893
G1 X81.539 Y88.573 E.94028
G1 X127.371 Y88.32 E1.43705
G1 X167.413 Y88.39 E1.25549
G1 X168.304 Y88.457 E.02802
M73 P1 R20
G1 X169.296 Y88.65 E.03169
G1 X170.353 Y89.01 E.03501
G1 X171.105 Y89.374 E.0262
G1 X171.914 Y89.895 E.03017
G1 X172.909 Y90.742 E.04097
G1 X173.3 Y91.183 E.01848
G1 X174.022 Y92.236 E.04003
G1 X174.683 Y93.821 E.05384
G1 X174.95 Y95.111 E.0413
G1 X175.186 Y105.607 E.32918
G1 X175.182 Y109.479 E.1214
G1 X175.08 Y110.475 E.03139
G1 X174.875 Y111.356 E.02836
G1 X174.39 Y112.596 E.04175
G1 X173.872 Y113.485 E.03226
G1 X173.305 Y114.218 E.02906
G1 X172.291 Y115.198 E.04422
G1 X171.569 Y115.714 E.02782
G1 X170.697 Y116.185 E.03107
G1 X169.649 Y116.587 E.03519
G1 X168.487 Y116.852 E.03737
G1 X167.614 Y116.934 E.02749
G1 X53.226 Y117.6 E3.58662
G1 X51.294 Y117.417 E.06085
M73 P1 R19
G1 X50.201 Y117.022 E.03644
G1 X48.732 Y116.029 E.0556
G1 X47.785 Y115.261 E.03823
G1 X47.37 Y114.818 E.01903
G1 X46.754 Y113.917 E.03422
G1 X44.793 Y110.109 E.1343
G1 X44.175 Y108.376 E.05769
G1 X43.981 Y107.073 E.0413
G1 X43.981 Y96.378 E.33533
G1 X44.091 Y95.34 E.03273
G1 X44.313 Y94.308 E.0331
G1 X44.558 Y93.656 E.02184
G1 X45.289 Y92.336 E.04731
G1 X45.712 Y91.783 E.02183
G1 X46.557 Y90.962 E.03694
G1 X47.683 Y90.151 E.04351
M204 S1000
;WIPE_START
G1 F8640
G1 X47.732 Y90.116 E-.0139
G1 X48.519 Y89.72 E-.20343
G1 X49.712 Y89.309 E-.29136
G1 X50.634 Y89.129 E-.21691
G1 X50.955 Y89.105 E-.0744
;WIPE_END
G1 Z.6 F720
G1 X156.027 Y95.755 F10800
G1 Z.2 F720
G1 E.8 F2100
M204 S800
G1 F1200
G1 X156.235 Y94.547 E.03843
G1 X157.196 Y92.802 E.06246
G1 X158.26 Y91.885 E.04404
G1 X159.47 Y91.302 E.04211
G1 X160.66 Y91.072 E.038
G1 X167.724 Y91.075 E.22149
G1 X169.237 Y91.432 E.04874
G1 X170.251 Y91.988 E.03626
G1 X171.142 Y92.794 E.03767
G1 X171.908 Y94.001 E.04482
G1 X172.29 Y95.442 E.04674
G1 X172.298 Y97.972 E.07933
G1 X171.953 Y99.296 E.0429
G1 X171.43 Y100.261 E.03441
M73 P2 R19
G1 X170.794 Y100.972 E.02991
G1 X171.124 Y101.264 E.01382
G1 X171.761 Y102.185 E.03511
G1 X172.222 Y103.471 E.04283
G1 X172.523 Y105.694 E.07034
G1 X172.523 Y109.386 E.11576
G1 X172.33 Y110.564 E.03743
G1 X171.349 Y112.404 E.06538
G1 X170.273 Y113.373 E.0454
G1 X168.925 Y114.023 E.04692
G1 X167.663 Y114.262 E.04027
G1 X162.791 Y114.273 E.15276
G1 X161.603 Y114.117 E.03757
G1 X160.127 Y113.461 E.05064
G1 X159.242 Y112.768 E.03524
G1 X158.733 Y112.21 E.02368
G1 X157.947 Y110.793 E.05081
G1 X157.673 Y109.562 E.03954
G1 X157.304 Y109.243 E.01529
G1 X156.655 Y108.352 E.03456
G1 X156.142 Y107.019 E.04478
G1 X156.028 Y95.815 E.35131
M204 S1000
G1 X156.405 Y95.811 F10800
M204 S800
G1 F1200
G1 X156.405 Y95.769 E.00132
G1 X156.601 Y94.642 E.03587
G1 X157.469 Y93.064 E.05647
G1 X158.448 Y92.213 E.04067
G1 X159.568 Y91.667 E.03907
G1 X160.679 Y91.449 E.0355
G1 X167.702 Y91.452 E.2202
G1 X169.078 Y91.775 E.04432
G1 X170.05 Y92.308 E.03476
G1 X170.868 Y93.055 E.03473
G1 X171.573 Y94.176 E.04152
G1 X171.919 Y95.513 E.0433
G1 X171.927 Y97.902 E.07491
G1 X171.611 Y99.137 E.03997
G1 X171.109 Y100.061 E.03297
G1 X170.247 Y101.012 E.04024
G1 X170.83 Y101.501 E.02386
G1 X171.436 Y102.379 E.03345
G1 X171.85 Y103.537 E.03856
G1 X172.146 Y105.708 E.0687
G1 X172.146 Y109.37 E.11482
G1 X171.963 Y110.471 E.03499
G1 X171.073 Y112.145 E.05944
G1 X170.041 Y113.074 E.04354
G1 X168.786 Y113.672 E.04359
G1 X167.645 Y113.885 E.03639
G1 X162.803 Y113.896 E.15182
G1 X161.68 Y113.747 E.03552
G1 X160.341 Y113.15 E.04597
G1 X159.488 Y112.481 E.03399
G1 X159.028 Y111.973 E.02149
G1 X158.291 Y110.636 E.04787
G1 X158.06 Y109.394 E.03961
G1 X157.595 Y109.001 E.01909
G1 X156.975 Y108.151 E.03299
G1 X156.507 Y106.917 E.04138
G1 X156.405 Y95.871 E.34635
M204 S1000
G1 X156.782 Y95.868 F10800
M204 S800
G1 F1200
G1 X156.782 Y95.784 E.00263
G1 X156.967 Y94.739 E.03327
G1 X157.743 Y93.326 E.05055
G1 X158.638 Y92.539 E.03737
G1 X159.666 Y92.032 E.03594
G1 X160.698 Y91.826 E.033
G1 X167.68 Y91.829 E.21892
G1 X168.92 Y92.118 E.03992
G1 X169.848 Y92.627 E.03319
G1 X170.594 Y93.314 E.0318
G1 X171.237 Y94.349 E.0382
G1 X171.548 Y95.582 E.03987
G1 X171.55 Y97.878 E.07199
G1 X171.252 Y99.02 E.03701
G1 X170.815 Y99.824 E.02869
G1 X170.116 Y100.595 E.03263
G1 X169.556 Y100.936 E.02056
G1 X170.535 Y101.738 E.03968
G1 X171.112 Y102.573 E.03182
G1 X171.478 Y103.603 E.03427
G1 X171.769 Y105.722 E.06706
G1 X171.769 Y109.354 E.11388
G1 X171.597 Y110.379 E.03259
G1 X170.794 Y111.889 E.05362
G1 X169.852 Y112.747 E.03995
G1 X168.691 Y113.306 E.0404
G1 X167.626 Y113.508 E.03399
G1 X162.816 Y113.519 E.15081
G1 X161.757 Y113.377 E.0335
G1 X160.556 Y112.839 E.04126
G1 X159.734 Y112.195 E.03274
G1 X159.323 Y111.738 E.01927
G1 X158.635 Y110.48 E.04496
G1 X158.44 Y109.555 E.02964
G1 X158.44 Y109.217 E.0106
G1 X157.885 Y108.759 E.02256
G1 X157.296 Y107.95 E.03138
G1 X156.872 Y106.816 E.03796
G1 X156.783 Y95.928 E.3414
M204 S1000
G1 X157.16 Y95.926 F10800
M204 S800
G1 F1200
G1 X157.159 Y95.799 E.00398
G1 X157.333 Y94.836 E.03068
G1 X158.018 Y93.586 E.04469
G1 X158.83 Y92.865 E.03405
G1 X159.767 Y92.396 E.03285
G1 X160.717 Y92.203 E.0304
G1 X167.659 Y92.206 E.21766
G1 X168.763 Y92.462 E.03553
G1 X169.61 Y92.921 E.03021
G1 X170.318 Y93.574 E.0302
G1 X170.899 Y94.521 E.03484
G1 X171.176 Y95.648 E.03639
G1 X171.173 Y97.852 E.0691
G1 X170.893 Y98.9 E.03401
G1 X170.52 Y99.588 E.02454
G1 X169.858 Y100.318 E.0309
G1 X168.736 Y100.969 E.04067
G1 X169.327 Y101.239 E.02037
G1 X170.241 Y101.976 E.03681
G1 X170.788 Y102.766 E.03013
G1 X171.107 Y103.669 E.03003
G1 X171.392 Y105.736 E.06542
G1 X171.392 Y109.338 E.11294
G1 X171.23 Y110.286 E.03015
G1 X170.516 Y111.632 E.04777
G1 X169.619 Y112.449 E.03804
G1 X168.595 Y112.941 E.03562
G1 X167.607 Y113.131 E.03155
G1 X162.828 Y113.142 E.14984
G1 X161.835 Y113.007 E.03142
G1 X160.77 Y112.528 E.03661
G1 X159.98 Y111.909 E.03147
G1 X159.619 Y111.504 E.01701
G1 X158.998 Y110.375 E.0404
G1 X158.814 Y109.5 E.02804
G1 X158.821 Y109.04 E.01442
G1 X158.175 Y108.517 E.02606
G1 X157.616 Y107.75 E.02976
G1 X157.237 Y106.717 E.0345
G1 X157.16 Y95.986 E.33647
M204 S1000
G1 X157.537 Y95.983 F10800
M73 P3 R19
M204 S800
G1 F1200
G1 X157.536 Y95.815 E.00527
G1 X157.698 Y94.934 E.02809
G1 X158.294 Y93.844 E.03895
G1 X159.024 Y93.189 E.03075
G1 X159.869 Y92.76 E.02971
G1 X160.736 Y92.58 E.02776
G1 X167.637 Y92.583 E.21638
G1 X168.606 Y92.805 E.03117
G1 X169.409 Y93.241 E.02865
G1 X170.043 Y93.832 E.02718
G1 X170.54 Y94.639 E.02972
G1 X170.804 Y95.716 E.03477
G1 X170.796 Y97.826 E.06616
G1 X170.55 Y98.742 E.02974
G1 X170.225 Y99.352 E.02167
G1 X169.599 Y100.042 E.02921
G1 X168.508 Y100.661 E.03933
G1 X167.804 Y100.808 E.02255
G1 X167.808 Y101.119 E.00975
G1 X168.326 Y101.212 E.0165
G1 X169.114 Y101.551 E.0269
G1 X169.949 Y102.215 E.03345
G1 X170.441 Y102.917 E.02688
G1 X170.744 Y103.774 E.0285
G1 X171.015 Y105.75 E.06254
G1 X171.015 Y109.321 E.11197
G1 X170.864 Y110.192 E.02772
G1 X170.237 Y111.377 E.04204
G1 X169.428 Y112.123 E.0345
G1 X168.498 Y112.575 E.03242
G1 X167.588 Y112.754 E.02908
G1 X162.84 Y112.765 E.14887
G1 X161.914 Y112.637 E.02931
G1 X160.985 Y112.217 E.03197
G1 X160.226 Y111.623 E.03022
G1 X159.916 Y111.27 E.01473
G1 X159.361 Y110.269 E.03589
G1 X159.188 Y109.445 E.0264
G1 X159.205 Y108.862 E.01829
G1 X158.464 Y108.273 E.02968
G1 X157.937 Y107.55 E.02805
G1 X157.603 Y106.621 E.03095
G1 X157.537 Y96.043 E.33167
M204 S1000
G1 X157.914 Y96.041 F10800
M204 S800
G1 F1200
G1 X157.913 Y95.831 E.00658
G1 X158.063 Y95.033 E.02546
G1 X158.57 Y94.103 E.03321
G1 X159.257 Y93.486 E.02895
G1 X159.971 Y93.124 E.0251
G1 X160.756 Y92.957 E.02516
G1 X167.616 Y92.96 E.21509
G1 X168.451 Y93.15 E.02685
G1 X169.17 Y93.534 E.02556
G1 X169.767 Y94.091 E.0256
G1 X170.181 Y94.758 E.02461
G1 X170.432 Y95.783 E.03309
G1 X170.425 Y97.752 E.06174
G1 X170.192 Y98.623 E.02827
G1 X169.905 Y99.153 E.0189
G1 X169.386 Y99.729 E.02431
G1 X168.35 Y100.317 E.03735
G1 X167.467 Y100.486 E.02819
G1 X165.603 Y100.49 E.05844
G1 X165.603 Y101.44 E.02979
G1 X167.439 Y101.443 E.05757
G1 X168.199 Y101.568 E.02415
G1 X168.941 Y101.887 E.02532
G1 X169.69 Y102.491 E.03017
G1 X170.115 Y103.108 E.02349
G1 X170.38 Y103.876 E.02547
G1 X170.638 Y105.764 E.05975
G1 X170.638 Y109.305 E.11103
G1 X170.498 Y110.097 E.02522
G1 X169.956 Y111.124 E.03641
G1 X169.235 Y111.798 E.03095
G1 X168.399 Y112.211 E.02924
G1 X167.569 Y112.377 E.02654
G1 X162.853 Y112.388 E.14787
G1 X161.994 Y112.268 E.02719
G1 X161.2 Y111.906 E.02736
G1 X160.473 Y111.338 E.02893
G1 X160.213 Y111.038 E.01245
G1 X159.724 Y110.163 E.03143
G1 X159.562 Y109.391 E.02473
G1 X159.593 Y108.641 E.02354
G1 X158.753 Y108.029 E.03259
G1 X158.259 Y107.351 E.0263
G1 X157.969 Y106.526 E.02742
G1 X157.915 Y96.101 E.32687
M204 S1000
G1 X158.291 Y96.1 F10800
M204 S800
G1 F1200
G1 X158.29 Y95.848 E.0079
G1 X158.428 Y95.133 E.02283
G1 X158.846 Y94.362 E.0275
G1 X159.491 Y93.784 E.02716
G1 X160.076 Y93.487 E.02057
G1 X160.777 Y93.334 E.0225
G1 X167.556 Y93.333 E.21255
G1 X168.3 Y93.496 E.02388
G1 X168.934 Y93.829 E.02245
G1 X169.461 Y94.312 E.02241
G1 X169.845 Y94.931 E.02284
G1 X170.055 Y95.805 E.02818
G1 X170.054 Y97.68 E.05879
G1 X169.848 Y98.466 E.02548
G1 X169.606 Y98.922 E.01619
G1 X169.169 Y99.419 E.02075
G1 X168.246 Y99.953 E.03343
G1 X167.448 Y100.109 E.02549
G1 X165.225 Y100.113 E.0697
G1 X165.225 Y101.817 E.05343
G1 X167.424 Y101.82 E.06895
G1 X168.075 Y101.924 E.02067
G1 X168.725 Y102.198 E.02212
G1 X169.43 Y102.766 E.02839
G1 X169.788 Y103.297 E.02008
G1 X170.007 Y103.937 E.02121
G1 X170.26 Y105.779 E.0583
G1 X170.26 Y109.288 E.11002
G1 X170.132 Y110.002 E.02274
G1 X169.674 Y110.872 E.03083
G1 X169.04 Y111.474 E.02741
G1 X168.298 Y111.847 E.02604
G1 X167.548 Y112 E.024
G1 X162.866 Y112.011 E.1468
G1 X162.074 Y111.898 E.02508
G1 X161.416 Y111.596 E.0227
G1 X160.512 Y110.807 E.03762
G1 X160.087 Y110.056 E.02706
G1 X159.936 Y109.338 E.023
G1 X159.984 Y108.394 E.02964
G1 X159.631 Y108.237 E.01211
G1 X159.041 Y107.785 E.0233
G1 X158.581 Y107.153 E.02451
G1 X158.336 Y106.434 E.02382
G1 X158.292 Y96.16 E.32214
M204 S1000
G1 X158.668 Y96.159 F10800
M204 S800
G1 F1200
G1 X158.668 Y95.866 E.00919
G1 X158.791 Y95.236 E.02013
G1 X159.158 Y94.576 E.02368
G1 X159.719 Y94.084 E.0234
G1 X160.22 Y93.836 E.01753
G1 X160.834 Y93.707 E.01967
G1 X167.498 Y93.706 E.20895
G1 X168.152 Y93.844 E.02096
G1 X168.699 Y94.124 E.01927
G1 X169.186 Y94.571 E.02073
G1 X169.506 Y95.1 E.01938
G1 X169.678 Y95.828 E.02345
G1 X169.683 Y97.609 E.05584
G1 X169.489 Y98.349 E.02399
G1 X168.951 Y99.11 E.02922
G1 X168.086 Y99.61 E.03133
G1 X167.431 Y99.732 E.02089
G1 X164.848 Y99.737 E.08099
G1 X164.848 Y102.194 E.07704
G1 X167.409 Y102.197 E.0803
G1 X167.954 Y102.282 E.01729
G1 X168.511 Y102.509 E.01886
G1 X169.169 Y103.04 E.02651
G1 X169.459 Y103.483 E.0166
G1 X169.635 Y103.998 E.01706
G1 X169.883 Y105.794 E.05685
G1 X169.883 Y109.27 E.10899
G1 X169.766 Y109.905 E.02025
G1 X169.389 Y110.623 E.02543
G1 X168.842 Y111.152 E.02386
G1 X168.194 Y111.483 E.02281
G1 X167.528 Y111.623 E.02134
G1 X162.879 Y111.634 E.14577
G1 X162.156 Y111.529 E.02291
G1 X161.631 Y111.286 E.01814
G1 X160.83 Y110.603 E.03301
G1 X160.449 Y109.945 E.02384
G1 X160.314 Y109.332 E.01968
G1 X160.356 Y108.505 E.02596
G1 X160.462 Y108.184 E.0106
M73 P4 R19
G1 X159.836 Y107.92 E.0213
G1 X159.326 Y107.536 E.02002
G1 X158.928 Y107.002 E.02088
G1 X158.702 Y106.342 E.02187
G1 X158.669 Y96.219 E.3174
M204 S1000
G1 X159.045 Y96.218 F10800
M204 S800
G1 F1200
G1 X159.045 Y95.885 E.01044
G1 X159.155 Y95.342 E.01737
G1 X159.468 Y94.793 E.01981
G1 X159.943 Y94.388 E.01957
G1 X160.361 Y94.186 E.01456
G1 X160.889 Y94.081 E.01688
G1 X167.443 Y94.079 E.2055
G1 X168.004 Y94.192 E.01794
G1 X168.502 Y94.447 E.01754
G1 X168.907 Y94.826 E.01739
G1 X169.167 Y95.265 E.016
G1 X169.301 Y95.849 E.01879
G1 X169.306 Y97.584 E.0544
G1 X169.131 Y98.229 E.02095
G1 X168.685 Y98.841 E.02374
G1 X167.984 Y99.246 E.02538
G1 X167.412 Y99.355 E.01826
G1 X164.471 Y99.361 E.09221
G1 X164.471 Y102.57 E.10062
G1 X167.395 Y102.574 E.09168
G1 X167.838 Y102.641 E.01405
G1 X168.298 Y102.822 E.0155
G1 X168.907 Y103.313 E.02453
G1 X169.262 Y104.059 E.0259
G1 X169.506 Y105.809 E.0554
G1 X169.506 Y109.252 E.10795
G1 X169.401 Y109.807 E.01771
G1 X169.103 Y110.376 E.02014
G1 X168.641 Y110.832 E.02035
G1 X168.089 Y111.12 E.01952
G1 X167.507 Y111.246 E.01867
G1 X162.892 Y111.257 E.1447
G1 X162.239 Y111.16 E.0207
G1 X161.847 Y110.976 E.01358
G1 X161.217 Y110.483 E.02508
G1 X160.791 Y109.784 E.02567
G1 X160.688 Y109.282 E.01607
G1 X160.73 Y108.561 E.02264
G1 X160.996 Y107.87 E.02322
G1 X160.46 Y107.773 E.01708
G1 X160.039 Y107.601 E.01426
G1 X159.607 Y107.284 E.0168
G1 X159.274 Y106.85 E.01715
G1 X159.069 Y106.249 E.01991
G1 X159.046 Y96.278 E.31263
M204 S1000
G1 X159.422 Y96.277 F10800
M204 S800
G1 F1200
G1 X159.422 Y95.905 E.01166
G1 X159.517 Y95.451 E.01454
G1 X159.774 Y95.015 E.01587
G1 X160.162 Y94.696 E.01575
G1 X160.498 Y94.538 E.01164
G1 X160.941 Y94.455 E.01413
G1 X167.392 Y94.453 E.20227
G1 X167.857 Y94.54 E.01483
G1 X168.305 Y94.77 E.01579
G1 X168.625 Y95.078 E.01393
G1 X168.825 Y95.427 E.01261
G1 X168.924 Y95.87 E.01423
G1 X168.929 Y97.558 E.05293
G1 X168.775 Y98.106 E.01785
G1 X168.419 Y98.572 E.01839
G1 X167.88 Y98.882 E.0195
G1 X167.393 Y98.978 E.01556
