; generated by PrusaSlicer 2.7.1+linux-x64-GTK3 on 2024-02-16 at 15:29:51 UTC

; 

; external perimeters extrusion width = 0.45mm
; perimeters extrusion width = 0.45mm
; infill extrusion width = 0.45mm
; solid infill extrusion width = 0.45mm
; top infill extrusion width = 0.40mm
; first layer extrusion width = 0.70mm

M73 P0 R49
M201 X9000 Y9000 Z500 E10000 ; sets maximum accelerations, mm/sec^2
M203 X500 Y500 Z12 E120 ; sets maximum feedrates, mm / sec
M204 S2000 T1500 ; sets acceleration (S) and retract acceleration (R), mm/sec^2
M205 X10.00 Y10.00 Z0.20 E2.50 ; sets the jerk limits, mm/sec
M205 S0 T0 ; sets the minimum extruding and travel feed rate, mm/sec
;TYPE:Custom
M862.3 P "MK2S" ; printer model check
M862.1 P0.4 ; nozzle diameter check
M115 U3.2.3 ; tell printer latest fw version
G90 ; use absolute coordinates
M83 ; extruder relative mode
M204 S2000 T1500 ; MK2 firmware only supports the old M204 format
M104 S215 ; set extruder temp
M140 S60 ; set bed temp
M190 S60 ; wait for bed temp
M109 S215 ; wait for extruder temp
G28 W ; home all without mesh bed level
G80 ; mesh bed leveling
G1 Z0.2 F720
G1 Y-2 F1000 ; go outside print area
G92 E0
G1 X60 E9 F1000 ; intro line
G1 X100 E12.5 F1000 ; intro line
G92 E0
G21 ; set units to millimeters
G90 ; use absolute coordinates
M83 ; use relative distances for extrusion

M900 K0.05 ; Filament gcode LA 1.5
M900 K30 ; Filament gcode LA 1.0




M107
;LAYER_CHANGE
;Z:0.35
;HEIGHT:0.35
;BEFORE_LAYER_CHANGE
G92 E0.0
;0.35


G1 E-.8 F2100
G1 Z.35 F7800
;AFTER_LAYER_CHANGE
;0.35
G1 X74.35 Y74.73
G1 Z.35
G1 E.8 F2100
;TYPE:Skirt/Brim
;WIDTH:0.7
G1 F1800
G1 X75.168 Y74.087 E.09461
G1 X106.183 Y53.19 E3.40059
G1 X108.191 Y52.21 E.20317
G1 X110.32 Y51.528 E.20328
G1 X112.524 Y51.161 E.20317
G1 X114.759 Y51.115 E.20327
G1 X116.506 Y51.305 E.15979
G1 X118.678 Y51.831 E.20321
G1 X120.171 Y52.395 E.14512
G1 X122.148 Y53.437 E.20321
G1 X152.754 Y74.087 E3.3572
G1 X153.571 Y74.73 E.09454
G1 X154.306 Y75.466 E.09458
G1 X155.257 Y76.775 E.14712
G1 X155.728 Y77.702 E.09455
G1 X156.16 Y78.959 E.12086
G1 X156.389 Y80.268 E.12083
G1 X156.432 Y81.076 E.07358
G1 X156.393 Y131.087 E4.54748
G1 X156.35 Y131.889 E.07303
G1 X156.12 Y133.192 E.12031
G1 X155.798 Y134.18 E.09449
G1 X155.217 Y135.367 E.12017
G1 X154.273 Y136.664 E.14587
G1 X153.538 Y137.399 E.09452
G1 X152.725 Y138.036 E.09391
G1 X121.698 Y158.906 E3.40012
G1 X120.14 Y159.695 E.1588
G1 X118.044 Y160.437 E.20218
G1 X115.864 Y160.87 E.2021
G1 X113.643 Y160.984 E.20222
G1 X111.43 Y160.779 E.20209
G1 X109.269 Y160.256 E.20217
G1 X107.781 Y159.695 E.1446
G1 X105.814 Y158.659 E.20215
G1 X75.196 Y138.036 E3.35673
G1 X74.384 Y137.399 E.09384
G1 X73.649 Y136.665 E.09445
G1 X72.705 Y135.367 E.14594
G1 X72.123 Y134.18 E.12021
G1 X71.802 Y133.192 E.09446
G1 X71.572 Y131.889 E.12031
G1 X71.528 Y131.087 E.07304
G1 X71.489 Y81.076 E4.54748
G1 X71.532 Y80.268 E.07358
G1 X71.761 Y78.959 E.12083
G1 X72.193 Y77.702 E.12086
G1 X72.664 Y76.775 E.09455
G1 X73.615 Y75.466 E.14712
G1 X74.307 Y74.773 E.08905
;WIPE_START
G1 F6240
G1 X74.35 Y74.73 E-.01944
G1 X75.168 Y74.087 E-.33265
G1 X76.33 Y73.304 E-.44791
;WIPE_END
G1 Z.75 F7800
G1 X147.71 Y86.571
G1 Z.35
G1 E.8 F2100
;TYPE:Perimeter
;WIDTH:0.808459
G1 F1800
G1 X147.702 Y83.056 E.37509
G1 X147.809 Y82.949 E.01615
G1 X147.896 Y82.78 E.02028
;WIDTH:0.760895
G1 X147.982 Y82.611 E.01892
;WIDTH:0.713332
G1 X148.098 Y82.181 E.04136
;WIDTH:0.7
G1 X148.089 Y81.723 E.04165
G1 X147.909 Y81.207 E.04969
G1 X147.587 Y80.851 E.04365
G1 X147.148 Y80.617 E.04523
;WIDTH:0.655742
G1 X146.98 Y80.603 E.01424
;WIDTH:0.615094
G1 X146.812 Y80.589 E.01325
;WIDTH:0.574446
G1 X146.643 Y80.575 E.01232
;WIDTH:0.533919
G1 X143.198 Y80.575 E.23
;WIDTH:0.579991
G1 X143.003 Y80.567 E.01434
;WIDTH:0.626063
G1 X142.809 Y80.559 E.01557
;WIDTH:0.672135
G1 X142.614 Y80.551 E.01695
G1 X142.786 Y80.406 E.01954
;WIDTH:0.626063
G1 X142.959 Y80.261 E.0181
;WIDTH:0.579991
G1 X143.131 Y80.116 E.01653
;WIDTH:0.533919
G1 X146.644 Y80.117 E.23454
;WIDTH:0.574446
G1 X146.831 Y80.137 E.01366
;WIDTH:0.615094
G1 X147.018 Y80.157 E.01478
;WIDTH:0.655742
G1 X147.205 Y80.178 E.0159
;WIDTH:0.7
G1 X148.155 Y80.242 E.08658
G1 X148.399 Y80.341 E.02394
G1 X148.602 Y80.512 E.02413
G1 X148.779 Y80.806 E.0312
G1 X148.83 Y81.178 E.03414
G1 X148.82 Y81.831 E.05938
G1 X148.706 Y82.322 E.04583
;WIDTH:0.713332
G1 X148.587 Y82.808 E.04647
;WIDTH:0.760895
G1 X148.506 Y83.049 E.02537
;WIDTH:0.808459
G1 X148.426 Y83.29 E.0271
G1 X148.083 Y84.773 E.16243
G1 X147.722 Y86.512 E.18953
;WIPE_START
G1 F6240
G1 X147.71 Y86.571 E-.01925
G1 X147.704 Y84.129 E-.78075
;WIPE_END
G1 Z.75 F7800
G1 X148.181 Y80.769
G1 Z.35
G1 E.8 F2100
;WIDTH:0.410103
G1 F1800
G1 X148.317 Y80.956 E.01127
;WIPE_START
G1 F6240
G1 X148.181 Y80.769 E-.07393
;WIPE_END
G1 E-.72607 F2100
G1 Z.75 F7800
G1 X141.041 Y81.125
G1 Z.35
G1 E.8 F2100
;WIDTH:0.7
G1 F1800
G1 X140.938 Y81.392 E.02602
G1 X140.855 Y81.964 E.05256
G1 X140.856 Y87.974 E.54649
G1 X140.893 Y88.314 E.0311
G1 X141.033 Y88.804 E.04634
G1 X140.883 Y88.877 E.01517
G1 X140.417 Y89.188 E.05094
G1 X140.184 Y89.433 E.03074
G1 X139.836 Y89.949 E.05659
G1 X139.698 Y90.328 E.03668
G1 X139.612 Y90.838 E.04703
G1 X139.608 Y94.055 E.29252
G1 X139.63 Y94.319 E.02409
;WIDTH:0.655346
G1 X139.652 Y94.584 E.02245
;WIDTH:0.610693
G1 X139.671 Y94.646 E.00505
;WIDTH:0.57308
G1 X139.69 Y94.709 E.00477
;WIDTH:0.535468
G1 X139.708 Y94.771 E.00432
;WIDTH:0.497855
G1 X139.727 Y94.834 E.00405
;WIDTH:0.460243
G1 X139.745 Y95.584 E.04204
;WIDTH:0.449971
G1 X139.792 Y95.875 E.01608
;WIDTH:0.47685
G1 X139.839 Y96.166 E.01723
;WIDTH:0.522196
G1 X139.895 Y96.317 E.01048
;WIDTH:0.567543
G1 X139.951 Y96.468 E.01154
;WIDTH:0.61289
G1 X140.007 Y96.619 E.0126
;WIDTH:0.658237
G1 X140.063 Y96.77 E.01367
;WIDTH:0.703584
G1 X140.119 Y96.921 E.01473
G1 X140.195 Y97 E.01003
;WIDTH:0.704402
G1 X140.191 Y104.497 E.6865
;WIDTH:0.7
G1 X140.188 Y107.657 E.28734
;WIDTH:0.702601
G1 X140.184 Y115.022 E.67248
;WIDTH:0.696896
G1 X140.184 Y115.153 E.01185
G1 X140.109 Y115.224 E.00934
G1 X140.053 Y115.376 E.01466
;WIDTH:0.65127
G1 X139.996 Y115.528 E.01361
;WIDTH:0.605645
G1 X139.94 Y115.681 E.01258
;WIDTH:0.56002
G1 X139.883 Y115.833 E.01145
;WIDTH:0.514395
G1 X139.826 Y115.985 E.01038
;WIDTH:0.46877
G1 X139.779 Y116.273 E.01672
;WIDTH:0.441605
G1 X139.732 Y116.561 E.01556
;WIDTH:0.450562
G1 X139.712 Y117.321 E.04154
;WIDTH:0.491072
G1 X139.691 Y117.444 E.00755
;WIDTH:0.531583
G1 X139.671 Y117.568 E.00834
;WIDTH:0.573687
G1 X139.649 Y117.699 E.00964
;WIDTH:0.615791
G1 X139.628 Y117.831 E.01052
;WIDTH:0.657895
G1 X139.606 Y117.962 E.01126
;WIDTH:0.7
G1 X139.585 Y118.093 E.01206
G1 X139.576 Y121.18 E.2807
G1 X139.651 Y121.674 E.04543
G1 X139.837 Y122.267 E.05651
G1 X139.996 Y122.523 E.0274
G1 X140.321 Y122.913 E.04616
G1 X140.565 Y123.106 E.02829
G1 X141.023 Y123.371 E.04811
G1 X140.936 Y123.613 E.02338
G1 X140.856 Y124.178 E.05189
G1 X140.857 Y129.439 E.47838
G1 X140.874 Y130.416 E.08885
G1 X141.031 Y130.989 E.05402
G1 X140.689 Y131.153 E.03449
G1 X140.442 Y131.341 E.02823
G1 X140.069 Y131.714 E.04797
G1 X139.815 Y132.119 E.04347
G1 X139.641 Y132.62 E.04822
G1 X139.568 Y133.171 E.05054
G1 X139.671 Y133.855 E.0629
G1 X139.883 Y134.368 E.05047
G1 X140.163 Y134.747 E.04285
G1 X140.14 Y135.604 E.07795
G1 X140.069 Y135.725 E.01276
G1 X139.836 Y135.779 E.02175
G1 X131.722 Y135.785 E.7378
G1 X130.545 Y135.912 E.10765
G1 X129.408 Y136.241 E.10763
G1 X128.345 Y136.762 E.10764
G1 X127.597 Y137.286 E.08304
G1 X127.181 Y137.668 E.05136
G1 X126.712 Y138.137 E.06031
G1 X125.971 Y139.175 E.11597
G1 X122.059 Y145.939 E.7105
G1 X122.06 Y143.758 E.19832
G1 X121.956 Y143.199 E.0517
G1 X121.714 Y142.778 E.04416
G1 X121.425 Y142.501 E.0364
G1 X121.144 Y142.336 E.02963
G1 X120.894 Y142.247 E.02413
G1 X120.497 Y142.196 E.0364
G1 X118.891 Y142.196 E.14603
G1 X118.04 Y141.39 E.10658
G1 X117.564 Y141.068 E.05226
G1 X117.563 Y138.867 E.20014
G1 X117.483 Y138.428 E.04058
G1 X117.304 Y138.063 E.03697
G1 X116.948 Y137.684 E.04728
G1 X116.509 Y137.449 E.04528
G1 X116.002 Y137.365 E.04673
G1 X112.173 Y137.365 E.34817
G1 X111.661 Y137.386 E.0466
G1 X111.182 Y137.55 E.04604
G1 X110.774 Y137.865 E.04687
G1 X110.501 Y138.271 E.04449
G1 X110.399 Y138.566 E.02838
G1 X110.357 Y138.927 E.03305
G1 X110.357 Y141.051 E.19313
G1 X110.166 Y141.18 E.02096
G1 X109.427 Y141.783 E.08673
G1 X109.025 Y142.196 E.05241
G1 X107.251 Y142.205 E.16131
G1 X106.777 Y142.336 E.04472
G1 X106.496 Y142.501 E.02963
G1 X106.207 Y142.778 E.0364
G1 X105.965 Y143.199 E.04416
G1 X105.862 Y143.758 E.05169
G1 X105.862 Y145.939 E.19832
G1 X101.877 Y139.061 E.7228
G1 X101.512 Y138.539 E.05792
G1 X101.179 Y138.105 E.04974
G1 X100.762 Y137.689 E.05356
G1 X100.324 Y137.286 E.05412
G1 X99.402 Y136.657 E.10149
G1 X98.841 Y136.375 E.05709
G1 X98.1 Y136.099 E.0719
G1 X97.432 Y135.926 E.06274
G1 X96.892 Y135.846 E.04964
G1 X96.064 Y135.779 E.07554
G1 X88.512 Y135.779 E.6867
G1 X87.932 Y135.755 E.05278
G1 X87.812 Y135.684 E.01268
G1 X87.757 Y135.454 E.0215
G1 X87.758 Y134.811 E.05847
G1 X88.038 Y134.368 E.04765
G1 X88.25 Y133.855 E.05047
G1 X88.353 Y133.171 E.0629
G1 X88.28 Y132.62 E.05054
G1 X88.106 Y132.119 E.04822
G1 X87.852 Y131.714 E.04347
G1 X87.38 Y131.257 E.05974
G1 X86.89 Y130.989 E.05078
G1 X87.01 Y130.595 E.03745
G1 X87.065 Y130.185 E.03762
G1 X87.065 Y124.71 E.49784
G1 X87.034 Y123.87 E.07643
G1 X86.896 Y123.374 E.04681
G1 X87.025 Y123.314 E.01294
G1 X87.506 Y122.998 E.05233
G1 X87.744 Y122.753 E.03106
G1 X88.085 Y122.266 E.05406
G1 X88.291 Y121.685 E.05605
G1 X88.334 Y121.317 E.03369
G1 X88.333 Y118.093 E.29316
G1 X88.308 Y117.939 E.01419
;WIDTH:0.650289
G1 X88.283 Y117.784 E.01314
;WIDTH:0.600578
G1 X88.258 Y117.629 E.012
;WIDTH:0.550868
G1 X88.233 Y117.475 E.0108
;WIDTH:0.501157
G1 X88.208 Y117.32 E.00973
;WIDTH:0.451447
G1 X88.189 Y116.565 E.04136
;WIDTH:0.441687
G1 X88.142 Y116.275 E.01567
;WIDTH:0.468756
G1 X88.095 Y115.985 E.01683
;WIDTH:0.514384
G1 X88.038 Y115.833 E.01038
;WIDTH:0.560012
G1 X87.982 Y115.681 E.01143
;WIDTH:0.60564
G1 X87.925 Y115.528 E.0126
;WIDTH:0.651268
G1 X87.869 Y115.376 E.01358
;WIDTH:0.696897
G1 X87.812 Y115.224 E.01469
G1 X87.737 Y115.146 E.00979
G1 X87.737 Y115.022 E.01122
;WIDTH:0.702601
G1 X87.733 Y107.657 E.67248
;WIDTH:0.7
G1 X87.731 Y104.498 E.28725
;WIDTH:0.7044
G1 X87.727 Y97.126 E.67505
;WIDTH:0.703584
G1 X87.727 Y96.993 E.01216
G1 X87.802 Y96.921 E.00951
G1 X87.858 Y96.77 E.01473
;WIDTH:0.658239
G1 X87.914 Y96.619 E.01367
;WIDTH:0.612895
G1 X87.97 Y96.468 E.0126
;WIDTH:0.56755
G1 X88.026 Y96.317 E.01154
;WIDTH:0.522206
G1 X88.083 Y96.166 E.0105
;WIDTH:0.476862
G1 X88.129 Y95.877 E.01711
;WIDTH:0.44989
G1 X88.176 Y95.588 E.01597
;WIDTH:0.459384
G1 X88.195 Y94.834 E.04217
;WIDTH:0.508023
G1 X88.22 Y94.753 E.00534
;WIDTH:0.556663
G1 X88.244 Y94.673 E.00585
;WIDTH:0.605303
G1 X88.269 Y94.592 E.00654
;WIDTH:0.653943
G1 X88.293 Y94.512 E.00703
;WIDTH:0.7
G1 X88.317 Y93.528 E.0895
G1 X88.316 Y90.851 E.24342
G1 X88.201 Y90.233 E.05716
G1 X87.957 Y89.729 E.05092
G1 X87.656 Y89.34 E.04472
G1 X87.218 Y88.996 E.05064
G1 X86.888 Y88.805 E.03467
G1 X87.011 Y88.386 E.03971
G1 X87.066 Y87.976 E.03762
G1 X87.066 Y81.971 E.54603
G1 X87.013 Y81.568 E.03696
G1 X86.878 Y81.126 E.04202
G1 X87.252 Y80.939 E.03802
G1 X87.565 Y80.667 E.03771
G1 X87.991 Y80.157 E.06042
G1 X88.137 Y79.854 E.03058
G1 X88.278 Y79.258 E.05569
G1 X88.303 Y78.764 E.04498
G1 X88.11 Y78.062 E.0662
G1 X87.873 Y77.605 E.04681
G1 X87.715 Y77.422 E.02198
G1 X87.736 Y76.54 E.08022
G1 X87.825 Y76.39 E.01586
G1 X88.085 Y76.326 E.02435
G1 X96.2 Y76.32 E.73789
G1 X97.368 Y76.194 E.10682
G1 X98.497 Y75.867 E.10688
G1 X99.553 Y75.348 E.10699
G1 X100.502 Y74.654 E.1069
G1 X101.335 Y73.779 E.10985
G1 X101.907 Y72.951 E.09151
G1 X105.86 Y66.096 E.71953
G1 X105.86 Y68.365 E.20632
G1 X105.962 Y68.921 E.0514
G1 X106.202 Y69.34 E.04391
G1 X106.489 Y69.618 E.03633
G1 X106.77 Y69.784 E.02968
G1 X107.02 Y69.874 E.02416
G1 X107.422 Y69.927 E.03687
G1 X109.001 Y69.932 E.14358
G1 X109.831 Y70.731 E.10476
G1 X110.355 Y71.105 E.05854
G1 X110.356 Y73.26 E.19595
G1 X110.438 Y73.702 E.04088
G1 X110.676 Y74.148 E.04597
G1 X110.978 Y74.447 E.03864
G1 X111.414 Y74.678 E.04487
G1 X111.917 Y74.762 E.04637
G1 X116.004 Y74.762 E.37163
G1 X116.408 Y74.708 E.03706
G1 X116.856 Y74.509 E.04457
G1 X117.205 Y74.199 E.04245
G1 X117.399 Y73.903 E.03218
G1 X117.53 Y73.535 E.03552
G1 X117.566 Y73.199 E.03073
G1 X117.566 Y71.105 E.19041
G1 X118.262 Y70.584 E.07905
G1 X118.925 Y69.927 E.08487
G1 X120.675 Y69.917 E.15913
G1 X121.151 Y69.785 E.04492
G1 X121.432 Y69.618 E.02972
G1 X121.719 Y69.341 E.03627
G1 X121.959 Y68.921 E.04399
G1 X122.061 Y68.365 E.0514
G1 X122.062 Y66.096 E.20632
G1 X125.654 Y72.325 E.65383
G1 X126.202 Y73.23 E.0962
G1 X126.781 Y74.015 E.0887
G1 X127.224 Y74.458 E.05697
G1 X127.628 Y74.83 E.04994
G1 X128.369 Y75.348 E.08221
G1 X128.81 Y75.58 E.04531
G1 X129.68 Y75.96 E.08633
G1 X130.553 Y76.194 E.08218
G1 X131.033 Y76.26 E.04406
G1 X131.858 Y76.326 E.07526
G1 X139.409 Y76.326 E.68661
G1 X139.996 Y76.352 E.05343
G1 X140.147 Y76.441 E.01594
G1 X140.21 Y76.698 E.02406
G1 X140.207 Y77.421 E.06574
G1 X140.048 Y77.605 E.02211
G1 X139.812 Y78.061 E.04669
G1 X139.619 Y78.76 E.06594
G1 X139.643 Y79.253 E.04488
G1 X139.783 Y79.851 E.05585
G1 X139.93 Y80.156 E.03079
G1 X140.358 Y80.669 E.06075
G1 X140.662 Y80.935 E.03673
G1 X140.988 Y81.098 E.03314
;WIPE_START
G1 F6240
G1 X141.041 Y81.125 E-.01902
G1 X140.938 Y81.392 E-.09149
G1 X140.855 Y81.964 E-.18479
G1 X140.855 Y83.543 E-.5047
;WIPE_END
G1 Z.75 F7800
G1 X147.308 Y89.204
G1 Z.35
G1 E.8 F2100
;WIDTH:0.576077
G1 F1800
G1 X147.246 Y89.386 E.01402
G1 X147.088 Y89.605 E.01969
G1 X146.842 Y89.791 E.02248
;WIDTH:0.580174
G1 X146.394 Y89.898 E.03385
G1 X143.209 Y89.897 E.23408
;WIDTH:0.579298
G1 X143.072 Y89.738 E.0154
;WIDTH:0.620221
G1 X142.954 Y89.633 E.01253
;WIDTH:0.661144
G1 X142.836 Y89.528 E.01347
;WIDTH:0.702067
G1 X142.718 Y89.423 E.01441
G1 X142.81 Y89.428 E.00841
;WIDTH:0.673699
G1 X143.067 Y89.41 E.02244
;WIDTH:0.626498
G1 X143.324 Y89.392 E.02067
;WIDTH:0.580174
G1 X146.384 Y89.393 E.22489
G1 X146.869 Y89.361 E.03572
;WIDTH:0.576077
G1 X147.252 Y89.224 E.02965
;WIPE_START
G1 F6240
G1 X147.308 Y89.204 E-.01901
G1 X147.246 Y89.386 E-.06147
G1 X147.088 Y89.605 E-.08634
G1 X146.842 Y89.791 E-.0986
;WIPE_END
G1 E-.53458 F2100
G1 Z.75 F7800
G1 X138.614 Y105.304
G1 Z.35
M73 P1 R49
G1 E.8 F2100
;WIDTH:0.7
G1 F1800
G1 X138.271 Y105.52 E.03686
;WIDTH:0.725534
G1 X138.005 Y105.601 E.02632
;WIDTH:0.751069
G1 X137.74 Y105.683 E.02728
;WIDTH:0.78288
G1 X137.461 Y105.723 E.02903
G1 X137.107 Y105.723 E.03646
G1 X137.107 Y106.431 E.07292
;WIDTH:0.790357
G1 X137.604 Y106.433 E.05173
G1 X137.937 Y106.534 E.03622
;WIDTH:0.745178
G1 X138.27 Y106.635 E.03393
;WIDTH:0.7
G1 X138.769 Y106.946 E.05346
G1 X139.294 Y107.571 E.07422
G1 X139.413 Y107.828 E.02575
;WIDTH:0.702601
G1 X139.559 Y108.483 E.06127
G1 X139.562 Y115.022 E.59706
;WIDTH:0.696896
G1 X139.543 Y115.154 E.01207
;WIDTH:0.658503
G1 X139.524 Y115.286 E.01132
;WIDTH:0.62011
G1 X139.505 Y115.419 E.01065
;WIDTH:0.581717
G1 X139.486 Y115.551 E.00983
;WIDTH:0.543325
G1 X139.466 Y115.761 E.01437
;WIDTH:0.503263
G1 X139.446 Y115.971 E.01314
;WIDTH:0.463201
G1 X139.427 Y116.181 E.01191
;WIDTH:0.450562
G1 X139.337 Y117.302 E.06144
;WIDTH:0.500449
G1 X139.328 Y117.453 E.00936
;WIDTH:0.550337
G1 X139.319 Y117.603 E.01039
;WIDTH:0.600224
G1 X139.31 Y117.754 E.01156
;WIDTH:0.650112
G1 X139.3 Y117.905 E.01266
;WIDTH:0.7
G1 X139.291 Y118.056 E.01375
G1 X138.855 Y119.148 E.10692
G1 X138.168 Y120.234 E.11685
G1 X137.671 Y120.808 E.06904
G1 X136.74 Y121.591 E.11061
G1 X136.188 Y121.919 E.05839
G1 X135.649 Y122.207 E.05557
G1 X134.95 Y122.477 E.06814
G1 X134.319 Y122.643 E.05933
G1 X133.315 Y122.759 E.0919
G1 X132.962 Y122.786 E.03219
G1 X130.46 Y122.786 E.22751
G1 X129.462 Y122.695 E.09112
G1 X129.029 Y122.623 E.03991
G1 X128.087 Y122.338 E.08949
G1 X126.936 Y121.76 E.11712
G1 X125.919 Y120.968 E.11721
G1 X125.397 Y120.419 E.06888
G1 X124.708 Y119.414 E.1108
G1 X124.201 Y118.269 E.11386
G1 X124.001 Y117.547 E.06812
