; generated by PrusaSlicer 2.7.1+linux-x64-GTK3 on 2024-02-20 at 15:26:36 UTC

; 

; external perimeters extrusion width = 0.45mm
; perimeters extrusion width = 0.45mm
; infill extrusion width = 0.45mm
; solid infill extrusion width = 0.45mm
; top infill extrusion width = 0.40mm
; first layer extrusion width = 0.42mm

M73 P0 R14
M201 X9000 Y9000 Z500 E10000 ; sets maximum accelerations, mm/sec^2
M203 X500 Y500 Z12 E120 ; sets maximum feedrates, mm / sec
M204 S2000 T1500 ; sets acceleration (S) and retract acceleration (R), mm/sec^2
M205 X10.00 Y10.00 Z0.20 E2.50 ; sets the jerk limits, mm/sec
M205 S0 T0 ; sets the minimum extruding and travel feed rate, mm/sec

; printing object MuIntelligentCamera_mount.stl id:0 copy 0
; stop printing object MuIntelligentCamera_mount.stl id:0 copy 0

;TYPE:Custom
M862.3 P "MK2S" ; printer model check
M862.1 P0.4 ; nozzle diameter check
M115 U3.2.3 ; tell printer latest fw version
G90 ; use absolute coordinates
M83 ; extruder relative mode
M204 S2000 T1500 ; MK2 firmware only supports the old M204 format
M104 S215 ; set extruder temp
M140 S60 ; set bed temp
M190 S60 ; wait for bed temp
M109 S215 ; wait for extruder temp
G28 W ; home all without mesh bed level
G80 ; mesh bed leveling
G1 Z0.2 F720
G1 Y-2 F1000 ; go outside print area
G92 E0
G1 X60 E9 F1000 ; intro line
G1 X100 E12.5 F1000 ; intro line
G92 E0
G21 ; set units to millimeters
G90 ; use absolute coordinates
M83 ; use relative distances for extrusion

M900 K0.05 ; Filament gcode LA 1.5
M900 K30 ; Filament gcode LA 1.0




M107
;LAYER_CHANGE
;Z:0.2
;HEIGHT:0.2
;BEFORE_LAYER_CHANGE
G92 E0.0
;0.2


G1 E-.8 F2100
G1 Z.2 F720
;AFTER_LAYER_CHANGE
;0.2
G1 X110.525 Y94.024 F10800
G1 Z.2 F720
G1 E.8 F2100
M204 S800
;TYPE:Skirt/Brim
;WIDTH:0.42
G1 F1200
G1 X111.212 Y93.474 E.02759
G1 X111.881 Y93.204 E.02262
G1 X112.546 Y93.117 E.02103
G1 X137.714 Y93.131 E.78913
G1 X138.203 Y93.227 E.01562
G1 X138.788 Y93.474 E.01991
G1 X139.204 Y93.762 E.01586
G1 X139.851 Y94.527 E.03141
G1 X140.227 Y95.402 E.02986
G1 X145.373 Y118.817 E.75168
G1 X145.48 Y119.748 E.02938
M73 P1 R14
G1 X145.469 Y120.922 E.03681
G1 X145.145 Y122.671 E.05577
G1 X144.868 Y123.461 E.02625
G1 X144.412 Y124.403 E.03281
G1 X143.969 Y125.112 E.02621
G1 X143.301 Y125.953 E.03367
G1 X142.05 Y127.069 E.05256
G1 X140.739 Y127.826 E.04747
G1 X139.244 Y128.337 E.04954
G1 X137.669 Y128.541 E.0498
G1 X111.967 Y128.521 E.80587
G1 X110.591 Y128.298 E.04371
G1 X109.596 Y127.971 E.03284
G1 X108.236 Y127.262 E.04809
G1 X107.183 Y126.443 E.04183
G1 X106.503 Y125.734 E.0308
G1 X105.942 Y124.982 E.02942
G1 X105.365 Y123.978 E.03631
G1 X105.032 Y123.196 E.02665
G1 X104.735 Y122.219 E.03202
G1 X104.567 Y121.285 E.02975
G1 X104.507 Y120.459 E.02597
G1 X104.549 Y119.387 E.03364
G1 X104.687 Y118.5 E.02815
G1 X109.741 Y95.531 E.7374
G1 X109.987 Y94.824 E.02347
G1 X110.492 Y94.074 E.02835
M204 S1000
;WIPE_START
G1 F8640
G1 X110.525 Y94.024 E-.01383
G1 X111.212 Y93.474 E-.2032
G1 X111.881 Y93.204 E-.16658
G1 X112.546 Y93.117 E-.15486
G1 X113.679 Y93.118 E-.26153
;WIPE_END
G1 Z.6 F720
G1 X111.584 Y114.706 F10800
G1 Z.2 F720
G1 E.8 F2100
M204 S800
G1 F1200
G1 X113.611 Y114.652 E.06358
G1 X114.796 Y114.91 E.03803
G1 X115.892 Y115.415 E.03784
G1 X116.841 Y116.13 E.03726
G1 X117.635 Y117.05 E.0381
G1 X118.202 Y118.095 E.03728
G1 X118.545 Y119.27 E.03838
G1 X118.626 Y120.474 E.03784
G1 X118.452 Y121.656 E.03746
G1 X117.989 Y122.858 E.04039
G1 X117.289 Y123.896 E.03925
G1 X116.379 Y124.752 E.03917
G1 X115.276 Y125.406 E.04021
G1 X113.213 Y125.88 E.06637
G1 X112.178 Y125.865 E.03246
G1 X111.15 Y125.689 E.0327
G1 X109.775 Y125.084 E.0471
G1 X108.585 Y124.064 E.04914
G1 X107.656 Y122.592 E.05458
G1 X107.199 Y120.793 E.0582
G1 X107.322 Y118.918 E.05892
G1 X107.678 Y117.876 E.03453
G1 X108.214 Y116.92 E.03436
G1 X109.506 Y115.596 E.058
G1 X110.494 Y115.04 E.03555
G1 X111.527 Y114.723 E.03388
M204 S1000
G1 X111.636 Y115.084 F10800
M204 S800
G1 F1200
G1 X111.669 Y115.074 E.00108
G1 X113.554 Y115.025 E.05912
G1 X114.658 Y115.262 E.0354
G1 X115.683 Y115.73 E.03533
G1 X116.57 Y116.393 E.03472
G1 X117.314 Y117.248 E.03554
G1 X117.861 Y118.256 E.03596
G1 X118.177 Y119.354 E.03582
G1 X118.249 Y120.477 E.03528
G1 X118.082 Y121.579 E.03495
G1 X117.645 Y122.701 E.03775
G1 X116.989 Y123.666 E.03659
G1 X116.137 Y124.462 E.03656
G1 X115.11 Y125.066 E.03736
G1 X113.196 Y125.502 E.06155
G1 X112.198 Y125.488 E.03129
G1 X111.238 Y125.322 E.03055
G1 X109.955 Y124.751 E.04403
G1 X108.854 Y123.798 E.04566
G1 X107.992 Y122.418 E.05102
G1 X107.572 Y120.731 E.05451
G1 X107.687 Y119.015 E.05392
G1 X108.015 Y118.045 E.03211
G1 X108.531 Y117.126 E.03305
G1 X109.714 Y115.911 E.05317
G1 X110.661 Y115.378 E.03407
G1 X111.579 Y115.101 E.03007
M204 S1000
G1 X111.688 Y115.462 F10800
M204 S800
G1 F1200
G1 X111.754 Y115.442 E.00216
G1 X113.498 Y115.398 E.0547
G1 X114.522 Y115.614 E.03281
G1 X115.474 Y116.044 E.03275
G1 X116.328 Y116.682 E.03342
G1 X117.015 Y117.479 E.03299
G1 X117.505 Y118.382 E.03221
G1 X117.802 Y119.401 E.03328
M73 P2 R14
G1 X117.873 Y120.441 E.03268
G1 X117.713 Y121.501 E.03361
G1 X117.303 Y122.542 E.03508
G1 X116.691 Y123.435 E.03394
G1 X115.896 Y124.17 E.03395
G1 X114.946 Y124.726 E.03451
G1 X113.178 Y125.125 E.05683
G1 X112.248 Y125.114 E.02916
G1 X111.326 Y124.954 E.02934
G1 X110.136 Y124.419 E.04091
G1 X109.124 Y123.533 E.04217
G1 X108.328 Y122.246 E.04745
G1 X107.945 Y120.671 E.05082
G1 X108.052 Y119.113 E.04897
G1 X108.367 Y118.183 E.03079
G1 X108.847 Y117.333 E.03061
G1 X109.924 Y116.225 E.04845
G1 X110.79 Y115.733 E.03123
G1 X111.63 Y115.48 E.02751
M204 S1000
G1 X111.737 Y115.84 F10800
M204 S800
G1 F1200
G1 X111.836 Y115.811 E.00323
G1 X113.444 Y115.772 E.05043
G1 X114.388 Y115.967 E.03022
G1 X115.267 Y116.36 E.03019
G1 X116.057 Y116.946 E.03084
G1 X116.693 Y117.677 E.03038
G1 X117.163 Y118.543 E.03089
G1 X117.434 Y119.485 E.03073
G1 X117.495 Y120.444 E.03013
G1 X117.343 Y121.421 E.031
G1 X116.961 Y122.382 E.03242
G1 X116.393 Y123.202 E.03128
G1 X115.657 Y123.878 E.03133
G1 X114.782 Y124.385 E.03171
G1 X113.161 Y124.748 E.05208
G1 X112.268 Y124.737 E.028
G1 X111.415 Y124.587 E.02716
G1 X110.318 Y124.088 E.03779
G1 X109.395 Y123.271 E.03865
G1 X108.666 Y122.076 E.04389
G1 X108.319 Y120.612 E.04717
G1 X108.417 Y119.21 E.04407
G1 X108.704 Y118.352 E.02837
G1 X109.164 Y117.539 E.02929
G1 X110.133 Y116.54 E.04364
G1 X110.957 Y116.072 E.02971
G1 X111.68 Y115.858 E.02364
M204 S1000
G1 X111.787 Y116.219 F10800
M204 S800
G1 F1200
G1 X111.92 Y116.18 E.00435
G1 X113.39 Y116.146 E.0461
G1 X114.253 Y116.32 E.0276
G1 X115.093 Y116.695 E.02884
G1 X115.815 Y117.235 E.02827
G1 X116.394 Y117.907 E.02781
G1 X116.821 Y118.703 E.02832
G1 X117.065 Y119.567 E.02815
G1 X117.117 Y120.445 E.02758
G1 X116.975 Y121.34 E.02841
G1 X116.619 Y122.22 E.02976
G1 X116.097 Y122.969 E.02863
G1 X115.419 Y123.585 E.02872
G1 X114.62 Y124.043 E.02888
G1 X113.143 Y124.371 E.04744
G1 X112.318 Y124.363 E.02587
G1 X111.505 Y124.22 E.02588
G1 X110.503 Y123.758 E.0346
G1 X109.669 Y123.01 E.03513
G1 X109.005 Y121.908 E.04034
G1 X108.692 Y120.555 E.04354
G1 X108.782 Y119.308 E.0392
G1 X109.056 Y118.49 E.02705
G1 X109.479 Y117.747 E.02681
G1 X110.345 Y116.853 E.03903
G1 X111.086 Y116.427 E.0268
G1 X111.73 Y116.236 E.02106
M204 S1000
G1 X111.834 Y116.597 F10800
M204 S800
G1 F1200
G1 X112 Y116.549 E.00542
G1 X113.338 Y116.52 E.04196
G1 X114.121 Y116.673 E.02501
G1 X114.886 Y117.011 E.02622
G1 X115.543 Y117.497 E.02562
G1 X116.094 Y118.137 E.02648
G1 X116.478 Y118.861 E.0257
G1 X116.697 Y119.647 E.02558
G1 X116.74 Y120.444 E.02503
G1 X116.606 Y121.257 E.02583
G1 X116.279 Y122.057 E.0271
G1 X115.801 Y122.733 E.02596
G1 X115.183 Y123.291 E.02611
G1 X114.459 Y123.701 E.02609
G1 X113.124 Y123.993 E.04285
G1 X112.367 Y123.989 E.02374
G1 X111.596 Y123.853 E.02455
G1 X110.69 Y123.429 E.03136
G1 X109.944 Y122.751 E.03161
G1 X109.345 Y121.742 E.03679
G1 X109.066 Y120.501 E.03988
G1 X109.147 Y119.404 E.03449
G1 X109.393 Y118.66 E.02457
G1 X109.795 Y117.954 E.02547
G1 X110.556 Y117.167 E.03433
G1 X111.254 Y116.766 E.02524
G1 X111.777 Y116.614 E.01708
M204 S1000
G1 X111.882 Y116.976 F10800
M204 S800
G1 F1200
G1 X112.082 Y116.918 E.00653
G1 X113.287 Y116.894 E.03779
G1 X113.991 Y117.028 E.02247
G1 X114.681 Y117.328 E.02359
G1 X115.273 Y117.762 E.02302
G1 X115.772 Y118.335 E.02382
G1 X116.121 Y118.984 E.0231
G1 X116.321 Y119.689 E.02298
G1 X116.362 Y120.443 E.02368
G1 X116.238 Y121.173 E.02322
G1 X115.958 Y121.859 E.02323
G1 X115.531 Y122.469 E.02335
G1 X114.978 Y122.974 E.02348
G1 X114.299 Y123.359 E.02447
G1 X113.106 Y123.616 E.03826
G1 X112.386 Y123.612 E.02258
G1 X111.688 Y123.487 E.02223
G1 X110.878 Y123.101 E.02813
G1 X110.222 Y122.494 E.02802
G1 X109.686 Y121.579 E.03325
G1 X109.441 Y120.448 E.03628
G1 X109.513 Y119.498 E.02987
G1 X109.73 Y118.83 E.02202
G1 X110.111 Y118.161 E.02414
G1 X110.769 Y117.479 E.02971
G1 X111.382 Y117.121 E.02226
G1 X111.824 Y116.993 E.01443
M204 S1000
G1 X111.926 Y117.353 F10800
M204 S800
G1 F1200
G1 X112.16 Y117.287 E.00762
G1 X113.235 Y117.268 E.03371
G1 X113.899 Y117.394 E.02119
G1 X114.509 Y117.664 E.02092
G1 X115.031 Y118.051 E.02037
G1 X115.472 Y118.564 E.02121
G1 X115.778 Y119.141 E.02048
G1 X115.952 Y119.769 E.02043
G1 X115.984 Y120.439 E.02103
G1 X115.871 Y121.086 E.02059
G1 X115.618 Y121.693 E.02062
G1 X115.236 Y122.234 E.02077
G1 X114.742 Y122.679 E.02085
G1 X114.14 Y123.016 E.02163
G1 X113.086 Y123.239 E.03378
G1 X112.436 Y123.238 E.02038
G1 X111.781 Y123.12 E.02087
G1 X111.07 Y122.776 E.02477
G1 X110.501 Y122.239 E.02453
G1 X110.028 Y121.418 E.02971
G1 X109.815 Y120.399 E.03264
G1 X109.879 Y119.592 E.02538
G1 X110.068 Y118.999 E.01951
G1 X110.427 Y118.368 E.02276
G1 X110.982 Y117.791 E.0251
G1 X111.551 Y117.459 E.02066
G1 X111.868 Y117.37 E.01032
M204 S1000
G1 X111.971 Y117.732 F10800
M204 S800
G1 F1200
G1 X112.238 Y117.657 E.0087
G1 X113.186 Y117.642 E.02973
G1 X113.769 Y117.749 E.01858
G1 X114.304 Y117.981 E.01828
G1 X114.761 Y118.316 E.01777
G1 X115.151 Y118.762 E.01858
G1 X115.42 Y119.263 E.01783
G1 X115.583 Y119.848 E.01904
G1 X115.607 Y120.432 E.01833
G1 X115.504 Y120.997 E.01801
G1 X115.28 Y121.526 E.01801
G1 X114.943 Y121.996 E.01813
G1 X114.508 Y122.382 E.01823
G1 X113.984 Y122.671 E.01876
G1 X113.068 Y122.862 E.02934
G1 X112.454 Y122.861 E.01925
G1 X111.874 Y122.754 E.01849
G1 X111.307 Y122.481 E.01973
G1 X110.781 Y121.985 E.02267
G1 X110.372 Y121.26 E.0261
G1 X110.19 Y120.352 E.02904
G1 X110.245 Y119.684 E.02102
G1 X110.406 Y119.167 E.01698
G1 X110.744 Y118.575 E.02137
G1 X111.197 Y118.102 E.02053
G1 X111.678 Y117.815 E.01756
G1 X111.913 Y117.749 E.00765
M204 S1000
G1 X112.015 Y118.112 F10800
M204 S800
G1 F1200
G1 X112.317 Y118.027 E.00984
G1 X113.139 Y118.016 E.02578
G1 X113.643 Y118.105 E.01605
G1 X114.102 Y118.3 E.01564
G1 X114.494 Y118.583 E.01516
G1 X114.83 Y118.961 E.01586
G1 X115.078 Y119.422 E.01641
G1 X115.213 Y119.924 E.0163
G1 X115.229 Y120.423 E.01565
G1 X115.138 Y120.905 E.01538
G1 X114.942 Y121.356 E.01542
G1 X114.651 Y121.756 E.01551
G1 X114.277 Y122.084 E.0156
G1 X113.829 Y122.326 E.01597
G1 X113.05 Y122.485 E.02493
G1 X112.473 Y122.484 E.01809
G1 X111.971 Y122.389 E.01602
G1 X111.502 Y122.157 E.01641
G1 X111.064 Y121.735 E.01907
G1 X110.717 Y121.106 E.02252
G1 X110.566 Y120.308 E.02546
G1 X110.611 Y119.774 E.0168
G1 X110.744 Y119.335 E.01438
G1 X111.06 Y118.782 E.01997
G1 X111.416 Y118.41 E.01614
G1 X111.806 Y118.171 E.01434
G1 X111.958 Y118.128 E.00495
M204 S1000
G1 X112.06 Y118.491 F10800
M204 S800
G1 F1200
M73 P3 R14
G1 X112.394 Y118.397 E.01088
G1 X113.52 Y118.462 E.03536
G1 X114.256 Y118.875 E.02646
G1 X114.53 Y119.19 E.01309
G1 X114.733 Y119.577 E.0137
G1 X114.842 Y119.996 E.01357
G1 X114.772 Y120.809 E.02559
G1 X114.362 Y121.514 E.02557
G1 X113.678 Y121.98 E.02595
G1 X113.033 Y122.108 E.02062
G1 X112.071 Y122.024 E.03028
G1 X111.702 Y121.836 E.01298
G1 X111.351 Y121.488 E.0155
G1 X111.064 Y120.955 E.01898
G1 X110.941 Y120.268 E.02188
G1 X111.083 Y119.502 E.02443
G1 X111.376 Y118.989 E.01852
G1 X111.937 Y118.526 E.02281
G1 X112.002 Y118.507 E.00212
M204 S1000
G1 X112.162 Y118.894 F10800
M204 S800
G1 F1200
G1 X112.471 Y118.767 E.01047
G1 X113.076 Y118.768 E.01897
G1 X113.732 Y118.957 E.02141
G1 X114.207 Y119.387 E.02009
G1 X114.389 Y119.731 E.0122
G1 X114.471 Y120.063 E.01072
G1 X114.408 Y120.709 E.02035
G1 X114.075 Y121.268 E.0204
G1 X113.53 Y121.632 E.02055
G1 X113.016 Y121.731 E.01641
G1 X112.175 Y121.661 E.02646
G1 X111.907 Y121.518 E.00952
G1 X111.641 Y121.247 E.01191
G1 X111.413 Y120.809 E.01548
G1 X111.317 Y120.233 E.01831
G1 X111.423 Y119.667 E.01806
G1 X111.865 Y119.016 E.02467
G1 X112.106 Y118.917 E.00817
M204 S1000
G1 X112.253 Y119.211 F10800
M204 S800
G1 F1200
G1 X112.496 Y119.144 E.0079
G1 X113.311 Y119.187 E.02559
G1 X113.728 Y119.415 E.0149
G1 X114.043 Y119.884 E.01771
G1 X114.098 Y120.369 E.0153
G1 X113.942 Y120.825 E.01511
G1 X113.792 Y121.018 E.00766
G1 X113.386 Y121.283 E.0152
G1 X113 Y121.354 E.01231
G1 X112.285 Y121.299 E.02248
G1 X111.937 Y121.011 E.01416
G1 X111.763 Y120.667 E.01209
G1 X111.695 Y120.247 E.01334
G1 X111.779 Y119.793 E.01448
G1 X111.983 Y119.435 E.01292
G1 X112.207 Y119.249 E.00913
M204 S1000
;WIPE_START
G1 F8640
G1 X112.253 Y119.211 E-.01378
G1 X112.496 Y119.144 E-.0582
G1 X113.311 Y119.187 E-.18845
G1 X113.728 Y119.415 E-.10974
G1 X114.043 Y119.884 E-.13045
G1 X114.098 Y120.369 E-.11271
G1 X113.942 Y120.825 E-.11128
G1 X113.792 Y121.018 E-.05644
G1 X113.723 Y121.063 E-.01895
;WIPE_END
G1 Z.6 F720
G1 X131.372 Y120.049 F10800
G1 Z.2 F720
G1 E.8 F2100
M204 S800
G1 F1200
G1 X131.545 Y118.865 E.03752
G1 X131.958 Y117.742 E.03752
G1 X132.579 Y116.76 E.03643
G1 X133.393 Y115.923 E.03661
G1 X134.528 Y115.187 E.04241
G1 X135.855 Y114.735 E.04395
G1 X136.806 Y114.62 E.03004
G1 X137.767 Y114.62 E.03013
G1 X139.023 Y114.859 E.04009
G1 X140.222 Y115.412 E.0414
G1 X141.514 Y116.563 E.05425
G1 X142.243 Y117.705 E.04248
G1 X142.714 Y119.101 E.04619
G1 X142.819 Y120.638 E.0483
G1 X142.634 Y121.752 E.03541
G1 X142.234 Y122.822 E.03582
G1 X141.624 Y123.808 E.03635
G1 X140.852 Y124.623 E.0352
G1 X139.694 Y125.372 E.04324
G1 X138.343 Y125.799 E.04443
G1 X136.499 Y125.855 E.05784
G1 X135.131 Y125.558 E.04389
G1 X133.813 Y124.887 E.04637
G1 X132.764 Y123.956 E.04398
G1 X132.047 Y122.925 E.03937
G1 X131.575 Y121.759 E.03944
G1 X131.379 Y120.108 E.05213
M204 S1000
G1 X131.749 Y120.079 F10800
M204 S800
G1 F1200
G1 X131.915 Y118.939 E.03612
G1 X132.304 Y117.893 E.03499
G1 X132.886 Y116.98 E.03395
G1 X133.647 Y116.202 E.03412
G1 X134.712 Y115.517 E.0397
G1 X135.956 Y115.099 E.04115
G1 X136.838 Y114.996 E.02784
G1 X137.748 Y114.997 E.02853
G1 X138.928 Y115.225 E.03768
G1 X140.037 Y115.742 E.03836
G1 X141.211 Y116.789 E.04932
G1 X141.893 Y117.848 E.03949
G1 X142.349 Y119.199 E.04471
G1 X142.443 Y120.598 E.04396
G1 X142.265 Y121.672 E.03413
G1 X141.888 Y122.671 E.03348
G1 X141.315 Y123.591 E.03398
G1 X140.595 Y124.346 E.03271
G1 X139.513 Y125.04 E.0403
G1 X138.256 Y125.431 E.04128
G1 X136.555 Y125.482 E.05336
G1 X135.28 Y125.211 E.04087
G1 X134.006 Y124.562 E.04483
G1 X133.06 Y123.721 E.03969
G1 X132.388 Y122.763 E.03669
G1 X131.934 Y121.641 E.03795
G1 X131.756 Y120.138 E.04745
M204 S1000
G1 X132.126 Y120.108 F10800
M204 S800
G1 F1200
G1 X132.285 Y119.014 E.03466
G1 X132.649 Y118.045 E.03246
G1 X133.192 Y117.2 E.03149
G1 X133.9 Y116.483 E.03159
G1 X134.894 Y115.848 E.03698
G1 X136.055 Y115.463 E.03835
G1 X137.729 Y115.374 E.05256
G1 X138.832 Y115.59 E.03524
G1 X139.851 Y116.071 E.03533
G1 X140.909 Y117.016 E.04448
G1 X141.544 Y117.992 E.03651
G1 X141.984 Y119.296 E.04315
G1 X142.068 Y120.559 E.03969
G1 X141.906 Y121.558 E.03173
G1 X141.558 Y122.489 E.03116
G1 X141.028 Y123.345 E.03157
G1 X140.338 Y124.069 E.03136
G1 X139.376 Y124.688 E.03587
G1 X138.169 Y125.063 E.03963
G1 X136.609 Y125.108 E.04893
G1 X135.428 Y124.863 E.03782
G1 X134.198 Y124.237 E.04327
G1 X133.355 Y123.486 E.0354
G1 X132.729 Y122.601 E.03399
G1 X132.293 Y121.523 E.03646
G1 X132.133 Y120.168 E.04278
M204 S1000
G1 X132.503 Y120.138 F10800
M204 S800
G1 F1200
G1 X132.655 Y119.089 E.03323
